P2 472 386 255
255 255 255 255 255 255 255 255 255 255 255 255 255 255 255 255 255
255 255 255 255 255 255 255 255 255 255 255 255 255 255 255 255 255
255 255 255 255 255 255 255 255 255 255 255 255 255 255 255 255 255
255 255 255 255 255 255 255 255 255 255 255 255 255 255 255 255 255
255 255 255 255 255 255 255 255 255 255 255 255 255 255 255 255 255
255 255 255 255 255 255 255 255 255 255 255 255 255 255 255 255 255
255 255 255 255 255 255 255 255 255 255 255 255 255 255 255 255 255
255 255 255 255 255 255 255 255 255 255 255 255 255 255 255 255 255
255 255 255 255 255 255 255 255 255 255 255 255 255 255 255 255 255
255 255 255 255 255 255 255 255 255 255 255 255 255 255 255 255 255
255 255 255 255 255 255 255 255 255 255 255 255 255 255 255 255 255
255 255 255 255 255 255 255 255 255 255 255 255 255 255 255 255 255
255 255 255 255 255 255 255 255 255 255 255 255 255 255 255 255 255
255 255 255 255 255 255 255 255 255 255 255 255 255 255 255 255 255
255 255 255 255 255 255 255 255 255 255 255 255 255 255 255 255 255
255 255 255 255 255 255 255 255 255 255 255 255 255 255 255 255 255
255 255 255 255 255 255 255 255 255 255 255 255 255 255 255 255 255
255 255 255 255 255 255 255 255 255 255 255 255 255 255 255 255 255
255 255 255 255 255 255 255 255 255 255 255 255 255 255 255 255 255
255 255 255 255 255 255 255 255 255 255 255 255 255 255 255 255 255
255 255 255 255 255 255 255 255 255 255 255 255 255 255 255 255 255
255 255 255 255 255 255 255 255 255 255 255 255 255 255 255 255 255
255 255 255 255 255 255 255 255 255 255 255 255 255 255 255 255 255
255 255 255 255 255 255 255 255 255 255 255 255 255 255 255 255 255
255 255 255 255 255 255 255 255 255 255 255 255 255 255 255 255 255
255 255 255 255 255 255 255 255 255 255 255 255 255 255 255 255 255
255 255 255 255 255 255 255 255 255 255 255 255 255 255 255 255 255
255 255 255 255 255 255 255 255 255 255 255 255 255 255 255 255 255
255 255 255 255 255 255 255 255 255 255 255 255 255 255 255 255 255
255 255 255 255 255 255 255 255 255 255 255 255 255 255 255 255 255
255 255 255 255 255 255 255 255 255 255 255 255 255 255 255 255 255
255 255 255 255 255 255 255 255 255 255 255 255 255 255 255 255 255
255 255 255 255 255 255 255 255 255 255 255 255 255 255 255 255 255
255 255 255 255 255 255 255 255 255 255 255 255 255 255 255 255 255
255 255 255 255 255 255 255 255 255 255 255 255 255 255 255 255 255
255 255 255 255 255 255 255 255 255 255 255 255 255 255 255 255 255
255 255 255 255 255 255 255 255 255 255 255 255 255 255 255 255 255
255 255 255 255 255 255 255 255 255 255 255 255 255 255 255 255 255
255 255 255 255 255 255 255 255 255 255 255 255 255 255 255 255 255
255 255 255 255 255 255 255 255 255 255 255 255 255 255 255 255 255
255 255 255 255 255 255 255 255 255 255 255 255 255 255 255 255 255
255 255 255 255 255 255 255 255 255 255 255 255 255 255 255 255 255
255 255 255 255 255 255 255 255 255 255 255 255 255 255 255 255 255
255 255 255 255 255 255 255 255 255 255 255 255 255 255 255 255 255
255 255 255 255 255 255 255 255 255 255 255 255 255 255 255 255 255
255 255 255 255 255 255 255 255 255 255 255 255 255 255 255 255 255
255 255 255 255 255 255 255 255 255 255 255 255 255 255 255 255 255
255 255 255 255 255 255 255 255 255 255 255 255 255 255 255 255 255
255 255 255 255 255 255 255 255 255 255 255 255 255 255 255 255 255
255 255 255 255 255 255 255 255 255 255 255 255 255 255 255 255 255
255 255 255 255 255 255 255 255 255 255 255 255 255 255 255 255 255
255 255 255 255 255 255 255 255 255 255 255 255 255 255 255 255 255
255 255 255 255 255 255 255 255 255 255 255 255 255 255 255 255 255
255 255 255 255 255 255 255 255 255 255 255 255 255 255 255 255 255
255 255 255 255 255 255 255 255 255 255 255 255 255 255 255 255 255
255 255 255 255 255 255 255 255 255 255 255 255 255 255 255 255 255
255 255 255 255 255 255 255 255 255 255 255 255 255 255 255 255 255
255 255 255 255 255 255 255 255 255 255 255 255 255 255 255 255 255
255 255 255 255 255 255 255 255 255 255 255 255 255 255 255 255 255
255 255 255 255 255 255 255 255 255 255 255 255 255 255 255 255 255
255 255 255 255 255 255 255 255 255 255 255 255 255 255 255 255 255
255 255 255 255 255 255 255 255 255 255 255 255 255 255 255 255 255
255 255 255 255 255 255 255 255 255 255 255 255 255 255 255 255 255
255 255 255 255 255 255 255 255 255 255 255 255 255 255 255 255 255
255 255 255 255 255 255 255 255 255 255 255 255 255 255 255 255 255
255 255 255 255 255 255 255 255 255 255 255 255 255 255 255 255 255
255 255 255 255 255 255 255 255 255 255 255 255 255 255 255 255 255
255 255 255 255 255 255 255 255 255 255 255 255 255 255 255 255 255
255 255 255 255 255 255 255 255 255 255 255 255 255 255 255 255 255
255 255 255 255 255 255 255 255 255 255 255 255 255 255 255 255 255
255 255 255 255 255 255 255 255 255 255 255 255 255 255 255 255 255
255 255 255 255 255 255 255 255 255 255 255 255 255 255 255 255 255
255 255 255 255 255 255 255 255 255 255 255 255 255 255 255 255 255
255 255 255 255 255 255 255 255 255 255 255 255 255 255 255 255 255
255 255 255 255 255 255 255 255 255 255 255 255 255 255 255 255 255
255 255 255 255 255 255 255 255 255 255 255 255 255 255 255 255 255
255 255 255 255 255 255 255 255 255 255 255 255 255 255 255 255 255
255 255 255 255 255 255 255 255 255 255 255 255 255 255 255 255 255
255 255 255 255 255 255 255 255 255 255 255 255 255 255 255 255 255
255 255 255 255 255 255 255 255 255 255 255 255 255 255 255 255 255
255 255 255 255 255 255 255 255 255 255 255 255 255 255 255 255 255
255 255 255 255 255 255 255 255 255 255 255 255 255 255 255 255 255
255 255 255 255 255 255 255 255 255 255 255 255 255 255 255 255 255
255 255 255 255 255 255 255 255 255 255 255 255 255 255 255 255 255
255 255 255 255 255 255 255 255 255 255 255 255 255 255 255 255 255
255 255 255 255 255 255 255 255 255 255 255 255 255 255 255 255 255
255 255 255 255 255 255 255 255 255 255 255 255 255 255 255 255 255
255 255 255 255 255 255 255 255 255 255 255 255 255 255 255 255 255
255 255 255 255 255 255 255 255 255 255 255 255 255 255 255 255 255
255 255 255 255 255 255 255 255 255 255 255 255 255 255 255 255 255
255 255 255 255 255 255 255 255 255 255 255 255 255 255 255 255 255
255 255 255 255 255 255 255 255 255 255 255 255 255 255 255 255 255
255 255 255 255 255 255 255 255 255 255 255 255 255 255 255 255 255
255 255 255 255 255 255 255 255 255 255 255 255 255 255 255 255 255
255 255 255 255 255 255 255 255 255 255 255 255 255 255 255 255 255
255 255 255 255 255 255 255 255 255 255 255 255 255 255 255 255 255
255 255 255 255 255 255 255 255 255 255 255 255 255 255 255 255 255
255 255 255 255 255 255 255 255 255 255 255 255 255 255 255 255 255
255 255 255 255 255 255 255 255 255 255 255 255 255 255 255 255 255
255 255 255 255 255 255 255 255 255 255 255 255 255 255 255 255 255
255 255 255 255 255 255 255 255 255 255 255 255 255 255 255 255 255
255 255 255 255 255 255 255 255 255 255 255 255 255 255 255 255 255
255 255 255 255 255 255 255 255 255 255 255 255 255 255 255 255 255
255 255 255 255 255 255 255 255 255 255 255 255 255 255 255 255 255
255 255 255 255 255 255 255 255 255 255 255 255 255 255 255 255 255
255 255 255 255 255 255 255 255 255 255 255 255 255 255 255 255 255
255 255 255 255 255 255 255 255 255 255 255 255 255 255 255 255 255
255 255 255 255 255 255 255 255 255 255 255 255 255 255 255 255 255
255 255 255 255 255 255 255 255 255 255 255 255 255 255 255 255 255
255 255 255 255 255 255 255 255 255 255 255 255 255 255 255 255 255
255 255 255 255 255 255 255 255 255 255 255 255 255 255 255 255 255
255 255 255 255 255 255 255 255 255 255 255 255 255 255 255 255 255
255 255 255 255 255 255 255 255 255 255 255 255 255 255 255 255 255
255 255 255 255 255 255 255 255 255 255 255 255 255 255 255 255 255
255 255 255 255 255 255 255 255 255 255 255 255 255 255 255 255 255
255 255 255 255 255 255 255 255 255 255 255 255 255 255 255 255 255
255 255 255 255 255 255 255 255 255 255 255 255 255 255 255 255 255
255 255 255 255 255 255 255 255 255 255 255 255 255 255 255 255 255
255 255 255 255 255 255 255 255 255 255 255 255 255 255 255 255 255
255 255 255 255 255 255 255 255 255 255 255 255 255 255 255 255 255
255 255 255 255 255 255 255 255 255 255 255 255 255 255 255 255 255
255 255 255 255 255 255 255 255 255 255 255 255 255 255 255 255 255
255 255 255 255 255 255 255 255 255 255 255 255 255 255 255 255 255
255 255 255 255 255 255 255 255 255 255 255 255 255 255 255 255 255
255 255 255 255 255 255 255 255 255 255 255 255 255 255 255 255 255
255 255 255 255 255 255 255 255 255 255 255 255 255 255 255 255 255
255 255 255 255 255 255 255 255 255 255 255 255 255 255 255 255 255
255 255 255 255 255 255 255 255 255 255 255 255 255 255 255 255 255
255 255 255 255 255 255 255 255 255 255 255 255 255 255 255 255 255
255 255 255 255 255 255 255 255 255 255 255 255 255 255 255 255 255
255 255 255 255 255 255 255 255 255 255 255 255 255 255 255 255 255
255 255 255 255 255 255 255 255 255 255 255 255 255 255 255 255 255
255 255 255 255 255 255 255 255 255 255 255 255 255 255 255 255 255
255 255 255 255 255 255 255 255 255 255 255 255 255 255 255 255 255
255 255 255 255 255 255 255 255 255 255 255 255 255 255 255 255 255
255 255 255 255 255 255 255 255 255 255 255 255 255 255 255 255 255
255 255 255 255 255 255 255 255 255 255 255 255 255 255 255 255 255
255 255 255 255 255 255 255 255 255 255 255 255 255 255 255 255 255
255 255 255 255 255 255 255 255 255 255 255 255 255 255 255 255 255
255 255 255 255 255 255 255 255 255 255 255 255 255 255 255 255 255
255 255 255 255 255 255 255 255 255 255 255 255 255 255 255 255 255
255 255 255 255 255 255 255 255 255 255 255 255 255 255 255 255 255
255 255 255 255 255 255 255 255 255 255 255 255 255 255 255 255 255
255 255 255 255 255 255 255 255 255 255 255 255 255 255 255 255 255
255 255 255 255 255 255 255 255 255 255 255 255 255 255 255 255 255
255 255 255 255 255 255 255 255 255 255 255 255 255 255 255 255 255
255 255 255 255 255 255 255 255 255 255 255 255 255 255 255 255 255
255 255 255 255 255 255 255 255 255 255 255 255 255 255 255 255 255
255 255 255 255 255 255 255 255 255 255 255 255 255 255 255 255 255
255 255 255 255 255 255 255 255 255 255 255 255 255 255 255 255 255
255 255 255 255 255 255 255 255 255 255 255 255 255 255 255 255 255
255 255 255 255 255 255 255 255 255 255 255 255 255 255 255 255 255
255 255 255 255 255 255 255 255 255 255 255 255 255 255 255 255 255
255 255 255 255 255 255 255 255 255 255 255 255 255 255 255 255 255
255 255 255 255 255 255 255 255 255 255 255 255 255 255 255 255 255
255 255 255 255 255 255 255 255 255 255 255 255 255 255 255 255 255
255 255 255 255 255 255 255 255 255 255 255 255 255 255 255 255 255
255 255 255 255 255 255 255 255 255 255 255 255 255 255 255 255 255
255 255 255 255 255 255 255 255 255 255 255 255 255 255 255 255 255
255 255 255 255 255 255 255 255 255 255 255 255 255 255 255 255 255
255 255 255 255 255 255 255 255 255 255 255 255 255 255 255 255 255
255 255 255 255 255 255 255 255 255 255 255 255 255 255 255 255 255
255 255 255 255 255 255 255 255 255 255 255 255 255 255 255 255 255
255 255 255 255 255 255 255 255 255 255 255 255 255 255 255 255 255
255 255 255 255 255 255 255 255 255 255 255 255 255 255 255 255 255
255 255 255 255 255 255 255 255 255 255 255 255 255 255 255 255 255
255 255 255 255 255 255 255 255 255 255 255 255 255 255 255 255 255
255 255 255 255 255 255 255 255 255 255 255 255 255 255 255 255 255
255 255 255 255 255 255 255 255 255 255 255 255 255 255 255 255 255
255 255 255 255 255 255 255 255 255 255 255 255 255 255 255 255 255
255 255 255 255 255 255 255 255 255 255 255 255 255 255 255 255 255
255 255 255 255 255 255 255 255 255 255 255 255 255 255 255 255 255
255 255 255 255 255 255 255 255 255 255 255 255 255 255 255 255 255
255 255 255 255 255 255 255 255 255 255 255 255 255 255 255 255 255
255 255 255 255 255 255 255 255 255 255 255 255 255 255 255 255 255
255 255 255 255 255 255 255 255 255 255 255 255 255 255 255 255 255
255 255 255 255 255 255 255 255 255 255 255 255 255 255 255 255 255
255 255 255 255 255 255 255 255 255 255 255 255 255 255 255 255 255
255 255 255 255 255 255 255 255 255 255 255 255 255 255 255 255 255
255 255 255 255 255 255 255 255 255 255 255 255 255 255 255 255 255
255 255 255 255 255 255 255 255 255 255 255 255 255 255 255 255 255
255 255 255 255 255 255 255 255 255 255 255 255 255 255 255 255 255
255 255 255 255 255 255 255 255 255 255 255 255 255 255 255 255 255
255 255 255 255 255 255 255 255 255 255 255 255 255 255 255 255 255
255 255 255 255 255 255 255 255 255 255 255 255 255 255 255 255 255
255 255 255 255 255 255 255 255 255 255 255 255 255 255 255 255 255
255 255 255 255 255 255 255 255 255 255 255 255 255 255 255 255 255
255 255 255 255 255 255 255 255 255 255 255 255 255 255 255 255 255
255 255 255 255 255 255 255 255 255 255 255 255 255 255 255 255 255
255 255 255 255 255 255 255 255 255 255 255 255 255 255 255 255 255
255 255 255 255 255 255 255 255 255 255 255 255 255 255 255 255 255
255 255 255 255 255 255 255 255 255 255 255 255 255 255 255 255 255
255 255 255 255 255 255 255 255 255 255 255 255 255 255 255 255 255
255 255 255 255 255 255 255 255 255 255 255 255 255 255 255 255 255
255 255 255 255 255 255 255 255 255 255 255 255 255 255 255 255 255
255 255 255 255 255 255 255 255 255 255 255 255 255 255 255 255 255
255 255 255 255 255 255 255 255 255 255 255 255 255 255 255 255 255
255 255 255 255 255 255 255 255 255 255 255 255 255 255 255 255 255
255 255 255 255 255 255 255 255 255 255 255 255 255 255 255 255 255
255 255 255 255 255 255 255 255 255 255 255 255 255 255 255 255 255
255 255 255 255 255 255 255 255 255 255 255 255 255 255 255 255 255
255 255 255 255 255 255 255 255 255 255 255 255 255 255 255 255 255
255 255 255 255 255 255 255 255 255 255 255 255 255 255 255 255 255
255 255 255 255 255 255 255 255 255 255 255 255 255 255 255 255 255
255 255 255 255 255 255 255 255 255 255 255 255 255 255 255 255 255
255 255 255 255 255 255 255 255 255 255 255 255 255 255 255 255 255
255 255 255 255 255 255 255 255 255 255 255 255 255 255 255 255 255
255 255 255 255 255 255 255 255 255 255 255 255 255 255 255 255 255
255 255 255 255 255 255 255 255 255 255 255 255 255 255 255 255 255
255 255 255 255 255 255 255 255 255 255 255 255 255 255 255 255 255
255 255 255 255 255 255 255 255 255 255 255 255 255 255 255 255 255
255 255 255 255 255 255 255 255 255 255 255 255 255 255 255 255 255
255 255 255 255 255 255 255 255 255 255 255 255 255 255 255 255 255
255 255 255 255 255 255 255 255 255 255 255 255 255 255 255 255 255
255 255 255 255 255 255 255 255 255 255 255 255 255 255 255 255 255
255 255 255 255 255 255 255 255 255 255 255 255 255 255 255 255 255
255 255 255 255 255 255 255 255 255 255 255 255 255 255 255 255 255
255 255 255 255 255 255 255 255 255 255 255 255 255 255 255 255 255
255 255 255 255 255 255 255 255 255 255 255 255 255 255 255 255 255
255 255 255 255 255 255 255 255 255 255 255 255 255 255 255 255 255
255 255 255 255 255 255 255 255 255 255 255 255 255 255 255 255 255
255 255 255 255 255 255 255 255 255 255 255 255 255 255 255 255 255
255 255 255 255 255 255 255 255 255 255 255 255 255 255 255 255 255
255 255 255 255 255 255 255 255 255 255 255 255 255 255 255 255 255
255 255 255 255 255 255 255 255 255 255 255 255 255 255 255 255 255
255 255 255 255 255 255 255 255 255 255 255 255 255 255 255 255 255
255 255 255 255 255 255 255 255 255 255 255 255 255 255 255 255 255
255 255 255 255 255 255 255 255 255 255 255 255 255 255 255 255 255
255 255 255 255 255 255 255 255 255 255 255 255 255 255 255 255 255
255 255 255 255 255 255 255 255 255 255 255 255 255 255 255 255 255
255 255 255 255 255 255 255 255 255 255 255 255 255 255 255 255 255
255 255 255 255 255 255 255 255 255 255 255 255 255 255 255 255 255
255 255 255 255 255 255 255 255 255 255 255 255 255 255 255 255 255
255 255 255 255 255 255 255 255 255 255 255 255 255 255 255 255 255
255 255 255 255 255 255 255 255 255 255 255 255 255 255 255 255 255
255 255 255 255 255 255 255 255 255 255 255 255 255 255 255 255 255
255 255 255 255 255 255 255 255 255 255 255 255 255 255 255 255 255
255 255 255 255 255 255 255 255 255 255 255 255 255 255 255 255 255
255 255 255 255 255 255 255 255 255 255 255 255 255 255 255 255 255
255 255 255 255 255 255 255 255 255 255 255 255 255 255 255 255 255
255 255 255 255 255 255 255 255 255 255 255 255 255 255 255 255 255
255 255 255 255 255 255 255 255 255 255 255 255 255 255 255 255 255
255 255 255 255 255 255 255 255 255 255 255 255 255 255 255 255 255
255 255 255 255 255 255 255 255 255 255 255 255 255 255 255 255 255
255 255 255 255 255 255 255 255 255 255 255 255 255 255 255 255 255
255 255 255 255 255 255 255 255 255 255 255 255 255 255 255 255 255
255 255 255 255 255 255 255 255 255 255 255 255 255 255 255 255 255
255 255 255 255 255 255 255 255 255 255 255 255 255 255 255 255 255
255 255 255 255 255 255 255 255 255 255 255 255 255 255 255 255 255
255 255 255 255 255 255 255 255 255 255 255 255 255 255 255 255 255
255 255 255 255 255 255 255 255 255 255 255 255 255 255 255 255 255
255 255 255 255 255 255 255 255 255 255 255 255 255 255 255 255 255
255 255 255 255 255 255 255 255 255 255 255 255 255 255 255 255 255
255 255 255 255 255 255 255 255 255 255 255 255 255 255 255 255 255
255 255 255 255 255 255 255 255 255 255 255 255 255 255 255 255 255
255 255 255 255 255 255 255 255 255 255 255 255 255 255 255 255 255
255 255 255 255 255 255 255 255 255 255 255 255 255 255 255 255 255
255 255 255 255 255 255 255 255 255 255 255 255 255 255 255 255 255
255 255 255 255 255 255 255 255 255 255 255 255 255 255 255 255 255
255 255 255 255 255 255 255 255 255 255 255 255 255 255 255 255 255
255 255 255 255 255 255 255 255 255 255 255 255 255 255 255 255 255
255 255 255 255 255 255 255 255 255 255 255 255 255 255 255 255 255
255 255 255 255 255 255 255 255 255 255 255 255 255 255 255 255 255
255 255 255 255 255 255 255 255 255 255 255 255 255 255 255 255 255
255 255 255 255 255 255 255 255 255 255 255 255 255 255 255 255 255
255 255 255 255 255 255 255 255 255 255 255 255 255 255 255 255 255
255 255 255 255 255 255 255 255 255 255 255 255 255 255 255 255 255
255 255 255 255 255 255 255 255 255 255 255 255 255 255 255 255 255
255 255 255 255 255 255 255 255 255 255 255 255 255 255 255 255 255
255 255 255 255 255 255 255 255 255 255 255 255 255 255 255 255 255
255 255 255 255 255 255 255 255 255 255 255 255 255 255 255 255 255
255 255 255 255 255 255 255 255 255 255 255 255 255 255 255 255 255
255 255 255 255 255 255 255 255 255 255 255 255 255 255 255 255 255
255 255 255 255 255 255 255 255 255 255 255 255 255 255 255 255 255
255 255 255 255 255 255 255 255 255 255 255 255 255 255 255 255 255
255 255 255 255 255 255 255 255 255 255 255 255 255 255 255 255 255
255 255 255 255 255 255 255 255 255 255 255 255 255 255 255 255 255
255 255 255 255 255 255 255 255 255 255 255 255 255 255 255 255 255
255 255 255 255 255 255 255 255 255 255 255 255 255 255 255 255 255
255 255 255 255 255 255 255 255 255 255 255 255 255 255 255 255 255
255 255 255 255 255 255 255 255 255 255 255 255 255 255 255 255 255
255 255 255 255 255 255 255 255 255 255 255 255 255 255 255 255 255
255 255 255 255 255 255 255 255 255 255 255 255 255 255 255 255 255
255 255 255 255 255 255 255 255 255 255 255 255 255 255 255 255 255
255 255 255 255 255 255 255 255 255 255 255 255 255 255 255 255 255
255 255 255 255 255 255 255 255 255 255 255 255 255 255 255 255 255
255 255 255 255 255 255 255 255 255 255 255 255 255 255 255 255 255
255 255 255 255 255 255 255 255 255 255 255 255 255 255 255 255 255
255 255 255 255 255 255 255 255 255 255 255 255 255 255 255 255 255
255 255 255 255 255 255 255 255 255 255 255 255 255 255 255 255 255
255 255 255 255 255 255 255 255 255 255 255 255 255 255 255 255 255
255 255 255 255 255 255 255 255 255 255 255 255 255 255 255 255 255
255 255 255 255 255 255 255 255 255 255 255 255 255 255 255 255 255
255 255 255 255 255 255 255 255 255 255 255 255 255 255 255 255 255
255 255 255 255 255 255 255 255 255 255 255 255 255 255 255 255 255
255 255 255 255 255 255 255 255 255 255 255 255 255 255 255 255 255
255 255 255 255 255 255 255 255 255 255 255 255 255 255 255 255 255
255 255 255 255 255 255 255 255 255 255 255 255 255 255 255 255 255
255 255 255 255 255 255 255 255 255 255 255 255 255 255 255 255 255
255 255 255 255 255 255 255 255 255 255 255 255 255 255 255 255 255
255 255 255 255 255 255 255 255 255 255 255 255 255 255 255 255 255
255 255 255 255 255 255 255 255 255 255 255 255 255 255 255 255 255
255 255 255 255 255 255 255 255 255 255 255 255 255 255 255 255 255
255 255 255 255 255 255 255 255 255 255 255 255 255 255 255 255 255
255 255 255 255 255 255 255 255 255 255 255 255 255 255 255 255 255
255 255 255 255 255 255 255 255 255 255 255 255 255 255 255 255 255
255 255 255 255 255 255 255 255 255 255 255 255 255 255 255 255 255
255 255 255 255 255 255 255 255 255 255 255 255 255 255 255 255 255
255 255 255 255 255 255 255 255 255 255 255 255 255 255 255 255 255
255 255 255 255 255 255 255 255 255 255 255 255 255 255 255 255 255
255 255 255 255 255 255 255 255 255 255 255 255 255 255 255 255 255
255 255 255 255 255 255 255 255 255 255 255 255 255 255 255 255 255
255 255 255 255 255 255 255 255 255 255 255 255 255 255 255 255 255
255 255 255 255 255 255 255 255 255 255 255 255 255 255 255 255 255
255 255 255 255 255 255 255 255 255 255 255 255 255 255 255 255 255
255 255 255 255 255 255 255 255 255 255 255 255 255 255 255 255 255
255 255 255 255 255 255 255 255 255 255 255 255 255 255 255 255 255
255 255 255 255 255 255 255 255 255 255 255 255 255 255 255 255 255
255 255 255 255 255 255 255 255 255 255 255 255 255 255 255 255 255
255 255 255 255 255 255 255 255 255 255 255 255 255 255 255 255 255
255 255 255 255 255 255 255 255 255 255 255 255 255 255 255 255 255
255 255 255 255 255 255 255 255 255 255 255 255 255 255 255 255 255
255 255 255 255 255 255 255 255 255 255 255 255 255 255 255 255 255
255 255 255 255 255 255 255 255 255 255 255 255 255 255 255 255 255
255 255 255 255 255 255 255 255 255 255 255 255 255 255 255 255 255
255 255 255 255 255 255 255 255 255 255 255 255 255 255 255 255 255
255 255 255 255 255 255 255 255 255 255 255 255 255 255 255 255 255
255 255 255 255 255 255 255 255 255 255 255 255 255 255 255 255 255
255 255 255 255 255 255 255 255 255 255 255 255 255 255 255 255 255
255 255 255 255 255 255 255 255 255 255 255 255 255 255 255 255 255
255 255 255 255 255 255 255 255 255 255 255 255 255 255 255 255 255
255 255 255 255 255 255 255 255 255 255 255 255 255 255 255 255 255
255 255 255 255 255 255 255 255 255 255 255 255 255 255 255 255 255
255 255 255 255 255 255 255 255 255 255 255 255 255 255 255 255 255
255 255 255 255 255 255 255 255 255 255 255 255 255 255 255 255 255
255 255 255 255 255 255 255 255 255 255 255 255 255 255 255 255 255
255 255 255 255 255 255 255 255 255 255 255 255 255 255 255 255 255
255 255 255 255 255 255 255 255 255 255 255 255 255 255 255 255 255
255 255 255 255 255 255 255 255 255 255 255 255 255 255 255 255 255
255 255 255 255 255 255 255 255 255 255 255 255 255 255 255 255 255
255 255 255 255 255 255 255 255 255 255 255 255 255 255 255 255 255
255 255 255 255 255 255 255 255 255 255 255 255 255 255 255 255 255
255 255 255 255 255 255 255 255 255 255 255 255 255 255 255 255 255
255 255 255 255 255 255 255 255 255 255 255 255 255 255 255 255 255
255 255 255 255 255 255 255 255 255 255 255 255 255 255 255 255 255
255 255 255 255 255 255 255 255 255 255 255 255 255 255 255 255 255
255 255 255 255 255 255 255 255 255 255 255 255 255 255 255 255 255
255 255 255 255 255 255 255 255 255 255 255 255 255 255 255 255 255
255 255 255 255 255 255 255 255 255 255 255 255 255 255 255 255 255
255 255 255 255 255 255 255 255 255 255 255 255 255 255 255 255 255
255 255 255 255 255 255 255 255 255 255 255 255 255 255 255 255 255
255 255 255 255 255 255 255 255 255 255 255 255 255 255 255 255 255
255 255 255 255 255 255 255 255 255 255 255 255 255 255 255 255 255
255 255 255 255 255 255 255 255 255 255 255 255 255 255 255 255 255
255 255 255 255 255 255 255 255 255 255 255 255 255 255 255 255 255
255 255 255 255 255 255 255 255 255 255 255 255 255 255 255 255 255
255 255 255 255 255 255 255 255 255 255 255 255 255 255 255 255 255
255 255 255 255 255 255 255 255 255 255 255 255 255 255 255 255 255
255 255 255 255 255 255 255 255 255 255 255 255 255 255 255 255 255
255 255 255 255 255 255 255 255 255 255 255 255 255 255 255 255 255
255 255 255 255 255 255 255 255 255 255 255 255 255 255 255 255 255
255 255 255 255 255 255 255 255 255 255 255 255 255 255 255 255 255
255 255 255 255 255 255 255 255 255 255 255 255 255 255 255 255 255
255 255 255 255 255 255 255 255 255 255 255 255 255 255 255 255 255
255 255 255 255 255 255 255 255 255 255 255 255 255 255 255 255 255
255 255 255 255 255 255 255 255 255 255 255 255 255 255 255 255 255
255 255 255 255 255 255 255 255 255 255 255 255 255 255 255 255 255
255 255 255 255 255 255 255 255 255 255 255 255 255 255 255 255 255
255 255 255 255 255 255 255 255 255 255 255 255 255 255 255 255 255
255 255 255 255 255 255 255 255 255 255 255 255 255 255 255 255 255
255 255 255 255 255 255 255 255 255 255 255 255 255 255 255 255 255
255 255 255 255 255 255 255 255 255 255 255 255 255 255 255 255 255
255 255 255 255 255 255 255 255 255 255 255 255 255 255 255 255 255
255 255 255 255 255 255 255 255 255 255 255 255 255 255 255 255 255
255 255 255 255 255 255 255 255 255 255 255 255 255 255 255 255 255
255 255 255 255 255 255 255 255 255 255 255 255 255 255 255 255 255
255 255 255 255 255 255 255 255 255 255 255 255 255 255 255 255 255
255 255 255 255 255 255 255 255 255 255 255 255 255 255 255 255 255
255 255 255 255 255 255 255 255 255 255 255 255 255 255 255 255 255
255 255 255 255 255 255 255 255 255 255 255 255 255 255 255 255 255
255 255 255 255 255 255 255 255 255 255 255 255 255 255 255 255 255
255 255 255 255 255 255 255 255 255 255 255 255 255 255 255 255 255
255 255 255 255 255 255 255 255 255 255 255 255 255 255 255 255 255
255 255 255 255 255 255 255 255 255 255 255 255 255 255 255 255 255
255 255 255 255 255 255 255 255 255 255 255 255 255 255 255 255 255
255 255 255 255 255 255 255 255 255 255 255 255 255 255 255 255 255
255 255 255 255 255 255 255 255 255 255 255 255 255 255 255 255 255
255 255 255 255 255 255 255 255 255 255 255 255 255 255 255 255 255
255 255 255 255 255 255 255 255 255 255 255 255 255 255 255 255 255
255 255 255 255 255 255 255 255 255 255 255 255 255 255 255 255 255
255 255 255 255 255 255 255 255 255 255 255 255 255 255 255 255 255
255 255 255 255 255 255 255 255 255 255 255 255 255 255 255 255 255
255 255 255 255 255 255 255 255 255 255 255 255 255 255 255 255 255
255 255 255 255 255 255 255 255 255 255 255 255 255 255 255 255 255
255 255 255 255 255 255 255 255 255 255 255 255 255 255 255 255 255
255 255 255 255 255 255 255 255 255 255 255 255 255 255 255 255 255
255 255 255 255 255 255 255 255 255 255 255 255 255 255 255 255 255
255 255 255 255 255 255 255 255 255 255 255 255 255 255 255 255 255
255 255 255 255 255 255 255 255 255 255 255 255 255 255 255 255 255
255 255 255 255 255 255 255 255 255 255 255 255 255 255 255 255 255
255 255 255 255 255 255 255 255 255 255 255 255 255 255 255 255 255
255 255 255 255 255 255 255 255 255 255 255 255 255 255 255 255 255
255 255 255 255 255 255 255 255 255 255 255 255 255 255 255 255 255
255 255 255 255 255 255 255 255 255 255 255 255 255 255 255 255 255
255 255 255 255 255 255 255 255 255 255 255 255 255 255 255 255 255
255 255 255 255 255 255 255 255 255 255 255 255 255 255 255 255 255
255 255 255 255 255 255 255 255 255 255 255 255 255 255 255 255 255
255 255 255 255 255 255 255 255 255 255 255 255 255 255 255 255 255
255 255 255 255 255 255 255 255 255 255 255 255 255 255 255 255 255
255 255 255 255 255 255 255 255 255 255 255 255 255 255 255 255 255
255 255 255 255 255 255 255 255 255 255 255 255 255 255 255 255 255
255 255 255 255 255 255 255 255 255 255 255 255 255 255 255 255 255
255 255 255 255 255 255 255 255 255 255 255 255 255 255 255 255 255
255 255 255 255 255 255 255 255 255 255 255 255 255 255 255 255 255
255 255 255 255 255 255 255 255 255 255 255 255 255 255 255 255 255
255 255 255 255 255 255 255 255 255 255 255 255 255 255 255 255 255
255 255 255 255 255 255 255 255 255 255 255 255 255 255 255 255 255
255 255 255 255 255 255 255 255 255 255 255 255 255 255 255 255 255
255 255 255 255 255 255 255 255 255 255 255 255 255 255 255 255 255
255 255 255 255 255 255 255 255 255 255 255 255 255 255 255 255 255
255 255 255 255 255 255 255 255 255 255 255 255 255 255 255 255 255
255 255 255 255 255 255 255 255 255 255 255 255 255 255 255 255 255
255 255 255 255 255 255 255 255 255 255 255 255 255 255 255 255 255
255 255 255 255 255 255 255 255 255 255 255 255 255 255 255 255 255
255 255 255 255 255 255 255 255 255 255 255 255 255 255 255 255 255
255 255 255 255 255 255 255 255 255 255 255 255 255 255 255 255 255
255 255 255 255 255 255 255 255 255 255 255 255 255 255 255 255 255
255 255 255 255 255 255 255 255 255 255 255 255 255 255 255 255 255
255 255 255 255 255 255 255 255 255 255 255 255 255 255 255 255 255
255 255 255 255 255 255 255 255 255 255 255 255 255 255 255 255 255
255 255 255 255 255 255 255 255 255 255 255 255 255 255 255 255 255
255 255 255 255 255 255 255 255 255 255 255 255 255 255 255 255 255
255 255 255 255 255 255 255 255 255 255 255 255 255 255 255 255 255
255 255 255 255 255 255 255 255 255 255 255 255 255 255 255 255 255
255 255 255 255 255 255 255 255 255 255 255 255 255 255 255 255 255
255 255 255 255 255 255 255 255 255 255 255 255 255 255 255 255 255
255 255 255 255 255 255 255 255 255 255 255 255 255 255 255 255 255
255 255 255 255 255 255 255 255 255 255 255 255 255 255 255 255 255
255 255 255 255 255 255 255 255 255 255 255 255 255 255 255 255 255
255 255 255 255 255 255 255 255 255 255 255 255 255 255 255 255 255
255 255 255 255 255 255 255 255 255 255 255 255 255 255 255 255 255
255 255 255 255 255 255 255 255 255 255 255 255 255 255 255 255 255
255 255 255 255 255 255 255 255 255 255 255 255 255 255 255 255 255
255 255 255 255 255 255 255 255 255 255 255 255 255 255 255 255 255
255 255 255 255 255 255 255 255 255 255 255 255 255 255 255 255 255
255 255 255 255 255 255 255 255 255 255 255 255 255 255 255 255 255
255 255 255 255 255 255 255 255 255 255 255 255 255 255 255 255 255
255 255 255 255 255 255 255 255 255 255 255 255 255 255 255 255 255
255 255 255 255 255 255 255 255 255 255 255 255 255 255 255 255 255
255 255 255 255 255 255 255 255 255 255 255 255 255 255 255 255 255
255 255 255 255 255 255 255 255 255 255 255 255 255 255 255 255 255
255 255 255 255 255 255 255 255 255 255 255 255 255 255 255 255 255
255 255 255 255 255 255 255 255 255 255 255 255 255 255 255 255 255
255 255 255 255 255 255 255 255 255 255 255 255 255 255 255 255 255
255 255 255 255 255 255 255 255 255 255 255 255 255 255 255 255 255
255 255 255 255 255 255 255 255 255 255 255 255 255 255 255 255 255
255 255 255 255 255 255 255 255 255 255 255 255 255 255 255 255 255
255 255 255 255 255 255 255 255 255 255 255 255 255 255 255 255 255
255 255 255 255 255 255 255 255 255 255 255 255 255 255 255 255 255
255 255 255 255 255 255 255 255 255 255 255 255 255 255 255 255 255
255 255 255 255 255 255 255 255 255 255 255 255 255 255 255 255 255
255 255 255 255 255 255 255 255 255 255 255 255 255 255 255 255 255
255 255 255 255 255 255 255 255 255 255 255 255 255 255 255 255 255
255 255 255 255 255 255 255 255 255 255 255 255 255 255 255 255 255
255 255 255 255 255 255 255 255 255 255 255 255 255 255 255 255 255
255 255 255 255 255 255 255 255 255 255 255 255 255 255 255 255 255
255 255 255 255 255 255 255 255 255 255 255 255 255 255 255 255 255
255 255 255 255 255 255 255 255 255 255 255 255 255 255 255 255 255
255 255 255 255 255 255 255 255 255 255 255 255 255 255 255 255 255
255 255 255 255 255 255 255 255 255 255 255 255 255 255 255 255 255
255 255 255 255 255 255 255 255 255 255 255 255 255 255 255 255 255
255 255 255 255 255 255 255 255 255 255 255 255 255 255 255 255 255
255 255 255 255 255 255 255 255 255 255 255 255 255 255 255 255 255
255 255 255 255 255 255 255 255 255 255 255 255 255 255 255 255 255
255 255 255 255 255 255 255 255 255 255 255 255 255 255 255 255 255
255 255 255 255 255 255 255 255 255 255 255 255 255 255 255 255 255
255 255 255 255 255 255 255 255 255 255 255 255 255 255 255 255 255
255 255 255 255 255 255 255 255 255 255 255 255 255 255 255 255 255
255 255 255 255 255 255 255 255 255 255 255 255 255 255 255 255 255
255 255 255 255 255 255 255 255 255 255 255 255 255 255 255 255 255
255 255 255 255 255 255 255 255 255 255 255 255 255 255 255 255 255
255 255 255 255 255 255 255 255 255 255 255 255 255 255 255 255 255
255 255 255 255 255 255 255 255 255 255 255 255 255 255 255 255 255
255 255 255 255 255 255 255 255 255 255 255 255 255 255 255 255 255
255 255 255 255 255 255 255 255 255 255 255 255 255 255 255 255 255
255 255 255 255 255 255 255 255 255 255 255 255 255 255 255 255 255
255 255 255 255 255 255 255 255 255 255 255 255 255 255 255 255 255
255 255 255 255 255 255 255 255 255 255 255 255 255 255 255 255 255
255 255 255 255 255 255 255 255 255 255 255 255 255 255 255 255 255
255 255 255 255 255 255 255 255 255 255 255 255 255 255 255 255 255
255 255 255 255 255 255 255 255 255 255 255 255 255 255 255 255 255
255 255 255 255 255 255 255 255 255 255 255 255 255 255 255 255 255
255 255 255 255 255 255 255 255 255 255 255 255 255 255 255 255 255
255 255 255 255 255 255 255 255 255 255 255 255 255 255 255 255 255
255 255 255 255 255 255 255 255 255 255 255 255 255 255 255 255 255
255 255 255 255 255 255 255 255 255 255 255 255 255 255 255 255 255
255 255 255 255 255 255 255 255 255 255 255 255 255 255 255 255 255
255 255 255 255 255 255 255 255 255 255 255 255 255 255 255 255 255
255 255 255 255 255 255 255 255 255 255 255 255 255 255 255 255 255
255 255 255 255 255 255 255 255 255 255 255 255 255 255 255 255 255
255 255 255 255 255 255 255 255 255 255 255 255 255 255 255 255 255
255 255 255 255 255 255 255 255 255 255 255 255 255 255 255 255 255
255 255 255 255 255 255 255 255 255 255 255 255 255 255 255 255 255
255 255 255 255 255 255 255 255 255 255 255 255 255 255 255 255 255
255 255 255 255 255 255 255 255 255 255 255 255 255 255 255 255 255
255 255 255 255 255 255 255 255 255 255 255 255 255 255 255 255 255
255 255 255 255 255 255 255 255 255 255 255 255 255 255 255 255 255
255 255 255 255 255 255 255 255 255 255 255 255 255 255 255 255 255
255 255 255 255 255 255 255 255 255 255 255 255 255 255 255 255 255
255 255 255 255 255 255 255 255 255 255 255 255 255 255 255 255 255
255 255 255 255 255 255 255 255 255 255 255 255 255 255 255 255 255
255 255 255 255 255 255 255 255 255 255 255 255 255 255 255 255 255
255 255 255 255 255 255 255 255 255 255 255 255 255 255 255 255 255
255 255 255 255 255 255 255 255 255 255 255 255 255 255 255 255 255
255 255 255 255 255 255 255 255 255 255 255 255 255 255 255 255 255
255 255 255 255 255 255 255 255 255 255 255 255 255 255 255 255 255
255 255 255 255 255 255 255 255 255 255 255 255 255 255 255 255 255
255 255 255 255 255 255 255 255 255 255 255 255 255 255 255 255 255
255 255 255 255 255 255 255 255 255 255 255 255 255 255 255 255 255
255 255 255 255 255 255 255 255 255 255 255 255 255 255 255 255 255
255 255 255 255 255 255 255 255 255 255 255 255 255 255 255 255 255
255 255 255 255 255 255 255 255 255 255 255 255 255 255 255 255 255
255 255 255 255 255 255 255 255 255 255 255 255 255 255 255 255 255
255 255 255 255 255 255 255 255 255 255 255 255 255 255 255 255 255
255 255 255 255 255 255 255 255 255 255 255 255 255 255 255 255 255
255 255 255 255 255 255 255 255 255 255 255 255 255 255 255 255 255
255 255 255 255 255 255 255 255 255 255 255 255 255 255 255 255 255
255 255 255 255 255 255 255 255 255 255 255 255 255 255 255 255 255
255 255 255 255 255 255 255 255 255 255 255 255 255 255 255 255 255
255 255 255 255 255 255 255 255 255 255 255 255 255 255 255 255 255
255 255 255 255 255 255 255 255 255 255 255 255 255 255 255 255 255
255 255 255 255 255 255 255 255 255 255 255 255 255 255 255 255 255
255 255 255 255 255 255 255 255 255 255 255 255 255 255 255 255 255
255 255 255 255 255 255 255 255 255 255 255 255 255 255 255 255 255
255 255 255 255 255 255 255 255 255 255 255 255 255 255 255 255 255
255 255 255 255 255 255 255 255 255 255 255 255 255 255 255 255 255
255 255 255 255 255 255 255 255 255 255 255 255 255 255 255 255 255
255 255 255 255 255 255 255 255 255 255 255 255 255 255 255 255 255
255 255 255 255 255 255 255 255 255 255 255 255 255 255 255 255 255
255 255 255 255 255 255 255 255 255 255 255 255 255 255 255 255 255
255 255 255 255 255 255 255 255 255 255 255 255 255 255 255 255 255
255 255 255 255 255 255 255 255 255 255 255 255 255 255 255 255 255
255 255 255 255 255 255 255 255 255 255 255 255 255 255 255 255 255
255 255 255 255 255 255 255 255 255 255 255 255 255 255 255 255 255
255 255 255 255 255 255 255 255 255 255 255 255 255 255 255 255 255
255 255 255 255 255 255 255 255 255 255 255 255 255 255 255 255 255
255 255 255 255 255 255 255 255 255 255 255 255 255 255 255 255 255
255 255 255 255 255 255 255 255 255 255 255 255 255 255 255 255 255
255 255 255 255 255 255 255 255 255 255 255 255 255 255 255 255 255
255 255 255 255 255 255 255 255 255 255 255 255 255 255 255 255 255
255 255 255 255 255 255 255 255 255 255 255 255 255 255 255 255 255
255 255 255 255 255 255 255 255 255 255 255 255 255 255 255 255 255
255 255 255 255 255 255 255 255 255 255 255 255 255 255 255 255 255
255 255 255 255 255 255 255 255 255 255 255 255 255 255 255 255 255
255 255 255 255 255 255 255 255 255 255 255 255 255 255 255 255 255
255 255 255 255 255 255 255 255 255 255 255 255 255 255 255 255 255
255 255 255 255 255 255 255 255 255 255 255 255 255 255 255 255 255
255 255 255 255 255 255 255 255 255 255 255 255 255 255 255 255 255
255 255 255 255 255 255 255 255 255 255 255 255 255 255 255 255 255
255 255 255 255 255 255 255 255 255 255 255 255 255 255 255 255 255
255 255 255 255 255 255 255 255 255 255 255 255 255 255 255 255 255
255 255 255 255 255 255 255 255 255 255 255 255 255 255 255 255 255
255 255 255 255 255 255 255 255 255 255 255 255 255 255 255 255 255
255 255 255 255 255 255 255 255 255 255 255 255 255 255 255 255 255
255 255 255 255 255 255 255 255 255 255 255 255 255 255 255 255 255
255 255 255 255 255 255 255 255 255 255 255 255 255 255 255 255 255
255 255 255 255 255 255 255 255 255 255 255 255 255 255 255 255 255
255 255 255 255 255 255 255 255 255 255 255 255 255 255 255 255 255
255 255 255 255 255 255 255 255 255 255 255 255 255 255 255 255 255
255 255 255 255 255 255 255 255 255 255 255 255 255 255 255 255 255
255 255 255 255 255 255 255 255 255 255 255 255 255 255 255 255 255
255 255 255 255 255 255 255 255 255 255 255 255 255 255 255 255 255
255 255 255 255 255 255 255 255 255 255 255 255 255 255 255 255 255
255 255 255 255 255 255 255 255 255 255 255 255 255 255 255 255 255
255 255 255 255 255 255 255 255 255 255 255 255 255 255 255 255 255
255 255 255 255 255 255 255 255 255 255 255 255 255 255 255 255 255
255 255 255 255 255 255 255 255 255 255 255 255 255 255 255 255 255
255 255 255 255 255 255 255 255 255 255 255 255 255 255 255 255 255
255 255 255 255 255 255 255 255 255 255 255 255 255 255 255 255 255
255 255 255 255 255 255 255 255 255 255 255 255 255 255 255 255 255
255 255 255 255 255 255 255 255 255 255 255 255 255 255 255 255 255
255 255 255 255 255 255 255 255 255 255 255 255 255 255 255 255 255
255 255 255 255 255 255 255 255 255 255 255 255 255 255 255 255 255
255 255 255 255 255 255 255 255 255 255 255 255 255 255 255 255 255
255 255 255 255 255 255 255 255 255 255 255 255 255 255 255 255 255
255 255 255 255 255 255 255 255 255 255 255 255 255 255 255 255 255
255 255 255 255 255 255 255 255 255 255 255 255 255 255 255 255 255
255 255 255 255 255 255 255 255 255 255 255 255 255 255 255 255 255
255 255 255 255 255 255 255 255 255 255 255 255 255 255 255 255 255
255 255 255 255 255 255 255 255 255 255 255 255 255 255 255 255 255
255 255 255 255 255 255 255 255 255 255 255 255 255 255 255 255 255
255 255 255 255 255 255 255 255 255 255 255 255 255 255 255 255 255
255 255 255 255 255 255 255 255 255 255 255 255 255 255 255 255 255
255 255 255 255 255 255 255 255 255 255 255 255 255 255 255 255 255
255 255 255 255 255 255 255 255 255 255 255 255 255 255 255 255 255
255 255 255 255 255 255 255 255 255 255 255 255 255 255 255 255 255
255 255 255 255 255 255 255 255 255 255 255 255 255 255 255 255 255
255 255 255 255 255 255 255 255 255 255 255 255 255 255 255 255 255
255 255 255 255 255 255 255 255 255 255 255 255 255 255 255 255 255
255 255 255 255 255 255 255 255 255 255 255 255 255 255 255 255 255
255 255 255 255 255 255 255 255 255 255 255 255 255 255 255 255 255
255 255 255 255 255 255 255 255 255 255 255 255 255 255 255 255 255
255 255 255 255 255 255 255 255 255 255 255 255 255 255 255 255 255
255 255 255 255 255 255 255 255 255 255 255 255 255 255 255 255 255
255 255 255 255 255 255 255 255 255 255 255 255 255 255 255 255 255
255 255 255 255 255 255 255 255 255 255 255 255 255 255 255 255 255
255 255 255 255 255 255 255 255 255 255 255 255 255 255 255 255 255
255 255 255 255 255 255 255 255 255 255 255 255 255 255 255 255 255
255 255 255 255 255 255 255 255 255 255 255 255 255 255 255 255 255
255 255 255 255 255 255 255 255 255 255 255 255 255 255 255 255 255
255 255 255 255 255 255 255 255 255 255 255 255 255 255 255 255 255
255 255 255 255 255 255 255 255 255 255 255 255 255 255 255 255 255
255 255 255 255 255 255 255 255 255 255 255 255 255 255 255 255 255
255 255 255 255 255 255 255 255 255 255 255 255 255 255 255 255 255
255 255 255 255 255 255 255 255 255 255 255 255 255 255 255 255 255
255 255 255 255 255 255 255 255 255 255 255 255 255 255 255 255 255
255 255 255 255 255 255 255 255 255 255 255 255 255 255 255 255 255
255 255 255 255 255 255 255 255 255 255 255 255 255 255 255 255 255
255 255 255 255 255 255 255 255 255 255 255 255 255 255 255 255 255
255 255 255 255 255 255 255 255 255 255 255 255 255 255 255 255 255
255 255 255 255 255 255 255 255 255 255 255 255 255 255 255 255 255
255 255 255 255 255 255 255 255 255 255 255 255 255 255 255 255 255
255 255 255 255 255 255 255 255 255 255 255 255 255 255 255 255 255
255 255 255 255 255 255 255 255 255 255 255 255 255 255 255 255 255
255 255 255 255 255 255 255 255 255 255 255 255 255 255 255 255 255
255 255 255 255 255 255 255 255 255 255 255 255 255 255 255 255 255
255 255 255 255 255 255 255 255 255 255 255 255 255 255 255 255 255
255 255 255 255 255 255 255 255 255 255 255 255 255 255 255 255 255
255 255 255 255 255 255 255 255 255 255 255 255 255 255 255 255 255
255 255 255 255 255 255 255 255 255 255 255 255 255 255 255 255 255
255 255 255 255 255 255 255 255 255 255 255 255 255 255 255 255 255
255 255 255 255 255 255 255 255 255 255 255 255 255 255 255 255 255
255 255 255 255 255 255 255 255 255 255 255 255 255 255 255 255 255
255 255 255 255 255 255 255 255 255 255 255 255 255 255 255 255 255
255 255 255 255 255 255 255 255 255 255 255 255 255 255 255 255 255
255 255 255 255 255 255 255 255 255 255 255 255 255 255 255 255 255
255 255 255 255 255 255 255 255 255 255 255 255 255 255 255 255 255
255 255 255 255 255 255 255 255 255 255 255 255 255 255 255 255 255
255 255 255 255 255 255 255 255 255 255 255 255 255 255 255 255 255
255 255 255 255 255 255 255 255 255 255 255 255 255 255 255 255 255
255 255 255 255 255 255 255 255 255 255 255 255 255 255 255 255 255
255 255 255 255 255 255 255 255 255 255 255 255 255 255 255 255 255
255 255 255 255 255 255 255 255 255 255 255 255 255 255 255 255 255
255 255 255 255 255 255 255 255 255 255 255 255 255 255 255 255 255
255 255 255 255 255 255 255 255 255 255 255 255 255 255 255 255 255
255 255 255 255 255 255 255 255 255 255 255 255 255 255 255 255 255
255 255 255 255 255 255 255 255 255 255 255 255 255 255 255 255 255
255 255 255 255 255 255 255 255 255 255 255 255 255 255 255 255 255
255 255 255 255 255 255 255 255 255 255 255 255 255 255 255 255 255
255 255 255 255 255 255 255 255 255 255 255 255 255 255 255 255 255
255 255 255 255 255 255 255 255 255 255 255 255 255 255 255 255 255
255 255 255 255 255 255 255 255 255 255 255 255 255 255 255 255 255
255 255 255 255 255 255 255 255 255 255 255 255 255 255 255 255 255
255 255 255 255 255 255 255 255 255 255 255 255 255 255 255 255 255
255 255 255 255 255 255 255 255 255 255 255 255 255 255 255 255 255
255 255 255 255 255 255 255 255 255 255 255 255 255 255 255 255 255
255 255 255 255 255 255 255 255 255 255 255 255 255 255 255 255 255
255 255 255 255 255 255 255 255 255 255 255 255 255 255 255 255 255
255 255 255 255 255 255 255 255 255 255 255 255 255 255 255 255 255
255 255 255 255 255 255 255 255 255 255 255 255 255 255 255 255 255
255 255 255 255 255 255 255 255 255 255 255 255 255 255 255 255 255
255 255 255 255 255 255 255 255 255 255 255 255 255 255 255 255 255
255 255 255 255 255 255 255 255 255 255 255 255 255 255 255 255 255
255 255 255 255 255 255 255 255 255 255 255 255 255 255 255 255 255
255 255 255 255 255 255 255 255 255 255 255 255 255 255 255 255 255
255 255 255 255 255 255 255 255 255 255 255 255 255 255 255 255 255
255 255 255 255 255 255 255 255 255 255 255 255 255 255 255 255 255
255 255 255 255 255 255 255 255 255 255 255 255 255 255 255 255 255
255 255 255 255 255 255 255 255 255 255 255 255 255 255 255 255 255
255 255 255 255 255 255 255 255 255 255 255 255 255 255 255 255 255
255 255 255 255 255 255 255 255 255 255 255 255 255 255 255 255 255
255 255 255 255 255 255 255 255 255 255 255 255 255 255 255 255 255
255 255 255 255 255 255 255 255 255 255 255 255 255 255 255 255 255
255 255 255 255 255 255 255 255 255 255 255 255 255 255 255 255 255
255 255 255 255 255 255 255 255 255 255 255 255 255 255 255 255 255
255 255 255 255 255 255 255 255 255 255 255 255 255 255 255 255 255
255 255 255 255 255 255 255 255 255 255 255 255 255 255 255 255 255
255 255 255 255 255 255 255 255 255 255 255 255 255 255 255 255 255
255 255 255 255 255 255 255 255 255 255 255 255 255 255 255 255 255
255 255 255 255 255 255 255 255 255 255 255 255 255 255 255 255 255
255 255 255 255 255 255 255 255 255 255 255 255 255 255 255 255 255
255 255 255 255 255 255 255 255 255 255 255 255 255 255 255 255 255
255 255 255 255 255 255 255 255 255 255 255 255 255 255 255 255 255
255 255 255 255 255 255 255 255 255 255 255 255 255 255 255 255 255
255 255 255 255 255 255 255 255 255 255 255 255 255 255 255 255 255
255 255 255 255 255 255 255 255 255 255 255 255 255 255 255 255 255
255 255 255 255 255 255 255 255 255 255 255 255 255 255 255 255 255
255 255 255 255 255 255 255 255 255 255 255 255 255 255 255 255 255
255 255 255 255 255 255 255 255 255 255 255 255 255 255 255 255 255
255 255 255 255 255 255 255 255 255 255 255 255 255 255 255 255 255
255 255 255 255 255 255 255 255 255 255 255 255 255 255 255 255 255
255 255 255 255 255 255 255 255 255 255 255 255 255 255 255 255 255
255 255 255 255 255 255 255 255 255 255 255 255 255 255 255 255 255
255 255 255 255 255 255 255 255 255 255 255 255 255 255 255 255 255
255 255 255 255 255 255 255 255 255 255 255 255 255 255 255 255 255
255 255 255 255 255 255 255 255 255 255 255 255 255 255 255 255 255
255 255 255 255 255 255 255 255 255 255 255 255 255 255 255 255 255
255 255 255 255 255 255 255 255 255 255 255 255 255 255 255 255 255
255 255 255 255 255 255 255 255 255 255 255 255 255 255 255 255 255
255 255 255 255 255 255 255 255 255 255 255 255 255 255 255 255 255
255 255 255 255 255 255 255 255 255 255 255 255 255 255 255 255 255
255 255 255 255 255 255 255 255 255 255 255 255 255 255 255 255 255
255 255 255 255 255 255 255 255 255 255 255 255 255 255 255 255 255
255 255 255 255 255 255 255 255 255 255 255 255 255 255 255 255 255
255 255 255 255 255 255 255 255 255 255 255 255 255 255 255 255 255
255 255 255 255 255 255 255 255 255 255 255 255 255 255 255 255 255
255 255 255 255 255 255 255 255 255 255 255 255 255 255 255 255 255
255 255 255 255 255 255 255 255 255 255 255 255 255 255 255 255 255
255 255 255 255 255 255 255 255 255 255 255 255 255 255 255 255 255
255 255 255 255 255 255 255 255 255 255 255 255 255 255 255 255 255
255 255 255 255 255 255 255 255 255 255 255 255 255 255 255 255 255
255 255 255 255 255 255 255 255 255 255 255 255 255 255 255 255 255
255 255 255 255 255 255 255 255 255 255 255 255 255 255 255 255 255
255 255 255 255 255 255 255 255 255 255 255 255 255 255 255 255 255
255 255 255 255 255 255 255 255 255 255 255 255 255 255 255 255 255
255 255 255 255 255 255 255 255 255 255 255 255 255 255 255 255 255
255 255 255 255 255 255 255 255 255 255 255 255 255 255 255 255 255
255 255 255 255 255 255 255 255 255 255 255 255 255 255 255 255 255
255 255 255 255 255 255 255 255 255 255 255 255 255 255 255 255 255
255 255 255 255 255 255 255 255 255 255 255 255 255 255 255 255 255
255 255 255 255 255 255 255 255 255 255 255 255 255 255 255 255 255
255 255 255 255 255 255 255 255 255 255 255 255 255 255 255 255 255
255 255 255 255 255 255 255 255 255 255 255 255 255 255 255 255 255
255 255 255 255 255 255 255 255 255 255 255 255 255 255 255 255 255
255 255 255 255 255 255 255 255 255 255 255 255 255 255 255 255 255
255 255 255 255 255 255 255 255 255 255 255 255 255 255 255 255 255
255 255 255 255 255 255 255 255 255 255 255 255 255 255 255 255 255
255 255 255 255 255 255 255 255 255 255 255 255 255 255 255 255 255
255 255 255 255 255 255 255 255 255 255 255 255 255 255 255 255 255
255 255 255 255 255 255 255 255 255 255 255 255 255 255 255 255 255
255 255 255 255 255 255 255 255 255 255 255 255 255 255 255 255 255
255 255 255 255 255 255 255 255 255 255 255 255 255 255 255 255 255
255 255 255 255 255 255 255 255 255 255 255 255 255 255 255 255 255
255 255 255 255 255 255 255 255 255 255 255 255 255 255 255 255 255
255 255 255 255 255 255 255 255 255 255 255 255 255 255 255 255 255
255 255 255 255 255 255 255 255 255 255 255 255 255 255 255 255 255
255 255 255 255 255 255 255 255 255 255 255 255 255 255 255 255 255
255 255 255 255 255 255 255 255 255 255 255 255 255 255 255 255 255
255 255 255 255 255 255 255 255 255 255 255 255 255 255 255 255 255
255 255 255 255 255 255 255 255 255 255 255 255 255 255 255 255 255
255 255 255 255 255 255 255 255 255 255 255 255 255 255 255 255 255
255 255 255 255 255 255 255 255 255 255 255 255 255 255 255 255 255
255 255 255 255 255 255 255 255 255 255 255 255 255 255 255 255 255
255 255 255 255 255 255 255 255 255 255 255 255 255 255 255 255 255
255 255 255 255 255 255 255 255 255 255 255 255 255 255 255 255 255
255 255 255 255 255 255 255 255 255 255 255 255 255 255 255 255 255
255 255 255 255 255 255 255 255 255 255 255 255 255 255 255 255 255
255 255 255 255 255 255 255 255 255 255 255 255 255 255 255 255 255
255 255 255 255 255 255 255 255 255 255 255 255 255 255 255 255 255
255 255 255 255 255 255 255 255 255 255 255 255 255 255 255 255 255
255 255 255 255 255 255 255 255 255 255 255 255 255 255 255 255 255
255 255 255 255 255 255 255 255 255 255 255 255 255 255 255 255 255
255 255 255 255 255 255 255 255 255 255 255 255 255 255 255 255 255
255 255 255 255 255 255 255 255 255 255 255 255 255 255 255 255 255
255 255 255 255 255 255 255 255 255 255 255 255 255 255 255 255 255
255 255 255 255 255 255 255 255 255 255 255 255 255 255 255 255 255
255 255 255 255 255 255 255 255 255 255 255 255 255 255 255 255 255
255 255 255 255 255 255 255 255 255 255 255 255 255 255 255 255 255
255 255 255 255 255 255 255 255 255 255 255 255 255 255 255 255 255
255 255 255 255 255 255 255 255 255 255 255 255 255 255 255 255 255
255 255 255 255 255 255 255 255 255 255 255 255 255 255 255 255 255
255 255 255 255 255 255 255 255 255 255 255 255 255 255 255 255 255
255 255 255 255 255 255 255 255 255 255 255 255 255 255 255 255 255
255 255 255 255 255 255 255 255 255 255 255 255 255 255 255 255 255
255 255 255 255 255 255 255 255 255 255 255 255 255 255 255 255 255
255 255 255 255 255 255 255 255 255 255 255 255 255 255 255 255 255
255 255 255 255 255 255 255 255 255 255 255 255 255 255 255 255 255
255 255 255 255 255 255 255 255 255 255 255 255 255 255 255 255 255
255 255 255 255 255 255 255 255 255 255 255 255 255 255 255 255 255
255 255 255 255 255 255 255 255 255 255 255 255 255 255 255 255 255
255 255 255 255 255 255 255 255 255 255 255 255 255 255 255 255 255
255 255 255 255 255 255 255 255 255 255 255 255 255 255 255 255 255
255 255 255 255 255 255 255 255 255 255 255 255 255 255 255 255 255
255 255 255 255 255 255 255 255 255 255 255 255 255 255 255 255 255
255 255 255 255 255 255 255 255 255 255 255 255 255 255 255 255 255
255 255 255 255 255 255 255 255 255 255 255 255 255 255 255 255 255
255 255 255 255 255 255 255 255 255 255 255 255 255 255 255 255 255
255 255 255 255 255 255 255 255 255 255 255 255 255 255 255 255 255
255 255 255 255 255 255 255 255 255 255 255 255 255 255 255 255 255
255 255 255 255 255 255 255 255 255 255 255 255 255 255 255 255 255
255 255 255 255 255 255 255 255 255 255 255 255 255 255 255 255 255
255 255 255 255 255 255 255 255 255 255 255 255 255 255 255 255 255
255 255 255 255 255 255 255 255 255 255 255 255 255 255 255 255 255
255 255 255 255 255 255 255 255 255 255 255 255 255 255 255 255 255
255 255 255 255 255 255 255 255 255 255 255 255 255 255 255 255 255
255 255 255 255 255 255 255 255 255 255 255 255 255 255 255 255 255
255 255 255 255 255 255 255 255 255 255 255 255 255 255 255 255 255
255 255 255 255 255 255 255 255 255 255 255 255 255 255 255 255 255
255 255 255 255 255 255 255 255 255 255 255 255 255 255 255 255 255
255 255 255 255 255 255 255 255 255 255 255 255 255 255 255 255 255
255 255 255 255 255 255 255 255 255 255 255 255 255 255 255 255 255
255 255 255 255 255 255 255 255 255 255 255 255 255 255 255 255 255
255 255 255 255 255 255 255 255 255 255 255 255 255 255 255 255 255
255 255 255 255 255 255 255 255 255 255 255 255 255 255 255 255 255
255 255 255 255 255 255 255 255 255 255 255 255 255 255 255 255 255
255 255 255 255 255 255 255 255 255 255 255 255 255 255 255 255 255
255 255 255 255 255 255 255 255 255 255 255 255 255 255 255 255 255
255 255 255 255 255 255 255 255 255 255 255 255 255 255 255 255 255
255 255 255 255 255 255 255 255 255 255 255 255 255 255 255 255 255
255 255 255 255 255 255 255 255 255 255 255 255 255 255 255 255 255
255 255 255 255 255 255 255 255 255 255 255 255 255 255 255 255 255
255 255 255 255 255 255 255 255 255 255 255 255 255 255 255 255 255
255 255 255 255 255 255 255 255 255 255 255 255 255 255 255 255 255
255 255 255 255 255 255 255 255 255 255 255 255 255 255 255 255 255
255 255 255 255 255 255 255 255 255 255 255 255 255 255 255 255 255
255 255 255 255 255 255 255 255 255 255 255 255 255 255 255 255 255
255 255 255 255 255 255 255 255 255 255 255 255 255 255 255 255 255
255 255 255 255 255 255 255 255 255 255 255 255 255 255 255 255 255
255 255 255 255 255 255 255 255 255 255 255 255 255 255 255 255 255
255 255 255 255 255 255 255 255 255 255 255 255 255 255 255 255 255
255 255 255 255 255 255 255 255 255 255 255 255 255 255 255 255 255
255 255 255 255 255 255 255 255 255 255 255 255 255 255 255 255 255
255 255 255 255 255 255 255 255 255 255 255 255 255 255 255 255 255
255 255 255 255 255 255 255 255 255 255 255 255 255 255 255 255 255
255 255 255 255 255 255 255 255 255 255 255 255 255 255 255 255 255
255 255 255 255 255 255 255 255 255 255 255 255 255 255 255 255 255
255 255 255 255 255 255 255 255 255 255 255 255 255 255 255 255 255
255 255 255 255 255 255 255 255 255 255 255 255 255 255 255 255 255
255 255 255 255 255 255 255 255 255 255 255 255 255 255 255 255 255
255 255 255 255 255 255 255 255 255 255 255 255 255 255 255 255 255
255 255 255 255 255 255 255 255 255 255 255 255 255 255 255 255 255
255 255 255 255 255 255 255 255 255 255 255 255 255 255 255 255 255
255 255 255 255 255 255 255 255 255 255 255 255 255 255 255 255 255
255 255 255 255 255 255 255 255 255 255 255 255 255 255 255 255 255
255 255 255 255 255 255 255 255 255 255 255 255 255 255 255 255 255
255 255 255 255 255 255 255 255 255 255 255 255 255 255 255 255 255
255 255 255 255 255 255 255 255 255 255 255 255 255 255 255 255 255
255 255 255 255 255 255 255 255 255 255 255 255 255 255 255 255 255
255 255 255 255 255 255 255 255 255 255 255 255 255 255 255 255 255
255 255 255 255 255 255 255 255 255 255 255 255 255 255 255 255 255
255 255 255 255 255 255 255 255 255 255 255 255 255 255 255 255 255
255 255 255 255 255 255 255 255 255 255 255 255 255 255 255 255 255
255 255 255 255 255 255 255 255 255 255 255 255 255 255 255 255 255
255 255 255 255 255 255 255 255 255 255 255 255 255 255 255 255 255
255 255 255 255 255 255 255 255 255 255 255 255 255 255 255 255 255
255 255 255 255 255 255 255 255 255 255 255 255 255 255 255 255 255
255 255 255 255 255 255 255 255 255 255 255 255 255 255 255 255 255
255 255 255 255 255 255 255 255 255 255 255 255 255 255 255 255 255
255 255 255 255 255 255 255 255 255 255 255 255 255 255 255 255 255
255 255 255 255 255 255 255 255 255 255 255 255 255 255 255 255 255
255 255 255 255 255 255 255 255 255 255 255 255 255 255 255 255 255
255 255 255 255 255 255 255 255 255 255 255 255 255 255 255 255 255
255 255 255 255 255 255 255 255 255 255 255 255 255 255 255 255 255
255 255 255 255 255 255 255 255 255 255 255 255 255 255 255 255 255
255 255 255 255 255 255 255 255 255 255 255 255 255 255 255 255 255
255 255 255 255 255 255 255 255 255 255 255 255 255 255 255 255 255
255 255 255 255 255 255 255 255 255 255 255 255 255 255 255 255 255
255 255 255 255 255 255 255 255 255 255 255 255 255 255 255 255 255
255 255 255 255 255 255 255 255 255 255 255 255 255 255 255 255 255
255 255 255 255 255 255 255 255 255 255 255 255 255 255 255 255 255
255 255 255 255 255 255 255 255 255 255 255 255 255 255 255 255 255
255 255 255 255 255 255 255 255 255 255 255 255 255 255 255 255 255
255 255 255 255 255 255 255 255 255 255 255 255 255 255 255 255 255
255 255 255 255 255 255 255 255 255 255 255 255 255 255 255 255 255
255 255 255 255 255 255 255 255 255 255 255 255 255 255 255 255 255
255 255 255 255 255 255 255 255 255 255 255 255 255 255 255 255 255
255 255 255 255 255 255 255 255 255 255 255 255 255 255 255 255 255
255 255 255 255 255 255 255 255 255 255 255 255 255 255 255 255 255
255 255 255 255 255 255 255 255 255 255 255 255 255 255 255 255 255
255 255 255 255 255 255 255 255 255 255 255 255 255 255 255 255 255
255 255 255 255 255 255 255 255 255 255 255 255 255 255 255 255 255
255 255 255 255 255 255 255 255 255 255 255 255 255 255 255 255 255
255 255 255 255 255 255 255 255 255 255 255 255 255 255 255 255 255
255 255 255 255 255 255 255 255 255 255 255 255 255 255 255 255 255
255 255 255 255 255 255 255 255 255 255 255 255 255 255 255 255 255
255 255 255 255 255 255 255 255 255 255 255 255 255 255 255 255 255
255 255 255 255 255 255 255 255 255 255 255 255 255 255 255 255 255
255 255 255 255 255 255 255 255 255 255 255 255 255 255 255 255 255
255 255 255 255 255 255 255 255 255 255 255 255 255 255 255 255 255
255 255 255 255 255 255 255 255 255 255 255 255 255 255 255 255 255
255 255 255 255 255 255 255 255 255 255 255 255 255 255 255 255 255
255 255 255 255 255 255 255 255 255 255 255 255 255 255 255 255 255
255 255 255 255 255 255 255 255 255 255 255 255 255 255 255 255 255
255 255 255 255 255 255 255 255 255 255 255 255 255 255 255 255 255
255 255 255 255 255 255 255 255 255 255 255 255 255 255 255 255 255
255 255 255 255 255 255 255 255 255 255 255 255 255 255 255 255 255
255 255 255 255 255 255 255 255 255 255 255 255 255 255 255 255 255
255 255 255 255 255 255 255 255 255 255 255 255 255 255 255 255 255
255 255 255 255 255 255 255 255 255 255 255 255 255 255 255 255 255
255 255 255 255 255 255 255 255 255 255 255 255 255 255 255 255 255
255 255 255 255 255 255 255 255 255 255 255 255 255 255 255 255 255
255 255 255 255 255 255 255 255 255 255 255 255 255 255 255 255 255
255 255 255 255 255 255 255 255 255 255 255 255 255 255 255 255 255
255 255 255 255 255 255 255 255 255 255 255 255 255 255 255 255 255
255 255 255 255 255 255 255 255 255 255 255 255 255 255 255 255 255
255 255 255 255 255 255 255 255 255 255 255 255 255 255 255 255 255
255 255 255 255 255 255 255 255 255 255 255 255 255 255 255 255 255
255 255 255 255 255 255 255 255 255 255 255 255 255 255 255 255 255
255 255 255 255 255 255 255 255 255 255 255 255 255 255 255 255 255
255 255 255 255 255 255 255 255 255 255 255 255 255 255 255 255 255
255 255 255 255 255 255 255 255 255 255 255 255 255 255 255 255 255
255 255 255 255 255 255 255 255 255 255 255 255 255 255 255 255 255
255 255 255 255 255 255 255 255 255 255 255 255 255 255 255 255 255
255 255 255 255 255 255 255 255 255 255 255 255 255 255 255 255 255
255 255 255 255 255 255 255 255 255 255 255 255 255 255 255 255 255
255 255 255 255 255 255 255 255 255 255 255 255 255 255 255 255 255
255 255 255 255 255 255 255 255 255 255 255 255 255 255 255 255 255
255 255 255 255 255 255 255 255 255 255 255 255 255 255 255 255 255
255 255 255 255 255 255 255 255 255 255 255 255 255 255 255 255 255
255 255 255 255 255 255 255 255 255 255 255 255 255 255 255 255 255
255 255 255 255 255 255 255 255 255 255 255 255 255 255 255 255 255
255 255 255 255 255 255 255 255 255 255 255 255 255 255 255 255 255
255 255 255 255 255 255 255 255 255 255 255 255 255 255 255 255 255
255 255 255 255 255 255 255 255 255 255 255 255 255 255 255 255 255
255 255 255 255 255 255 255 255 255 255 255 255 255 255 255 255 255
255 255 255 255 255 255 255 255 255 255 255 255 255 255 255 255 255
255 255 255 255 255 255 255 255 255 255 255 255 255 255 255 255 255
255 255 255 255 255 255 255 255 255 255 255 255 255 255 255 255 255
255 255 255 255 255 255 255 255 255 255 255 255 255 255 255 255 255
255 255 255 255 255 255 255 255 255 255 255 255 255 255 255 255 255
255 255 255 255 255 255 255 255 255 255 255 255 255 255 255 255 255
255 255 255 255 255 255 255 255 255 255 255 255 255 255 255 255 255
255 255 255 255 255 255 255 255 255 255 255 255 255 255 255 255 255
255 255 255 255 255 255 255 255 255 255 255 255 255 255 255 255 255
255 255 255 255 255 255 255 255 255 255 255 255 255 255 255 255 255
255 255 255 255 255 255 255 255 255 255 255 255 255 255 255 255 255
255 255 255 255 255 255 255 255 255 255 255 255 255 255 255 255 255
255 255 255 255 255 255 255 255 255 255 255 255 255 255 255 255 255
255 255 255 255 255 255 255 255 255 255 255 255 255 255 255 255 255
255 255 255 255 255 255 255 255 255 255 255 255 255 255 255 255 255
255 255 255 255 255 255 255 255 255 255 255 255 255 255 255 255 255
255 255 255 255 255 255 255 255 255 255 255 255 255 255 255 255 255
255 255 255 255 255 255 255 255 255 255 255 255 255 255 255 255 255
255 255 255 255 255 255 255 255 255 255 255 255 255 255 255 255 255
255 255 255 255 255 255 255 255 255 255 255 255 255 255 255 255 255
255 255 255 255 255 255 255 255 255 255 255 255 255 255 255 255 255
255 255 255 255 255 255 255 255 255 255 255 255 255 255 255 255 255
255 255 255 255 255 255 255 255 255 255 255 255 255 255 255 255 255
255 255 255 255 255 255 255 255 255 255 255 255 255 255 255 255 255
255 255 255 255 255 255 255 255 255 255 255 255 255 255 255 255 255
255 255 255 255 255 255 255 255 255 255 255 255 255 255 255 255 255
255 255 255 255 255 255 255 255 255 255 255 255 255 255 255 255 255
255 255 255 255 255 255 255 255 255 255 255 255 255 255 255 255 255
255 255 255 255 255 255 255 255 255 255 255 255 255 255 255 255 255
255 255 255 255 255 255 255 255 255 255 255 255 255 255 255 255 255
255 255 255 255 255 255 255 255 255 255 255 255 255 255 255 255 255
255 255 255 255 255 255 255 255 255 255 255 255 255 255 255 255 255
255 255 255 255 255 255 255 255 255 255 255 255 255 255 255 255 255
255 255 255 255 255 255 255 255 255 255 255 255 255 255 255 255 255
255 255 255 255 255 255 255 255 255 255 255 255 255 255 255 255 255
255 255 255 255 255 255 255 255 255 255 255 255 255 255 255 255 255
255 255 255 255 255 255 255 255 255 255 255 255 255 255 255 255 255
255 255 255 255 255 255 255 255 255 255 255 255 255 255 255 255 255
255 255 255 255 255 255 255 255 255 255 255 255 255 255 255 255 255
255 255 255 255 255 255 255 255 255 255 255 255 255 255 255 255 255
255 255 255 255 255 255 255 255 255 255 255 255 255 255 255 255 255
255 255 255 255 255 255 255 255 255 255 255 255 255 255 255 255 255
255 255 255 255 255 255 255 255 255 255 255 255 255 255 255 255 255
255 255 255 255 255 255 255 255 255 255 255 255 255 255 255 255 255
255 255 255 255 255 255 255 255 255 255 255 255 255 255 255 255 255
255 255 255 255 255 255 255 255 255 255 255 255 255 255 255 255 255
255 255 255 255 255 255 255 255 255 255 255 255 255 255 255 255 255
255 255 255 255 255 255 255 255 255 255 255 255 255 255 255 255 255
255 255 255 255 255 255 255 255 255 255 255 255 255 255 255 255 255
255 255 255 255 255 255 255 255 255 255 255 255 255 255 255 255 255
255 255 255 255 255 255 255 255 255 255 255 255 255 255 255 255 255
255 255 255 255 255 255 255 255 255 255 255 255 255 255 255 255 255
255 255 255 255 255 255 255 255 255 255 255 255 255 255 255 255 255
255 255 255 255 255 255 255 255 255 255 255 255 255 255 255 255 255
255 255 255 255 255 255 255 255 255 255 255 255 255 255 255 255 255
255 255 255 255 255 255 255 255 255 255 255 255 255 255 255 255 255
255 255 255 255 255 255 255 255 255 255 255 255 255 255 255 255 255
255 255 255 255 255 255 255 255 255 255 255 255 255 255 255 255 255
255 255 255 255 255 255 255 255 255 255 255 255 255 255 255 255 255
255 255 255 255 255 255 255 255 255 255 255 255 255 255 255 255 255
255 255 255 255 255 255 255 255 255 255 255 255 255 255 255 255 255
255 255 255 255 255 255 255 255 255 255 255 255 255 255 255 255 255
255 255 255 255 255 255 255 255 255 255 255 255 255 255 255 255 255
255 255 255 255 255 255 255 255 255 255 255 255 255 255 255 255 255
255 255 255 255 255 255 255 255 255 255 255 255 255 255 255 255 255
255 255 255 255 255 255 255 255 255 255 255 255 255 255 255 255 255
255 255 255 255 255 255 255 255 255 255 255 255 255 255 255 255 255
255 255 255 255 255 255 255 255 255 255 255 255 255 255 255 255 255
255 255 255 255 255 255 255 255 255 255 255 255 255 255 255 255 255
255 255 255 255 255 255 255 255 255 255 255 255 255 255 255 255 255
255 255 255 255 255 255 255 255 255 255 255 255 255 255 255 255 255
255 255 255 255 255 255 255 255 255 255 255 255 255 255 255 255 255
255 255 255 255 255 255 255 255 255 255 255 255 255 255 255 255 255
255 255 255 255 255 255 255 255 255 255 255 255 255 255 255 255 255
255 255 255 255 255 255 255 255 255 255 255 255 255 255 255 255 255
255 255 255 255 255 255 255 255 255 255 255 255 255 255 255 255 255
255 255 255 255 255 255 255 255 255 255 255 255 255 255 255 255 255
255 255 255 255 255 255 255 255 255 255 255 255 255 255 255 255 255
255 255 255 255 255 255 255 255 255 255 255 255 255 255 255 255 255
255 255 255 255 255 255 255 255 255 255 255 255 255 255 255 255 255
255 255 255 255 255 255 255 255 255 255 255 255 255 255 255 255 255
255 255 255 255 255 255 255 255 255 255 255 255 255 255 255 255 255
255 255 255 255 255 255 255 255 255 255 255 255 255 255 255 255 255
255 255 255 255 255 255 255 255 255 255 255 255 255 255 255 255 255
255 255 255 255 255 255 255 255 255 255 255 255 255 255 255 255 255
255 255 255 255 255 255 255 255 255 255 255 255 255 255 255 255 255
255 255 255 255 255 255 255 255 255 255 255 255 255 255 255 255 255
255 255 255 255 255 255 255 255 255 255 255 255 255 255 255 255 255
255 255 255 255 255 255 255 255 255 255 255 255 255 255 255 255 255
255 255 255 255 255 255 255 255 255 255 255 255 255 255 255 255 255
255 255 255 255 255 255 255 255 255 255 255 255 255 255 255 255 255
255 255 255 255 255 255 255 255 255 255 255 255 255 255 255 255 255
255 255 255 255 255 255 255 255 255 255 255 255 255 255 255 255 255
255 255 255 255 255 255 255 255 255 255 255 255 255 255 255 255 255
255 255 255 255 255 255 255 255 255 255 255 255 255 255 255 255 255
255 255 255 255 255 255 255 255 255 255 255 255 255 255 255 255 255
255 255 255 255 255 255 255 255 255 255 255 255 255 255 255 255 255
255 255 255 255 255 255 255 255 255 255 255 255 255 255 255 255 255
255 255 255 255 255 255 255 255 255 255 255 255 255 255 255 255 255
255 255 255 255 255 255 255 255 255 255 255 255 255 255 255 255 255
255 255 255 255 255 255 255 255 255 255 255 255 255 255 255 140 135
135 135 135 135 135 136 137 137 138 139 140 141 142 143 144 144 146
179 194 206 206 206 206 206 204 204 204 197 189 189 189 188 185 185
183 182 176 168 167 156 156 139 138 137 135 135 120 120 120 128 128
128 141 141 129 120 120 67 57 57 56 54 52 52 51 51 51 34
32 32 28 28 27 26 25 25 24 23 23 23 23 23 23 23 23
23 24 25 25 25 26 25 24 14 8 8 8 7 7 6 6 6
6 6 6 6 6 6 6 6 7 7 8 9 9 12 12 12 22
77 133 123 147 200 200 190 211 211 214 215 216 216 217 217 218 218
219 219 220 220 220 220 221 221 220 220 217 217 217 216 216 213 205
205 206 224 224 201 201 154 115 104 104 92 77 28 28 31 57 76
76 34 28 28 28 28 31 53 74 78 78 74 57 57 62 62 86
95 152 218 218 218 218 119 119 120 121 123 124 131 131 131 132 132
132 138 138 142 142 142 142 142 142 142 143 143 143 143 143 143 143
143 143 142 142 141 140 140 139 138 138 138 138 138 136 136 136 135
135 135 135 136 136 136 136 136 136 136 136 136 136 132 131 131 255
255 255 255 255 255 255 255 255 255 255 255 255 255 255 255 255 255
255 255 255 255 255 255 255 255 255 255 255 255 255 255 255 255 255
255 255 255 255 255 255 255 255 255 255 255 255 255 255 255 255 255
255 255 255 255 255 255 255 255 255 255 255 255 255 255 255 255 255
255 255 255 255 255 255 255 255 255 255 255 255 255 255 255 255 255
255 255 255 255 255 255 255 255 255 255 255 255 255 255 255 255 255
255 255 255 255 255 255 255 255 255 255 255 255 255 255 255 255 255
255 255 255 255 255 255 255 255 255 255 255 255 255 255 255 255 255
255 255 255 255 255 255 255 255 255 255 255 255 255 255 255 255 255
255 255 255 255 255 255 255 255 255 255 255 255 255 255 255 255 255
255 255 255 255 255 255 255 255 255 255 255 255 255 255 255 255 255
255 255 255 255 255 255 255 255 255 255 255 255 255 255 255 255 255
255 255 255 255 255 255 255 255 255 255 255 140 135 135 135 135 135
136 136 137 137 138 139 140 141 142 143 143 145 157 204 205 206 206
206 206 205 205 204 204 196 191 191 189 187 186 184 184 182 175 168
167 156 156 138 138 137 135 135 123 123 128 128 128 128 145 141 126
121 120 67 57 57 57 51 51 51 51 51 50 34 32 32 28 28
27 26 25 24 24 23 23 23 23 23 23 23 23 23 24 25 25
26 26 25 24 14 8 8 8 7 7 6 6 6 6 6 6 6
6 6 6 7 7 8 8 9 10 12 12 12 22 61 133 123 128
171 190 190 190 190 214 215 216 216 217 217 218 218 219 219 220 220
220 220 221 221 220 220 217 217 216 216 216 214 206 206 206 207 220
201 201 189 184 104 104 92 31 28 28 31 57 76 76 34 29 28
28 28 31 53 74 78 78 74 70 70 70 69 112 152 152 218 218
218 218 99 96 96 113 116 124 129 129 130 130 131 132 132 138 138
142 142 142 142 142 142 142 143 143 143 143 143 143 143 143 142 142
141 140 140 139 138 137 137 137 136 136 136 135 135 135 135 135 135
136 136 136 136 136 136 136 136 136 132 132 132 255 255 255 255 255
255 255 255 255 255 255 255 255 255 255 255 255 255 255 255 255 255
255 255 255 255 255 255 255 255 255 255 255 255 255 255 255 255 255
255 255 255 255 255 255 255 255 255 255 255 255 255 255 255 255 255
255 255 255 255 255 255 255 255 255 255 255 255 255 255 255 255 255
255 255 255 255 255 255 255 255 255 255 255 255 255 255 255 255 255
255 255 255 255 255 255 255 255 255 255 255 255 255 255 255 255 255
255 255 255 255 255 255 255 255 255 255 255 255 255 255 255 255 255
255 255 255 255 255 255 255 255 255 255 255 255 255 255 255 255 255
255 255 255 255 255 255 255 255 255 255 255 255 255 255 255 255 255
255 255 255 255 255 255 255 255 255 255 255 255 255 255 255 255 255
255 255 255 255 255 255 255 255 255 255 255 255 255 255 255 255 255
255 255 255 255 255 255 255 255 255 255 255 255 255 255 255 255 255
255 255 255 255 255 255 255 140 135 135 135 136 136 136 136 137 138
138 139 140 141 141 142 149 149 205 205 205 205 205 205 205 205 205
203 197 196 195 190 190 187 186 184 184 182 174 174 167 156 156 138
138 139 139 139 138 143 142 142 142 143 145 141 126 121 105 67 57
57 57 50 47 47 44 44 37 34 33 31 28 28 27 26 25 24
24 23 23 23 24 23 23 23 23 23 24 31 32 32 26 26 24
13 9 8 8 7 7 6 6 6 6 6 6 6 7 6 6 7
7 8 9 10 10 11 12 12 25 57 88 88 105 105 165 190 190
190 214 215 216 216 217 217 218 218 219 219 220 220 220 221 221 220
220 220 219 216 216 216 215 214 207 207 200 200 201 201 201 202 189
154 104 89 31 28 28 31 43 63 49 35 29 29 29 31 35 53
71 75 75 73 71 71 113 113 112 141 141 171 218 206 182 44 47
47 47 66 100 120 129 129 126 110 110 127 138 139 139 141 141 141
141 142 142 142 143 143 143 143 143 143 142 142 141 141 140 140 138
137 137 137 136 136 136 135 135 135 135 135 135 135 135 135 136 136
136 136 135 135 134 133 132 132 255 255 255 255 255 255 255 255 255
255 255 255 255 255 255 255 255 255 255 255 255 255 255 255 255 255
255 255 255 255 255 255 255 255 255 255 255 255 255 255 255 255 255
255 255 255 255 255 255 255 255 255 255 255 255 255 255 255 255 255
255 255 255 255 255 255 255 255 255 255 255 255 255 255 255 255 255
255 255 255 255 255 255 255 255 255 255 255 255 255 255 255 255 255
255 255 255 255 255 255 255 255 255 255 255 255 255 255 255 255 255
255 255 255 255 255 255 255 255 255 255 255 255 255 255 255 255 255
255 255 255 255 255 255 255 255 255 255 255 255 255 255 255 255 255
255 255 255 255 255 255 255 255 255 255 255 255 255 255 255 255 255
255 255 255 255 255 255 255 255 255 255 255 255 255 255 255 255 255
255 255 255 255 255 255 255 255 255 255 255 255 255 255 255 255 255
255 255 255 255 255 255 255 255 255 255 255 255 255 255 255 255 255
255 255 255 135 135 136 136 136 136 136 137 137 138 139 139 140 141
141 143 149 187 205 205 205 205 205 204 204 204 204 197 197 196 194
191 191 185 185 184 183 182 174 174 161 156 156 146 146 146 147 147
147 147 146 146 145 144 144 136 126 121 96 67 47 47 47 47 46
45 44 44 37 34 30 30 28 28 27 26 26 24 24 23 23 24
24 24 24 24 24 24 34 33 32 32 26 13 13 13 9 8 8
7 7 6 6 6 6 6 6 7 7 8 9 9 9 9 10 10
11 12 12 13 25 38 38 38 69 105 146 184 190 190 187 216 216
216 217 217 218 218 219 219 220 220 220 221 221 220 220 219 219 216
216 215 215 214 214 214 200 193 181 179 181 202 189 184 127 79 30
29 29 31 43 50 39 36 29 29 29 42 58 73 73 73 73 73
72 71 155 156 53 53 98 129 194 194 27 27 27 26 29 29 60
95 116 129 76 57 60 82 88 126 131 141 141 140 141 141 142 142
142 143 143 143 143 142 142 142 141 141 140 139 138 137 137 136 136
136 136 135 135 135 135 135 135 135 135 135 135 135 135 135 135 135
134 133 133 132 255 255 255 255 255 255 255 255 255 255 255 255 255
255 255 255 255 255 255 255 255 255 255 255 255 255 255 255 255 255
255 255 255 255 255 255 255 255 255 255 255 255 255 255 255 255 255
255 255 255 255 255 255 255 255 255 255 255 255 255 255 255 255 255
255 255 255 255 255 255 255 255 255 255 255 255 255 255 255 255 255
255 255 255 255 255 255 255 255 255 255 255 255 255 255 255 255 255
255 255 255 255 255 255 255 255 255 255 255 255 255 255 255 255 255
255 255 255 255 255 255 255 255 255 255 255 255 255 255 255 255 255
255 255 255 255 255 255 255 255 255 255 255 255 255 255 255 255 255
255 255 255 255 255 255 255 255 255 255 255 255 255 255 255 255 255
255 255 255 255 255 255 255 255 255 255 255 255 255 255 255 255 255
255 255 255 255 255 255 255 255 255 255 255 255 255 255 255 255 255
255 255 255 255 255 255 255 255 255 255 255 255 255 255 255 255 135
136 136 136 136 136 137 137 137 138 139 139 140 140 141 170 202 205
205 205 205 205 204 203 202 201 199 198 197 196 193 191 191 185 185
184 184 172 166 162 161 156 155 154 151 150 149 148 148 147 147 146
155 149 144 136 126 121 87 67 47 47 47 47 45 44 44 43 37
29 29 29 28 27 27 26 25 24 24 23 23 24 25 26 26 37
37 37 37 36 32 32 26 14 13 13 9 9 8 7 7 7 6
6 6 6 7 7 7 8 9 10 10 10 10 11 11 12 12 13
14 15 34 34 69 69 91 96 172 190 187 194 206 217 217 218 218
218 219 219 220 220 220 221 221 221 219 219 218 217 216 215 215 214
214 214 204 204 181 175 175 175 175 175 175 52 30 29 29 31 39
50 39 37 37 39 39 67 68 74 73 65 65 72 72 72 154 156
25 25 52 94 94 94 24 24 24 25 25 25 31 65 113 134 34
34 52 52 66 83 131 138 139 140 140 142 142 142 142 142 143 143
142 142 142 141 141 140 139 139 138 137 137 136 136 135 135 135 135
135 135 135 135 135 135 135 135 135 135 135 135 135 134 134 133 133
255 255 255 255 255 255 255 255 255 255 255 255 255 255 255 255 255
255 255 255 255 255 255 255 255 255 255 255 255 255 255 255 255 255
255 255 255 255 255 255 255 255 255 255 255 255 255 255 255 255 255
255 255 255 255 255 255 255 255 255 255 255 255 255 255 255 255 255
255 255 255 255 255 255 255 255 255 255 255 255 255 255 255 255 255
255 255 255 255 255 255 255 255 255 255 255 255 255 255 255 255 255
255 255 255 255 255 255 255 255 255 255 255 255 255 255 255 255 255
255 255 255 255 255 255 255 255 255 255 255 255 255 255 255 255 255
255 255 255 255 255 255 255 255 255 255 255 255 255 255 255 255 255
255 255 255 255 255 255 255 255 255 255 255 255 255 255 255 255 255
255 255 255 255 255 255 255 255 255 255 255 255 255 255 255 255 255
255 255 255 255 255 255 255 255 255 255 255 255 255 255 255 255 255
255 255 255 255 255 255 255 255 255 255 255 255 136 136 136 136 136
137 137 138 138 139 139 140 140 144 150 203 203 205 205 205 205 204
204 202 201 200 198 197 196 196 192 192 191 191 184 177 177 166 166
162 157 156 155 154 152 151 150 149 148 148 147 155 155 149 144 135
135 103 86 68 47 39 39 40 43 43 43 42 36 29 28 28 28
27 27 26 26 26 26 26 27 27 28 28 29 37 37 37 37 36
17 15 14 14 12 11 10 9 8 8 7 7 6 6 6 6 7
7 8 8 10 10 11 11 12 11 12 12 13 13 14 14 14 20
26 26 65 65 114 187 187 191 191 191 218 219 219 219 219 219 219
220 220 220 221 218 219 218 218 217 216 215 215 214 214 214 213 204
182 175 170 170 175 175 175 51 30 30 30 30 40 40 39 40 46
46 55 80 87 87 87 63 64 72 72 72 154 99 24 24 44 45
41 24 24 24 24 25 25 25 25 42 91 134 34 34 37 48 54
71 81 117 117 137 137 142 142 142 142 142 142 142 142 142 141 141
140 139 139 138 137 137 136 136 136 135 135 135 135 135 135 135 135
135 135 135 135 135 135 135 135 135 134 134 134 133 255 255 255 255
255 255 255 255 255 255 255 255 255 255 255 255 255 255 255 255 255
255 255 255 255 255 255 255 255 255 255 255 255 255 255 255 255 255
255 255 255 255 255 255 255 255 255 255 255 255 255 255 255 255 255
255 255 255 255 255 255 255 255 255 255 255 255 255 255 255 255 255
255 255 255 255 255 255 255 255 255 255 255 255 255 255 255 255 255
255 255 255 255 255 255 255 255 255 255 255 255 255 255 255 255 255
255 255 255 255 255 255 255 255 255 255 255 255 255 255 255 255 255
255 255 255 255 255 255 255 255 255 255 255 255 255 255 255 255 255
255 255 255 255 255 255 255 255 255 255 255 255 255 255 255 255 255
255 255 255 255 255 255 255 255 255 255 255 255 255 255 255 255 255
255 255 255 255 255 255 255 255 255 255 255 255 255 255 255 255 255
255 255 255 255 255 255 255 255 255 255 255 255 255 255 255 255 255
255 255 255 255 255 255 255 255 136 136 136 136 137 137 137 138 139
139 140 140 140 173 203 203 204 205 205 205 205 204 204 202 201 199
198 197 196 195 192 191 191 191 184 177 177 166 166 162 157 157 157
157 162 162 150 150 149 149 148 157 155 149 144 135 135 103 86 68
41 36 36 36 43 42 42 41 36 28 28 28 27 27 27 27 27
28 29 30 34 34 35 35 36 37 37 37 37 16 16 15 14 14
12 11 10 9 9 8 8 7 7 7 7 7 7 7 8 8 10
11 11 11 12 12 12 12 13 13 14 14 14 15 21 26 36 37
93 137 174 191 191 191 218 219 219 220 219 219 219 219 220 220 220
218 218 218 217 216 216 215 215 215 215 215 215 215 182 174 170 139
134 134 134 51 30 30 30 30 40 40 40 40 78 78 78 80 94
94 91 63 64 64 64 65 91 59 24 24 43 45 41 24 24 24
24 24 24 25 25 42 42 105 33 33 33 33 33 34 52 78 78
80 112 141 142 142 142 142 142 142 142 141 141 140 140 139 138 138
137 136 136 136 135 135 135 135 135 135 135 135 135 135 135 134 135
135 135 135 135 135 135 134 134 134 255 255 255 255 255 255 255 255
255 255 255 255 255 255 255 255 255 255 255 255 255 255 255 255 255
255 255 255 255 255 255 255 255 255 255 255 255 255 255 255 255 255
255 255 255 255 255 255 255 255 255 255 255 255 255 255 255 255 255
255 255 255 255 255 255 255 255 255 255 255 255 255 255 255 255 255
255 255 255 255 255 255 255 255 255 255 255 255 255 255 255 255 255
255 255 255 255 255 255 255 255 255 255 255 255 255 255 255 255 255
255 255 255 255 255 255 255 255 255 255 255 255 255 255 255 255 255
255 255 255 255 255 255 255 255 255 255 255 255 255 255 255 255 255
255 255 255 255 255 255 255 255 255 255 255 255 255 255 255 255 255
255 255 255 255 255 255 255 255 255 255 255 255 255 255 255 255 255
255 255 255 255 255 255 255 255 255 255 255 255 255 255 255 255 255
255 255 255 255 255 255 255 255 255 255 255 255 255 255 255 255 255
255 255 255 255 136 136 136 137 137 138 138 139 139 140 140 140 161
204 204 204 204 205 205 205 205 204 204 202 201 198 196 196 195 194
192 191 191 190 184 184 177 176 176 175 158 158 158 162 162 162 152
151 150 149 159 158 155 149 145 135 135 103 71 68 41 36 36 36
38 40 40 41 35 28 29 29 29 29 29 29 29 30 30 30 33
34 35 35 36 37 37 17 17 16 16 15 14 14 13 12 11 10
9 9 8 8 7 7 7 7 7 7 8 8 9 9 11 11 11
12 12 12 13 13 14 14 14 15 15 16 16 22 55 82 105 191
191 206 219 219 220 220 219 219 219 219 219 219 219 218 218 218 218
216 215 214 214 215 215 215 215 215 210 205 171 139 133 130 130 130
40 30 30 30 41 47 61 77 78 78 78 79 94 94 91 63 63
63 64 65 67 24 23 23 43 42 40 24 24 23 23 23 24 24
25 42 42 94 33 33 33 33 33 34 34 35 36 68 68 98 142
142 142 142 142 141 141 141 141 140 139 138 138 137 136 136 136 136
135 135 135 135 135 135 135 135 135 135 134 134 134 134 135 135 135
135 136 136 137 137 255 255 255 255 255 255 255 255 255 255 255 255
255 255 255 255 255 255 255 255 255 255 255 255 255 255 255 255 255
255 255 255 255 255 255 255 255 255 255 255 255 255 255 255 255 255
255 255 255 255 255 255 255 255 255 255 255 255 255 255 255 255 255
255 255 255 255 255 255 255 255 255 255 255 255 255 255 255 255 255
255 255 255 255 255 255 255 255 255 255 255 255 255 255 255 255 255
255 255 255 255 255 255 255 255 255 255 255 255 255 255 255 255 255
255 255 255 255 255 255 255 255 255 255 255 255 255 255 255 255 255
255 255 255 255 255 255 255 255 255 255 255 255 255 255 255 255 255
255 255 255 255 255 255 255 255 255 255 255 255 255 255 255 255 255
255 255 255 255 255 255 255 255 255 255 255 255 255 255 255 255 255
255 255 255 255 255 255 255 255 255 255 255 255 255 255 255 255 255
255 255 255 255 255 255 255 255 255 255 255 255 255 255 255 255 255
137 137 137 137 137 138 139 139 140 140 141 174 204 204 204 204 205
205 205 205 205 204 203 202 201 197 196 195 194 193 192 191 190 190
185 185 177 176 175 174 173 171 170 169 162 162 153 153 159 159 159
159 150 150 145 135 131 103 72 68 41 36 36 36 37 39 40 40
34 34 29 29 29 28 29 29 29 30 30 31 32 33 35 35 35
29 29 17 17 16 16 15 15 14 13 12 12 12 10 10 9 8
8 7 7 7 7 7 8 8 9 9 10 10 11 11 12 12 13
13 14 14 15 15 15 16 16 22 28 30 61 139 170 206 219 219
220 220 219 219 219 217 217 218 218 218 218 218 218 218 215 214 214
216 216 216 215 215 210 209 192 164 133 123 123 123 94 30 30 30
41 48 61 77 78 78 78 79 91 91 91 63 52 52 52 65 65
24 23 23 42 42 40 23 23 23 23 23 22 22 22 42 42 54
40 34 33 33 33 34 34 35 37 37 64 64 137 137 141 141 141
141 141 140 140 140 138 138 137 137 136 136 136 136 135 135 135 135
135 135 135 135 135 134 134 134 134 134 134 135 135 135 136 137 137
137 255 255 255 255 255 255 255 255 255 255 255 255 255 255 255 255
255 255 255 255 255 255 255 255 255 255 255 255 255 255 255 255 255
255 255 255 255 255 255 255 255 255 255 255 255 255 255 255 255 255
255 255 255 255 255 255 255 255 255 255 255 255 255 255 255 255 255
255 255 255 255 255 255 255 255 255 255 255 255 255 255 255 255 255
255 255 255 255 255 255 255 255 255 255 255 255 255 255 255 255 255
255 255 255 255 255 255 255 255 255 255 255 255 255 255 255 255 255
255 255 255 255 255 255 255 255 255 255 255 255 255 255 255 255 255
255 255 255 255 255 255 255 255 255 255 255 255 255 255 255 255 255
255 255 255 255 255 255 255 255 255 255 255 255 255 255 255 255 255
255 255 255 255 255 255 255 255 255 255 255 255 255 255 255 255 255
255 255 255 255 255 255 255 255 255 255 255 255 255 255 255 255 255
255 255 255 255 255 255 255 255 255 255 255 255 255 137 137 137 138
138 138 138 140 142 142 141 204 204 204 204 205 205 205 205 205 205
204 203 202 201 196 195 195 194 193 191 191 190 189 185 185 178 177
175 175 174 174 169 169 159 157 155 154 159 159 159 159 150 150 140
125 121 102 72 64 41 27 27 27 37 38 40 40 34 33 29 28
28 28 28 29 29 29 30 31 32 33 35 35 35 29 30 17 17
16 16 16 15 14 14 14 13 12 11 11 10 9 8 8 7 7
7 8 8 8 9 9 10 10 10 11 12 12 13 13 14 14 15
15 15 15 16 22 28 30 30 69 109 193 219 219 219 219 219 219
219 217 218 218 218 218 218 218 218 218 219 219 219 218 217 217 215
215 213 213 202 176 133 124 111 110 94 43 43 45 49 49 61 77
79 78 78 78 77 77 76 37 37 37 37 37 23 23 22 22 22
22 23 23 22 22 22 22 22 22 22 27 27 54 42 34 33 33
33 34 34 35 36 38 64 64 137 138 140 140 140 140 140 140 140
140 138 138 137 137 136 136 136 136 135 135 135 135 135 135 135 135
135 134 134 134 134 134 134 135 135 135 137 137 137 137 255 255 255
255 255 255 255 255 255 255 255 255 255 255 255 255 255 255 255 255
255 255 255 255 255 255 255 255 255 255 255 255 255 255 255 255 255
255 255 255 255 255 255 255 255 255 255 255 255 255 255 255 255 255
255 255 255 255 255 255 255 255 255 255 255 255 255 255 255 255 255
255 255 255 255 255 255 255 255 255 255 255 255 255 255 255 255 255
255 255 255 255 255 255 255 255 255 255 255 255 255 255 255 255 255
255 255 255 255 255 255 255 255 255 255 255 255 255 255 255 255 255
255 255 255 255 255 255 255 255 255 255 255 255 255 255 255 255 255
255 255 255 255 255 255 255 255 255 255 255 255 255 255 255 255 255
255 255 255 255 255 255 255 255 255 255 255 255 255 255 255 255 255
255 255 255 255 255 255 255 255 255 255 255 255 255 255 255 255 255
255 255 255 255 255 255 255 255 255 255 255 255 255 255 255 255 255
255 255 255 255 255 255 255 255 255 138 138 138 138 138 138 139 142
142 199 199 206 205 205 205 205 205 205 205 205 204 204 203 202 200
200 194 194 194 190 190 188 187 187 186 185 178 178 175 175 174 174
168 168 157 157 156 155 159 159 159 159 150 150 126 125 89 85 72
61 41 28 26 26 26 32 32 30 28 28 28 28 23 23 23 26
26 29 31 31 32 33 34 34 34 30 30 17 17 17 16 16 17
18 17 17 16 15 13 12 11 10 9 8 8 8 8 8 8 8
9 9 9 10 10 10 11 12 13 13 14 14 15 15 15 15 15
15 21 21 30 56 63 122 178 219 219 216 216 219 219 217 218 218
218 218 218 218 218 219 219 219 219 219 218 218 215 214 214 213 205
199 159 137 111 110 88 87 87 50 50 50 55 77 79 79 78 78
59 47 47 25 25 31 31 29 23 22 22 22 22 22 22 22 22
22 22 22 22 22 22 26 27 54 42 34 33 33 33 33 34 35
38 39 64 64 136 139 139 140 140 140 140 139 139 139 138 138 137
137 136 136 136 136 136 135 135 135 135 135 135 135 135 134 134 134
134 134 134 135 135 135 137 137 137 137 255 255 255 255 255 255 255
255 255 255 255 255 255 255 255 255 255 255 255 255 255 255 255 255
255 255 255 255 255 255 255 255 255 255 255 255 255 255 255 255 255
255 255 255 255 255 255 255 255 255 255 255 255 255 255 255 255 255
255 255 255 255 255 255 255 255 255 255 255 255 255 255 255 255 255
255 255 255 255 255 255 255 255 255 255 255 255 255 255 255 255 255
255 255 255 255 255 255 255 255 255 255 255 255 255 255 255 255 255
255 255 255 255 255 255 255 255 255 255 255 255 255 255 255 255 255
255 255 255 255 255 255 255 255 255 255 255 255 255 255 255 255 255
255 255 255 255 255 255 255 255 255 255 255 255 255 255 255 255 255
255 255 255 255 255 255 255 255 255 255 255 255 255 255 255 255 255
255 255 255 255 255 255 255 255 255 255 255 255 255 255 255 255 255
255 255 255 255 255 255 255 255 255 255 255 255 255 255 255 255 255
255 255 255 255 255 138 138 138 138 138 139 139 154 185 199 206 206
205 205 205 205 205 205 205 205 204 204 203 202 202 202 194 193 193
190 190 188 187 186 185 180 179 178 177 176 174 174 167 167 156 156
156 156 158 158 159 159 151 133 121 121 88 85 72 61 42 28 26
26 26 27 27 27 28 27 27 26 23 23 23 24 25 29 31 31
32 33 33 33 33 32 31 31 31 24 23 22 20 19 18 17 17
16 15 12 11 11 10 9 9 8 8 8 8 8 9 9 9 9
9 10 10 12 13 13 14 14 15 15 15 15 15 15 15 17 21
49 51 67 122 216 219 215 215 219 219 219 219 218 218 218 218 218
219 219 219 219 219 219 219 218 215 215 214 214 210 210 210 183 124
110 88 87 91 91 50 50 55 74 79 79 79 79 59 29 25 22
22 22 21 21 20 21 21 21 22 22 22 21 21 21 21 21 21
21 22 22 28 42 42 41 33 33 32 32 35 35 38 46 66 95
134 139 139 139 139 139 139 139 139 138 138 138 137 137 137 136 136
136 136 135 135 135 135 135 135 134 134 134 134 134 134 134 134 135
135 136 137 137 137 137 255 255 255 255 255 255 255 255 255 255 255
255 255 255 255 255 255 255 255 255 255 255 255 255 255 255 255 255
255 255 255 255 255 255 255 255 255 255 255 255 255 255 255 255 255
255 255 255 255 255 255 255 255 255 255 255 255 255 255 255 255 255
255 255 255 255 255 255 255 255 255 255 255 255 255 255 255 255 255
255 255 255 255 255 255 255 255 255 255 255 255 255 255 255 255 255
255 255 255 255 255 255 255 255 255 255 255 255 255 255 255 255 255
255 255 255 255 255 255 255 255 255 255 255 255 255 255 255 255 255
255 255 255 255 255 255 255 255 255 255 255 255 255 255 255 255 255
255 255 255 255 255 255 255 255 255 255 255 255 255 255 255 255 255
255 255 255 255 255 255 255 255 255 255 255 255 255 255 255 255 255
255 255 255 255 255 255 255 255 255 255 255 255 255 255 255 255 255
255 255 255 255 255 255 255 255 255 255 255 255 255 255 255 255 255
255 139 139 139 139 139 139 158 197 204 207 206 206 206 206 206 206
206 205 205 205 204 204 201 201 197 197 193 193 192 190 185 185 186
183 179 178 178 178 177 176 175 174 167 167 156 156 156 156 158 158
158 158 129 125 121 114 88 85 61 61 42 28 26 26 26 27 27
27 27 27 26 26 23 23 23 23 24 29 31 31 33 33 33 33
33 32 31 31 31 25 25 22 21 21 19 18 17 16 16 13 12
11 10 10 9 9 9 9 9 9 9 9 9 9 9 9 9 13
13 13 13 14 16 16 15 15 15 15 15 17 21 24 24 35 104
139 215 215 215 219 219 219 219 218 218 218 218 218 219 219 219 220
219 219 219 219 215 215 214 214 215 215 217 217 188 147 117 91 91
101 51 51 56 56 62 81 112 96 59 28 23 23 22 22 21 21
21 21 21 21 21 21 21 21 21 21 21 21 21 21 22 22 28
30 41 41 31 31 31 32 37 37 64 64 66 106 134 134 139 139
139 139 139 138 138 138 138 138 137 137 137 137 136 136 136 135 135
135 135 134 134 134 134 134 134 133 134 134 134 135 135 136 136 137
137 137 255 255 255 255 255 255 255 255 255 255 255 255 255 255 255
255 255 255 255 255 255 255 255 255 255 255 255 255 255 255 255 255
255 255 255 255 255 255 255 255 255 255 255 255 255 255 255 255 255
255 255 255 255 255 255 255 255 255 255 255 255 255 255 255 255 255
255 255 255 255 255 255 255 255 255 255 255 255 255 255 255 255 255
255 255 255 255 255 255 255 255 255 255 255 255 255 255 255 255 255
255 255 255 255 255 255 255 255 255 255 255 255 255 255 255 255 255
255 255 255 255 255 255 255 255 255 255 255 255 255 255 255 255 255
255 255 255 255 255 255 255 255 255 255 255 255 255 255 255 255 255
255 255 255 255 255 255 255 255 255 255 255 255 255 255 255 255 255
255 255 255 255 255 255 255 255 255 255 255 255 255 255 255 255 255
255 255 255 255 255 255 255 255 255 255 255 255 255 255 255 255 255
255 255 255 255 255 255 255 255 255 255 255 255 255 255 140 142 142
143 143 143 192 200 204 207 207 207 206 206 206 206 206 205 205 204
204 204 200 200 196 193 193 191 191 190 185 181 181 182 174 177 178
178 177 176 171 171 166 166 156 155 155 154 151 151 150 138 129 125
122 98 84 84 61 61 43 28 26 26 26 26 27 27 26 26 25
25 23 23 23 23 24 30 31 31 33 33 33 33 32 32 32 32
31 26 26 23 22 21 20 20 18 17 16 14 13 12 11 10 10
10 9 9 9 9 9 9 9 9 9 9 9 9 10 11 13 13
16 16 15 14 14 15 15 16 17 17 23 25 42 85 151 215 215
216 216 219 219 218 218 218 218 218 219 219 219 220 219 219 219 219
215 215 215 215 215 235 235 235 235 218 193 91 91 91 78 52 54
54 54 80 139 139 59 28 23 23 22 22 21 21 21 21 21 21
21 27 27 27 28 21 21 21 21 21 22 22 29 30 41 41 31
31 31 41 66 85 93 64 64 86 87 87 105 136 136 136 137 137
137 137 137 137 137 137 137 137 136 136 136 135 135 135 134 134 134
134 134 134 134 133 134 134 134 135 135 136 136 137 137 137 255 255
255 255 255 255 255 255 255 255 255 255 255 255 255 255 255 255 255
255 255 255 255 255 255 255 255 255 255 255 255 255 255 255 255 255
255 255 255 255 255 255 255 255 255 255 255 255 255 255 255 255 255
255 255 255 255 255 255 255 255 255 255 255 255 255 255 255 255 255
255 255 255 255 255 255 255 255 255 255 255 255 255 255 255 255 255
255 255 255 255 255 255 255 255 255 255 255 255 255 255 255 255 255
255 255 255 255 255 255 255 255 255 255 255 255 255 255 255 255 255
255 255 255 255 255 255 255 255 255 255 255 255 255 255 255 255 255
255 255 255 255 255 255 255 255 255 255 255 255 255 255 255 255 255
255 255 255 255 255 255 255 255 255 255 255 255 255 255 255 255 255
255 255 255 255 255 255 255 255 255 255 255 255 255 255 255 255 255
255 255 255 255 255 255 255 255 255 255 255 255 255 255 255 255 255
255 255 255 255 255 255 255 255 255 255 136 142 153 165 165 202 203
204 204 207 207 207 207 206 206 206 205 205 205 203 203 203 200 199
196 194 192 191 189 189 185 180 174 174 174 177 178 178 175 175 171
171 166 164 156 154 154 147 147 147 130 130 128 126 122 98 84 84
61 60 43 28 27 27 27 26 26 26 26 25 25 24 23 23 23
23 29 30 31 31 32 32 33 32 32 32 32 32 32 26 26 23
23 22 21 21 20 19 19 19 18 18 11 11 11 10 10 10 10
10 9 9 9 9 8 9 9 9 10 10 13 13 16 15 15 14
14 14 15 16 16 17 23 22 23 85 94 157 207 208 209 210 210
212 217 217 218 218 219 219 219 218 218 218 218 218 215 215 219 219
223 235 236 237 237 238 237 160 91 68 68 53 54 54 54 78 139
139 68 28 23 23 23 23 23 22 22 22 22 22 26 38 38 38
33 24 21 21 21 21 22 22 29 30 41 41 31 31 32 40 77
84 84 59 50 54 54 54 74 89 125 135 135 135 135 136 137 137
138 137 137 137 137 136 136 135 135 135 134 134 134 134 134 134 134
134 134 134 134 134 135 136 136 136 137 137 255 255 255 255 255 255
255 255 255 255 255 255 255 255 255 255 255 255 255 255 255 255 255
255 255 255 255 255 255 255 255 255 255 255 255 255 255 255 255 255
255 255 255 255 255 255 255 255 255 255 255 255 255 255 255 255 255
255 255 255 255 255 255 255 255 255 255 255 255 255 255 255 255 255
255 255 255 255 255 255 255 255 255 255 255 255 255 255 255 255 255
255 255 255 255 255 255 255 255 255 255 255 255 255 255 255 255 255
255 255 255 255 255 255 255 255 255 255 255 255 255 255 255 255 255
255 255 255 255 255 255 255 255 255 255 255 255 255 255 255 255 255
255 255 255 255 255 255 255 255 255 255 255 255 255 255 255 255 255
255 255 255 255 255 255 255 255 255 255 255 255 255 255 255 255 255
255 255 255 255 255 255 255 255 255 255 255 255 255 255 255 255 255
255 255 255 255 255 255 255 255 255 255 255 255 255 255 255 255 255
255 255 255 255 255 255 142 142 153 177 186 205 205 204 204 207 207
207 207 206 206 205 204 203 203 202 201 200 199 199 196 194 190 190
188 187 186 180 173 173 173 174 186 186 174 173 172 171 166 163 157
154 154 142 142 127 127 127 127 126 126 89 83 79 61 60 47 47
27 27 26 26 26 26 25 25 24 24 23 23 23 23 26 26 31
31 32 32 31 30 31 31 33 33 32 32 32 31 31 24 22 22
22 21 20 19 18 18 11 11 11 12 12 11 11 10 10 9 9
9 9 9 9 9 9 10 12 12 15 15 15 14 14 13 14 13
13 13 13 22 23 49 72 123 179 207 207 203 203 210 210 215 218
218 218 219 219 218 218 218 218 209 209 209 219 219 223 235 235 237
238 238 239 239 192 97 68 68 60 56 67 78 103 103 97 39 23
23 23 23 23 27 27 27 22 22 29 38 38 38 33 24 22 22
22 22 22 22 29 29 61 61 31 31 32 40 77 61 35 35 41
41 43 46 46 52 68 113 135 135 135 136 136 137 138 138 137 137
137 136 136 135 135 134 134 134 134 134 134 134 134 134 134 134 134
134 135 135 136 136 137 137 255 255 255 255 255 255 255 255 255 255
255 255 255 255 255 255 255 255 255 255 255 255 255 255 255 255 255
255 255 255 255 255 255 255 255 255 255 255 255 255 255 255 255 255
255 255 255 255 255 255 255 255 255 255 255 255 255 255 255 255 255
255 255 255 255 255 255 255 255 255 255 255 255 255 255 255 255 255
255 255 255 255 255 255 255 255 255 255 255 255 255 255 255 255 255
255 255 255 255 255 255 255 255 255 255 255 255 255 255 255 255 255
255 255 255 255 255 255 255 255 255 255 255 255 255 255 255 255 255
255 255 255 255 255 255 255 255 255 255 255 255 255 255 255 255 255
255 255 255 255 255 255 255 255 255 255 255 255 255 255 255 255 255
255 255 255 255 255 255 255 255 255 255 255 255 255 255 255 255 255
255 255 255 255 255 255 255 255 255 255 255 255 255 255 255 255 255
255 255 255 255 255 255 255 255 255 255 255 255 255 255 255 255 255
255 255 142 146 170 205 205 205 205 205 207 207 207 207 207 207 206
205 204 203 202 202 201 200 199 198 197 193 190 189 187 186 185 180
173 172 172 170 177 186 173 172 171 171 166 161 160 153 140 140 127
127 126 126 126 126 126 89 83 73 61 59 51 47 27 27 26 26
25 25 24 24 24 24 11 11 11 11 12 12 13 14 15 16 27
30 30 30 33 33 33 32 32 31 31 26 24 23 23 23 24 26
26 25 25 24 17 17 12 12 13 14 10 10 9 9 9 9 9
9 10 10 11 12 13 13 14 13 13 12 12 12 12 12 12 18
17 22 41 76 105 185 185 203 203 203 206 215 218 218 218 218 218
218 218 218 217 209 209 209 219 219 224 235 235 238 238 238 239 239
233 212 87 112 142 111 78 78 103 103 106 39 23 23 23 23 23
27 40 40 31 30 29 38 38 38 29 24 23 22 22 22 22 22
29 30 61 61 32 32 32 33 34 34 35 35 41 41 42 46 46
49 68 97 135 135 135 136 137 137 137 138 138 137 137 136 136 135
135 134 134 134 134 134 134 134 134 134 134 134 134 134 135 135 136
136 136 136 255 255 255 255 255 255 255 255 255 255 255 255 255 255
255 255 255 255 255 255 255 255 255 255 255 255 255 255 255 255 255
255 255 255 255 255 255 255 255 255 255 255 255 255 255 255 255 255
255 255 255 255 255 255 255 255 255 255 255 255 255 255 255 255 255
255 255 255 255 255 255 255 255 255 255 255 255 255 255 255 255 255
255 255 255 255 255 255 255 255 255 255 255 255 255 255 255 255 255
255 255 255 255 255 255 255 255 255 255 255 255 255 255 255 255 255
255 255 255 255 255 255 255 255 255 255 255 255 255 255 255 255 255
255 255 255 255 255 255 255 255 255 255 255 255 255 255 255 255 255
255 255 255 255 255 255 255 255 255 255 255 255 255 255 255 255 255
255 255 255 255 255 255 255 255 255 255 255 255 255 255 255 255 255
255 255 255 255 255 255 255 255 255 255 255 255 255 255 255 255 255
255 255 255 255 255 255 255 255 255 255 255 255 255 255 255 156 156
206 206 205 205 206 206 207 207 207 207 207 207 206 204 204 203 201
201 200 199 198 198 197 193 190 189 187 185 185 173 172 172 171 169
168 167 167 167 169 169 163 161 159 144 140 127 127 126 126 126 125
126 126 89 82 66 61 59 51 47 28 22 20 19 18 17 16 14
14 13 11 11 11 11 12 12 13 13 15 16 24 24 29 29 29
30 31 31 31 31 31 26 25 24 24 24 24 26 26 25 25 24
23 22 21 20 19 18 18 14 10 9 9 9 9 9 10 10 11
11 12 13 13 13 13 11 11 11 11 12 12 17 17 17 41 59
69 118 175 203 203 203 206 207 218 218 218 218 218 218 218 217 217
209 195 190 219 219 224 235 236 238 238 239 239 239 233 228 190 186
191 177 137 137 137 106 106 78 23 24 24 24 26 26 40 40 31
29 29 29 27 27 27 25 26 26 22 22 22 22 29 30 50 50
32 32 33 33 34 34 35 36 40 40 41 46 46 49 68 97 135
135 135 136 137 137 137 138 138 137 137 136 136 135 135 134 134 134
134 134 134 134 134 134 134 134 134 134 134 135 135 136 136 136 255
255 255 255 255 255 255 255 255 255 255 255 255 255 255 255 255 255
255 255 255 255 255 255 255 255 255 255 255 255 255 255 255 255 255
255 255 255 255 255 255 255 255 255 255 255 255 255 255 255 255 255
255 255 255 255 255 255 255 255 255 255 255 255 255 255 255 255 255
255 255 255 255 255 255 255 255 255 255 255 255 255 255 255 255 255
255 255 255 255 255 255 255 255 255 255 255 255 255 255 255 255 255
255 255 255 255 255 255 255 255 255 255 255 255 255 255 255 255 255
255 255 255 255 255 255 255 255 255 255 255 255 255 255 255 255 255
255 255 255 255 255 255 255 255 255 255 255 255 255 255 255 255 255
255 255 255 255 255 255 255 255 255 255 255 255 255 255 255 255 255
255 255 255 255 255 255 255 255 255 255 255 255 255 255 255 255 255
255 255 255 255 255 255 255 255 255 255 255 255 255 255 255 255 255
255 255 255 255 255 255 255 255 255 255 255 156 193 206 206 206 206
206 206 207 207 207 207 207 207 206 203 203 202 201 200 199 199 198
197 197 193 190 184 184 184 181 172 172 171 170 169 168 167 166 166
168 166 157 157 157 137 128 127 126 125 125 124 124 123 113 89 82
59 58 59 51 47 28 22 20 19 18 16 15 14 13 12 11 11
11 11 11 12 13 13 15 16 23 23 28 28 29 30 30 31 30
29 28 27 26 25 25 25 25 26 26 26 25 24 23 23 21 20
19 18 18 14 10 10 10 10 10 10 10 10 11 11 11 11 12
10 10 10 10 10 11 11 12 12 16 15 23 23 45 62 123 181
203 203 206 207 218 218 218 218 218 218 218 217 217 217 194 188 208
208 230 235 236 237 238 239 239 239 233 228 224 221 221 221 221 215
184 109 107 99 51 24 24 25 26 26 34 40 31 29 28 28 27
27 27 26 26 26 25 25 24 24 29 29 34 34 34 33 33 33
34 35 35 36 39 40 40 46 46 49 67 107 135 135 136 136 137
137 138 138 138 137 137 137 136 136 135 134 134 134 134 134 134 134
134 134 134 134 134 134 134 135 135 136 136 136 255 255 255 255 255
255 255 255 255 255 255 255 255 255 255 255 255 255 255 255 255 255
255 255 255 255 255 255 255 255 255 255 255 255 255 255 255 255 255
255 255 255 255 255 255 255 255 255 255 255 255 255 255 255 255 255
255 255 255 255 255 255 255 255 255 255 255 255 255 255 255 255 255
255 255 255 255 255 255 255 255 255 255 255 255 255 255 255 255 255
255 255 255 255 255 255 255 255 255 255 255 255 255 255 255 255 255
255 255 255 255 255 255 255 255 255 255 255 255 255 255 255 255 255
255 255 255 255 255 255 255 255 255 255 255 255 255 255 255 255 255
255 255 255 255 255 255 255 255 255 255 255 255 255 255 255 255 255
255 255 255 255 255 255 255 255 255 255 255 255 255 255 255 255 255
255 255 255 255 255 255 255 255 255 255 255 255 255 255 255 255 255
255 255 255 255 255 255 255 255 255 255 255 255 255 255 255 255 255
255 255 255 255 255 255 255 156 193 206 206 206 206 206 206 207 207
207 207 207 206 206 202 202 202 200 199 199 198 198 197 196 193 190
184 184 184 180 172 171 171 169 168 167 166 165 165 164 159 157 157
150 137 129 120 121 123 122 122 123 123 110 89 82 59 58 46 46
44 28 23 19 18 17 16 15 14 13 11 11 11 11 11 11 12
13 14 15 15 23 23 27 28 29 30 31 31 30 30 28 27 26
26 25 25 26 26 26 26 26 25 23 23 22 21 20 19 19 20
10 10 11 11 11 11 11 10 10 10 10 10 9 9 9 9 10
10 10 10 11 12 14 15 20 23 39 39 72 107 197 204 204 204
218 218 218 218 218 218 218 218 218 218 194 188 185 185 196 235 235
238 238 239 239 239 233 224 224 221 221 221 221 221 220 167 107 99
75 24 25 25 25 25 25 25 25 26 27 27 27 27 27 26 26
26 25 25 24 24 29 30 34 34 34 34 34 34 34 35 39 39
39 40 40 50 50 50 67 128 134 136 136 138 138 138 138 138 137
137 137 137 136 136 135 135 135 135 135 135 135 135 134 134 134 134
134 134 134 135 135 135 136 136 255 255 255 255 255 255 255 255 255
255 255 255 255 255 255 255 255 255 255 255 255 255 255 255 255 255
255 255 255 255 255 255 255 255 255 255 255 255 255 255 255 255 255
255 255 255 255 255 255 255 255 255 255 255 255 255 255 255 255 255
255 255 255 255 255 255 255 255 255 255 255 255 255 255 255 255 255
255 255 255 255 255 255 255 255 255 255 255 255 255 255 255 255 255
255 255 255 255 255 255 255 255 255 255 255 255 255 255 255 255 255
255 255 255 255 255 255 255 255 255 255 255 255 255 255 255 255 255
255 255 255 255 255 255 255 255 255 255 255 255 255 255 255 255 255
255 255 255 255 255 255 255 255 255 255 255 255 255 255 255 255 255
255 255 255 255 255 255 255 255 255 255 255 255 255 255 255 255 255
255 255 255 255 255 255 255 255 255 255 255 255 255 255 255 255 255
255 255 255 255 255 255 255 255 255 255 255 255 255 255 255 255 255
255 255 255 135 193 206 206 206 206 206 206 206 206 207 207 206 206
205 201 201 201 200 199 198 197 197 196 184 184 184 184 184 184 178
171 171 170 169 168 167 166 164 163 163 159 158 153 150 137 119 119
118 118 118 118 117 117 110 83 83 59 58 45 45 44 25 23 19
17 16 15 14 13 12 11 11 10 10 10 11 12 12 13 14 15
16 22 25 27 30 30 31 31 35 35 35 35 35 27 27 26 26
26 26 26 26 25 24 24 23 24 24 22 21 20 20 19 17 13
12 12 11 11 10 10 9 9 9 9 9 9 9 9 9 10 10
10 14 15 17 17 21 21 59 72 124 204 204 204 217 217 217 218
218 218 218 218 218 218 212 187 185 185 196 234 235 239 239 239 239
239 230 223 223 222 221 221 221 221 221 221 154 98 96 33 25 25
25 24 24 24 23 23 26 26 26 26 26 27 27 28 29 30 29
29 29 34 34 34 34 35 36 37 37 36 41 41 48 48 48 65
72 72 93 128 136 136 137 138 138 138 138 137 137 137 137 137 136
136 135 135 135 135 135 135 135 135 135 134 134 134 134 134 134 135
135 135 136 136 255 255 255 255 255 255 255 255 255 255 255 255 255
255 255 255 255 255 255 255 255 255 255 255 255 255 255 255 255 255
255 255 255 255 255 255 255 255 255 255 255 255 255 255 255 255 255
255 255 255 255 255 255 255 255 255 255 255 255 255 255 255 255 255
255 255 255 255 255 255 255 255 255 255 255 255 255 255 255 255 255
255 255 255 255 255 255 255 255 255 255 255 255 255 255 255 255 255
255 255 255 255 255 255 255 255 255 255 255 255 255 255 255 255 255
255 255 255 255 255 255 255 255 255 255 255 255 255 255 255 255 255
255 255 255 255 255 255 255 255 255 255 255 255 255 255 255 255 255
255 255 255 255 255 255 255 255 255 255 255 255 255 255 255 255 255
255 255 255 255 255 255 255 255 255 255 255 255 255 255 255 255 255
255 255 255 255 255 255 255 255 255 255 255 255 255 255 255 255 255
255 255 255 255 255 255 255 255 255 255 255 255 255 255 255 255 135
159 206 206 206 206 206 205 206 206 206 206 206 206 204 201 200 200
199 198 197 197 196 196 185 184 183 181 180 180 176 175 174 173 169
168 168 165 163 163 159 159 158 153 149 119 119 119 110 110 110 109
108 106 105 83 83 65 57 38 38 38 27 23 19 17 15 14 13
12 12 11 10 10 10 10 11 11 12 13 14 15 15 23 24 27
34 34 35 35 35 35 35 35 34 29 29 28 27 27 26 26 26
25 24 24 24 24 25 22 21 21 20 20 20 14 13 12 12 11
10 9 9 8 8 8 8 8 8 8 9 9 9 10 10 12 13
13 21 21 21 38 91 158 202 204 204 217 217 217 217 218 218 218
218 219 212 205 201 207 207 234 239 239 239 239 239 239 230 223 222
222 221 221 221 221 221 221 183 98 96 82 47 25 25 24 24 23
23 22 22 23 23 26 26 27 27 29 30 30 31 32 53 53 74
57 55 42 37 37 37 37 41 48 82 103 101 101 101 132 132 135
137 137 137 138 138 138 138 137 137 137 137 137 137 136 136 136 135
135 135 135 135 135 135 135 134 134 134 134 134 134 135 135 135 136
255 255 255 255 255 255 255 255 255 255 255 255 255 255 255 255 255
255 255 255 255 255 255 255 255 255 255 255 255 255 255 255 255 255
255 255 255 255 255 255 255 255 255 255 255 255 255 255 255 255 255
255 255 255 255 255 255 255 255 255 255 255 255 255 255 255 255 255
255 255 255 255 255 255 255 255 255 255 255 255 255 255 255 255 255
255 255 255 255 255 255 255 255 255 255 255 255 255 255 255 255 255
255 255 255 255 255 255 255 255 255 255 255 255 255 255 255 255 255
255 255 255 255 255 255 255 255 255 255 255 255 255 255 255 255 255
255 255 255 255 255 255 255 255 255 255 255 255 255 255 255 255 255
255 255 255 255 255 255 255 255 255 255 255 255 255 255 255 255 255
255 255 255 255 255 255 255 255 255 255 255 255 255 255 255 255 255
255 255 255 255 255 255 255 255 255 255 255 255 255 255 255 255 255
255 255 255 255 255 255 255 255 255 255 255 255 135 135 190 206 206
205 205 205 205 205 205 205 205 206 202 200 200 198 198 197 197 196
190 189 185 183 183 179 179 176 175 174 174 173 173 172 168 165 163
162 153 143 143 142 142 111 111 110 110 110 109 105 105 105 105 84
74 65 57 38 38 38 28 19 18 18 15 14 13 12 11 11 10
10 10 10 11 11 12 13 14 14 15 16 22 26 34 34 35 35
35 35 35 34 34 32 32 28 27 27 26 26 25 25 24 24 24
24 25 24 21 21 21 20 20 14 13 13 12 11 10 9 8 8
8 8 8 8 8 8 8 8 9 9 9 9 10 10 11 12 12
38 38 89 157 204 204 205 205 216 217 217 217 218 219 219 212 212
201 207 208 239 239 239 239 239 239 239 229 221 221 221 221 221 221
221 221 221 221 98 82 82 57 57 41 27 23 23 22 22 22 23
23 25 25 27 27 30 30 30 39 39 72 85 90 90 90 90 44
38 38 38 40 51 82 103 125 134 134 135 135 136 136 137 138 138
138 138 138 137 137 137 137 137 137 136 136 136 136 136 136 136 136
135 135 135 134 134 134 134 134 135 135 135 135 136 255 255 255 255
255 255 255 255 255 255 255 255 255 255 255 255 255 255 255 255 255
255 255 255 255 255 255 255 255 255 255 255 255 255 255 255 255 255
255 255 255 255 255 255 255 255 255 255 255 255 255 255 255 255 255
255 255 255 255 255 255 255 255 255 255 255 255 255 255 255 255 255
255 255 255 255 255 255 255 255 255 255 255 255 255 255 255 255 255
255 255 255 255 255 255 255 255 255 255 255 255 255 255 255 255 255
255 255 255 255 255 255 255 255 255 255 255 255 255 255 255 255 255
255 255 255 255 255 255 255 255 255 255 255 255 255 255 255 255 255
255 255 255 255 255 255 255 255 255 255 255 255 255 255 255 255 255
255 255 255 255 255 255 255 255 255 255 255 255 255 255 255 255 255
255 255 255 255 255 255 255 255 255 255 255 255 255 255 255 255 255
255 255 255 255 255 255 255 255 255 255 255 255 255 255 255 255 255
255 255 255 255 255 255 255 255 140 140 151 180 201 202 202 203 203
203 204 204 205 205 201 200 194 194 193 192 191 191 190 184 183 183
178 178 178 176 175 174 174 173 173 172 168 152 149 149 149 143 127
127 126 107 108 108 109 106 106 105 105 105 105 84 65 65 57 38
38 37 29 19 18 17 15 14 13 12 11 11 10 10 10 10 10
11 12 12 13 14 15 15 22 25 34 34 35 35 35 35 34 34
33 32 32 28 23 23 19 19 18 18 18 23 23 24 26 27 27
26 26 25 25 26 26 13 12 12 10 9 8 8 8 7 7 7
7 7 8 8 8 8 8 9 9 9 9 10 10 21 37 57 96
171 192 192 192 212 212 214 216 219 219 219 220 216 216 216 216 239
239 239 239 240 240 240 229 220 221 221 221 221 221 221 221 221 221
141 82 82 82 82 82 56 56 22 21 21 22 23 23 24 25 25
27 30 30 48 56 81 108 113 115 131 131 141 141 55 55 64 69
69 82 94 126 134 135 135 136 136 137 138 138 138 138 138 138 138
137 137 137 137 137 137 137 136 136 136 136 136 136 136 135 135 135
134 134 134 135 135 135 135 135 135 255 255 255 255 255 255 255 255
255 255 255 255 255 255 255 255 255 255 255 255 255 255 255 255 255
255 255 255 255 255 255 255 255 255 255 255 255 255 255 255 255 255
255 255 255 255 255 255 255 255 255 255 255 255 255 255 255 255 255
255 255 255 255 255 255 255 255 255 255 255 255 255 255 255 255 255
255 255 255 255 255 255 255 255 255 255 255 255 255 255 255 255 255
255 255 255 255 255 255 255 255 255 255 255 255 255 255 255 255 255
255 255 255 255 255 255 255 255 255 255 255 255 255 255 255 255 255
255 255 255 255 255 255 255 255 255 255 255 255 255 255 255 255 255
255 255 255 255 255 255 255 255 255 255 255 255 255 255 255 255 255
255 255 255 255 255 255 255 255 255 255 255 255 255 255 255 255 255
255 255 255 255 255 255 255 255 255 255 255 255 255 255 255 255 255
255 255 255 255 255 255 255 255 255 255 255 255 255 255 255 255 255
255 255 255 255 171 140 151 176 201 201 202 201 202 202 203 203 204
201 198 198 194 194 193 191 185 185 185 178 178 178 177 177 177 177
174 174 173 173 173 162 161 152 149 149 128 128 127 110 110 107 102
102 101 101 101 100 100 100 100 84 64 62 57 38 38 37 29 19
17 16 15 14 13 12 11 11 10 10 10 10 10 11 11 12 13
14 14 15 22 22 34 34 34 34 34 33 33 33 32 32 32 28
23 22 19 19 18 18 18 18 18 24 27 27 27 27 26 26 27
28 29 29 21 21 10 8 8 8 8 7 7 7 7 7 7 7
7 7 8 8 8 8 9 9 9 21 21 21 83 83 156 180 180
212 213 214 215 219 219 220 220 220 217 217 217 239 239 239 239 240
240 239 237 220 220 221 221 221 221 221 221 221 221 199 123 100 82
82 82 82 82 39 21 21 21 23 24 24 25 25 26 42 42 55
58 96 131 131 131 131 141 142 189 168 136 130 130 127 104 104 126
136 136 136 137 138 138 138 139 139 139 138 138 138 137 137 137 137
137 137 137 137 137 137 136 136 136 136 136 135 135 135 135 135 135
135 135 135 135 135 255 255 255 255 255 255 255 255 255 255 255 255
255 255 255 255 255 255 255 255 255 255 255 255 255 255 255 255 255
255 255 255 255 255 255 255 255 255 255 255 255 255 255 255 255 255
255 255 255 255 255 255 255 255 255 255 255 255 255 255 255 255 255
255 255 255 255 255 255 255 255 255 255 255 255 255 255 255 255 255
255 255 255 255 255 255 255 255 255 255 255 255 255 255 255 255 255
255 255 255 255 255 255 255 255 255 255 255 255 255 255 255 255 255
255 255 255 255 255 255 255 255 255 255 255 255 255 255 255 255 255
255 255 255 255 255 255 255 255 255 255 255 255 255 255 255 255 255
255 255 255 255 255 255 255 255 255 255 255 255 255 255 255 255 255
255 255 255 255 255 255 255 255 255 255 255 255 255 255 255 255 255
255 255 255 255 255 255 255 255 255 255 255 255 255 255 255 255 255
255 255 255 255 255 255 255 255 255 255 255 255 255 255 255 255 255
126 126 151 170 198 198 199 200 201 202 202 202 201 198 197 197 194
194 193 187 185 185 180 178 177 177 177 177 177 176 173 173 173 157
157 157 149 140 140 140 128 128 128 110 110 107 102 102 101 100 100
94 94 94 95 85 61 62 40 38 38 35 29 22 17 16 16 15
14 13 12 11 10 10 10 10 10 10 11 12 13 13 14 14 14
14 28 34 34 34 34 33 33 32 32 32 32 30 22 22 20 19
18 18 18 18 18 24 28 28 29 29 30 30 30 31 31 32 32
21 17 8 8 8 7 7 7 7 7 7 7 7 7 7 7 7
7 8 8 8 9 13 13 16 40 59 97 171 180 197 197 202 213
220 220 220 220 220 220 219 225 239 239 239 239 239 239 239 238 220
220 220 221 221 221 221 221 221 221 221 221 171 131 87 87 87 89
125 20 20 20 24 24 24 25 25 26 51 67 78 86 110 131 131
146 135 141 190 189 201 201 211 211 211 191 152 137 137 137 137 138
139 139 139 139 139 139 139 138 138 138 137 137 137 137 137 137 137
137 137 137 136 136 136 136 135 135 135 135 135 135 135 135 135 135
135 255 255 255 255 255 255 255 255 255 255 255 255 255 255 255 255
255 255 255 255 255 255 255 255 255 255 255 255 255 255 255 255 255
255 255 255 255 255 255 255 255 255 255 255 255 255 255 255 255 255
255 255 255 255 255 255 255 255 255 255 255 255 255 255 255 255 255
255 255 255 255 255 255 255 255 255 255 255 255 255 255 255 255 255
255 255 255 255 255 255 255 255 255 255 255 255 255 255 255 255 255
255 255 255 255 255 255 255 255 255 255 255 255 255 255 255 255 255
255 255 255 255 255 255 255 255 255 255 255 255 255 255 255 255 255
255 255 255 255 255 255 255 255 255 255 255 255 255 255 255 255 255
255 255 255 255 255 255 255 255 255 255 255 255 255 255 255 255 255
255 255 255 255 255 255 255 255 255 255 255 255 255 255 255 255 255
255 255 255 255 255 255 255 255 255 255 255 255 255 255 255 255 255
255 255 255 255 255 255 255 255 255 255 255 255 255 126 128 146 170
197 197 199 199 200 201 201 201 200 198 197 196 194 193 190 189 184
184 181 177 176 176 176 174 173 173 168 167 167 157 157 156 147 140
126 120 120 107 107 105 105 104 103 102 102 98 97 94 94 74 73
68 61 61 40 39 38 35 29 22 22 16 16 17 14 13 12 11
10 10 10 10 10 10 11 11 13 13 13 14 13 14 28 34 34
34 33 28 29 30 31 31 32 32 27 26 26 25 17 17 17 18
18 21 28 29 29 30 30 30 30 31 31 32 33 21 17 8 8
8 8 7 7 7 7 7 7 6 6 6 6 6 6 7 7 8
8 9 9 10 25 45 66 92 165 165 167 178 213 220 220 220 220
220 221 221 225 239 239 239 239 239 239 239 238 220 220 220 221 221
221 221 221 221 221 221 221 203 203 136 113 113 89 125 88 23 23
23 26 26 25 25 38 52 96 111 114 121 131 132 145 143 142 191
192 201 215 216 222 222 222 222 170 139 138 138 139 139 139 139 140
140 139 139 139 138 138 138 137 137 137 137 137 137 137 137 137 137
136 136 136 136 135 135 135 135 135 135 135 135 135 135 255 255 255
255 255 255 255 255 255 255 255 255 255 255 255 255 255 255 255 255
255 255 255 255 255 255 255 255 255 255 255 255 255 255 255 255 255
255 255 255 255 255 255 255 255 255 255 255 255 255 255 255 255 255
255 255 255 255 255 255 255 255 255 255 255 255 255 255 255 255 255
255 255 255 255 255 255 255 255 255 255 255 255 255 255 255 255 255
255 255 255 255 255 255 255 255 255 255 255 255 255 255 255 255 255
255 255 255 255 255 255 255 255 255 255 255 255 255 255 255 255 255
255 255 255 255 255 255 255 255 255 255 255 255 255 255 255 255 255
255 255 255 255 255 255 255 255 255 255 255 255 255 255 255 255 255
255 255 255 255 255 255 255 255 255 255 255 255 255 255 255 255 255
255 255 255 255 255 255 255 255 255 255 255 255 255 255 255 255 255
255 255 255 255 255 255 255 255 255 255 255 255 255 255 255 255 255
255 255 255 255 255 255 255 255 255 127 136 146 170 196 196 199 199
199 200 200 200 200 199 196 195 194 192 190 189 183 183 181 175 175
174 172 171 169 168 168 168 157 157 156 156 140 129 120 120 116 107
107 106 105 104 103 102 102 98 94 94 94 74 74 67 61 61 47
47 39 35 29 23 22 21 19 18 15 14 14 11 10 10 10 10
10 10 10 11 11 12 12 12 13 13 25 26 26 26 26 27 28
29 30 31 32 32 27 27 26 26 17 17 17 17 18 18 18 21
30 30 30 30 30 30 32 32 35 25 20 8 8 8 8 7 7
7 7 7 6 6 6 6 6 6 6 6 7 7 8 8 9 9
9 23 23 56 105 147 167 167 177 188 220 220 220 221 221 221 222
222 221 221 221 221 202 202 238 236 235 234 233 233 229 222 222 222
222 221 221 203 203 202 136 128 90 125 154 113 39 39 39 39 39
48 82 108 143 144 144 144 142 142 145 144 144 178 194 196 215 216
222 223 223 224 224 159 158 141 141 141 142 143 143 142 143 139 139
138 138 138 138 137 137 137 137 137 137 137 137 136 136 136 136 136
135 135 135 134 134 134 134 134 135 135 255 255 255 255 255 255 255
255 255 255 255 255 255 255 255 255 255 255 255 255 255 255 255 255
255 255 255 255 255 255 255 255 255 255 255 255 255 255 255 255 255
255 255 255 255 255 255 255 255 255 255 255 255 255 255 255 255 255
255 255 255 255 255 255 255 255 255 255 255 255 255 255 255 255 255
255 255 255 255 255 255 255 255 255 255 255 255 255 255 255 255 255
255 255 255 255 255 255 255 255 255 255 255 255 255 255 255 255 255
255 255 255 255 255 255 255 255 255 255 255 255 255 255 255 255 255
255 255 255 255 255 255 255 255 255 255 255 255 255 255 255 255 255
255 255 255 255 255 255 255 255 255 255 255 255 255 255 255 255 255
255 255 255 255 255 255 255 255 255 255 255 255 255 255 255 255 255
255 255 255 255 255 255 255 255 255 255 255 255 255 255 255 255 255
255 255 255 255 255 255 255 255 255 255 255 255 255 255 255 255 255
255 255 255 255 255 150 150 175 170 171 194 199 199 199 199 199 194
193 192 189 188 188 189 189 189 183 183 175 174 173 173 172 167 168
165 163 163 157 157 153 144 129 129 115 112 107 107 107 98 94 93
93 93 93 91 90 87 87 74 71 67 60 48 47 47 39 35 29
23 23 21 20 18 16 15 15 11 11 10 10 10 10 10 11 11
11 11 12 12 13 13 14 14 22 23 25 26 27 28 29 31 32
32 28 28 26 26 17 17 17 17 17 18 18 21 30 30 30 29
29 29 35 35 35 25 20 9 8 8 8 7 7 7 7 7 6
6 6 6 5 5 5 6 6 6 7 8 8 9 9 23 23 31
74 109 167 167 177 188 220 220 220 221 221 222 222 222 219 189 176
167 165 201 239 239 239 239 239 239 239 234 234 234 233 239 239 239
202 202 136 128 128 144 154 148 120 94 89 89 99 99 115 126 143
152 184 187 160 146 145 144 144 178 195 196 213 216 222 223 224 224
225 209 166 142 142 143 143 144 144 144 143 139 139 139 138 138 138
137 137 137 137 137 137 136 136 136 136 136 136 135 135 135 135 134
134 134 134 134 134 134 255 255 255 255 255 255 255 255 255 255 255
255 255 255 255 255 255 255 255 255 255 255 255 255 255 255 255 255
255 255 255 255 255 255 255 255 255 255 255 255 255 255 255 255 255
255 255 255 255 255 255 255 255 255 255 255 255 255 255 255 255 255
255 255 255 255 255 255 255 255 255 255 255 255 255 255 255 255 255
255 255 255 255 255 255 255 255 255 255 255 255 255 255 255 255 255
255 255 255 255 255 255 255 255 255 255 255 255 255 255 255 255 255
255 255 255 255 255 255 255 255 255 255 255 255 255 255 255 255 255
255 255 255 255 255 255 255 255 255 255 255 255 255 255 255 255 255
255 255 255 255 255 255 255 255 255 255 255 255 255 255 255 255 255
255 255 255 255 255 255 255 255 255 255 255 255 255 255 255 255 255
255 255 255 255 255 255 255 255 255 255 255 255 255 255 255 255 255
255 255 255 255 255 255 255 255 255 255 255 255 255 255 255 255 255
255 178 178 175 171 171 193 198 198 198 198 198 194 194 190 189 188
187 181 180 179 178 174 173 173 172 171 170 166 165 164 159 159 158
157 153 138 128 129 115 112 105 98 99 99 93 93 93 93 92 91
91 77 75 61 61 60 60 48 47 39 39 35 29 24 24 22 20
19 18 16 15 11 11 11 11 10 10 11 11 11 11 11 12 12
12 13 14 14 21 22 24 25 26 28 29 31 33 33 29 29 27
28 17 17 17 17 17 18 18 21 29 29 30 28 28 28 35 35
35 25 20 9 9 8 8 7 7 7 7 7 6 6 6 5 5
5 5 5 5 6 6 7 8 8 9 9 11 15 53 61 111 139
142 188 220 220 220 220 221 223 223 223 219 203 176 167 165 201 239
239 239 239 239 239 239 238 237 237 237 239 239 239 216 202 120 120
128 144 154 171 175 175 161 155 155 124 124 126 143 152 184 190 190
146 146 155 170 178 196 196 197 216 222 224 224 225 225 226 226 163
163 145 145 144 144 144 144 139 139 139 139 138 138 137 137 137 136
136 136 136 136 136 136 136 135 135 135 135 134 134 134 134 134 134
134 134 255 255 255 255 255 255 255 255 255 255 255 255 255 255 255
255 255 255 255 255 255 255 255 255 255 255 255 255 255 255 255 255
255 255 255 255 255 255 255 255 255 255 255 255 255 255 255 255 255
255 255 255 255 255 255 255 255 255 255 255 255 255 255 255 255 255
255 255 255 255 255 255 255 255 255 255 255 255 255 255 255 255 255
255 255 255 255 255 255 255 255 255 255 255 255 255 255 255 255 255
255 255 255 255 255 255 255 255 255 255 255 255 255 255 255 255 255
255 255 255 255 255 255 255 255 255 255 255 255 255 255 255 255 255
255 255 255 255 255 255 255 255 255 255 255 255 255 255 255 255 255
255 255 255 255 255 255 255 255 255 255 255 255 255 255 255 255 255
255 255 255 255 255 255 255 255 255 255 255 255 255 255 255 255 255
255 255 255 255 255 255 255 255 255 255 255 255 255 255 255 255 255
255 255 255 255 255 255 255 255 255 255 255 255 255 255 179 107 107
133 161 192 195 195 195 194 193 193 193 190 187 187 187 180 180 179
177 174 173 172 171 169 169 167 164 164 159 158 158 153 153 128 128
110 109 107 105 98 94 94 92 92 93 93 93 91 77 77 75 60
59 59 60 48 47 38 38 35 30 29 24 24 24 23 21 20 19
18 12 11 11 11 11 11 11 12 12 12 12 12 12 13 13 14
20 22 23 25 27 27 28 32 33 33 33 31 31 29 30 17 17
17 17 18 18 21 29 29 28 28 27 27 32 31 30 25 18 9
9 8 8 7 7 7 7 6 6 6 6 5 5 5 5 5 5
6 6 7 7 8 9 9 10 10 44 61 70 123 123 165 220 220
220 220 220 223 223 223 222 205 203 167 167 201 239 239 239 239 239
239 239 238 238 237 239 239 239 239 240 239 140 120 149 149 149 149
175 192 198 195 195 139 126 126 131 131 166 190 190 137 131 196 206
206 206 197 197 212 212 214 225 226 226 226 227 227 227 188 156 145
153 153 155 139 139 139 139 138 138 137 137 136 136 136 136 136 136
136 136 135 135 135 135 134 134 133 133 133 133 133 133 133 255 255
255 255 255 255 255 255 255 255 255 255 255 255 255 255 255 255 255
255 255 255 255 255 255 255 255 255 255 255 255 255 255 255 255 255
255 255 255 255 255 255 255 255 255 255 255 255 255 255 255 255 255
255 255 255 255 255 255 255 255 255 255 255 255 255 255 255 255 255
255 255 255 255 255 255 255 255 255 255 255 255 255 255 255 255 255
255 255 255 255 255 255 255 255 255 255 255 255 255 255 255 255 255
255 255 255 255 255 255 255 255 255 255 255 255 255 255 255 255 255
255 255 255 255 255 255 255 255 255 255 255 255 255 255 255 255 255
255 255 255 255 255 255 255 255 255 255 255 255 255 255 255 255 255
255 255 255 255 255 255 255 255 255 255 255 255 255 255 255 255 255
255 255 255 255 255 255 255 255 255 255 255 255 255 255 255 255 255
255 255 255 255 255 255 255 255 255 255 255 255 255 255 255 255 255
255 255 255 255 255 255 255 255 255 255 179 132 133 133 133 180 194
194 194 193 193 192 191 189 187 187 187 180 180 175 175 174 172 172
170 169 168 166 165 164 158 158 158 138 138 127 120 111 109 105 105
98 93 93 91 90 88 87 86 85 69 69 69 65 58 56 56 46
38 38 38 35 31 30 24 24 24 24 24 25 25 18 12 12 12
12 12 12 12 13 13 13 12 12 13 13 13 14 18 20 24 25
26 27 28 32 32 33 33 32 31 30 30 30 17 17 18 18 18
21 23 24 25 26 26 26 31 31 29 25 18 9 9 8 8 7
7 7 7 6 6 6 6 5 5 5 5 5 5 5 6 6 7
8 8 9 10 10 10 31 62 116 116 123 183 183 220 220 220 223
223 223 222 205 205 178 178 201 227 239 239 239 239 240 240 240 240
240 240 239 240 240 240 239 230 176 157 157 148 136 175 197 198 198
198 139 139 141 141 123 124 124 125 126 131 193 206 206 207 207 201
212 212 214 226 226 227 227 227 228 229 229 200 159 183 200 215 170
170 139 139 139 138 137 137 136 136 136 135 135 135 135 135 135 134
134 133 132 132 133 133 133 133 133 133 133 255 255 255 255 255 255
255 255 255 255 255 255 255 255 255 255 255 255 255 255 255 255 255
255 255 255 255 255 255 255 255 255 255 255 255 255 255 255 255 255
255 255 255 255 255 255 255 255 255 255 255 255 255 255 255 255 255
255 255 255 255 255 255 255 255 255 255 255 255 255 255 255 255 255
255 255 255 255 255 255 255 255 255 255 255 255 255 255 255 255 255
255 255 255 255 255 255 255 255 255 255 255 255 255 255 255 255 255
255 255 255 255 255 255 255 255 255 255 255 255 255 255 255 255 255
255 255 255 255 255 255 255 255 255 255 255 255 255 255 255 255 255
255 255 255 255 255 255 255 255 255 255 255 255 255 255 255 255 255
255 255 255 255 255 255 255 255 255 255 255 255 255 255 255 255 255
255 255 255 255 255 255 255 255 255 255 255 255 255 255 255 255 255
255 255 255 255 255 255 255 255 255 255 255 255 255 255 255 255 255
255 255 255 255 255 255 189 190 213 133 127 180 194 194 193 192 192
191 191 186 186 186 178 175 175 175 174 174 171 169 168 168 167 167
158 158 158 158 139 138 117 116 113 111 108 97 93 92 92 92 91
89 88 86 86 84 68 65 65 65 58 55 50 46 38 37 36 35
31 31 31 25 25 25 25 25 25 25 13 13 14 14 14 13 13
14 14 14 12 12 13 13 14 14 17 20 23 26 27 27 27 32
32 33 33 33 34 35 35 33 19 19 18 18 18 21 23 23 23
23 24 24 31 31 28 24 18 10 9 8 8 7 7 7 7 6
6 6 6 6 5 5 5 5 5 5 6 6 6 7 8 9 9
10 10 24 37 56 56 64 138 155 219 219 220 223 223 223 222 217
217 181 181 192 225 237 238 239 235 240 240 240 240 240 240 240 240
240 239 239 239 215 201 167 148 143 175 197 198 214 214 173 131 141
141 123 123 106 106 110 119 193 206 206 207 207 200 209 216 216 225
226 229 230 231 231 232 233 234 185 202 235 236 230 230 222 139 139
138 137 137 136 136 135 135 135 135 135 135 135 134 134 132 132 132
132 133 133 133 133 133 134 255 255 255 255 255 255 255 255 255 255
255 255 255 255 255 255 255 255 255 255 255 255 255 255 255 255 255
255 255 255 255 255 255 255 255 255 255 255 255 255 255 255 255 255
255 255 255 255 255 255 255 255 255 255 255 255 255 255 255 255 255
255 255 255 255 255 255 255 255 255 255 255 255 255 255 255 255 255
255 255 255 255 255 255 255 255 255 255 255 255 255 255 255 255 255
255 255 255 255 255 255 255 255 255 255 255 255 255 255 255 255 255
255 255 255 255 255 255 255 255 255 255 255 255 255 255 255 255 255
255 255 255 255 255 255 255 255 255 255 255 255 255 255 255 255 255
255 255 255 255 255 255 255 255 255 255 255 255 255 255 255 255 255
255 255 255 255 255 255 255 255 255 255 255 255 255 255 255 255 255
255 255 255 255 255 255 255 255 255 255 255 255 255 255 255 255 255
255 255 255 255 255 255 255 255 255 255 255 255 255 255 255 255 255
255 255 196 196 213 182 127 158 193 193 193 191 191 191 185 185 185
185 177 173 173 173 172 171 170 169 168 168 167 166 157 158 137 137
137 134 115 110 110 111 92 92 92 90 91 91 80 80 80 80 80
64 64 63 61 61 58 55 50 46 43 43 43 43 47 47 39 25
25 25 25 25 25 24 24 16 16 16 16 16 16 16 15 15 13
13 13 13 14 14 15 15 23 23 28 30 31 32 32 33 33 33
34 35 37 37 38 26 25 25 24 23 23 22 23 23 23 23 24
24 24 24 10 10 9 9 8 7 7 7 7 6 6 6 6 6
6 5 5 5 5 5 5 6 6 7 8 8 9 10 10 10 16
17 29 29 84 104 180 202 220 223 223 223 223 222 222 188 188 192
198 237 238 238 160 240 240 240 240 240 240 238 238 239 239 239 239
235 208 167 167 167 170 170 183 214 214 173 131 131 141 123 123 90
90 94 119 193 201 198 198 199 199 209 215 225 225 225 229 230 231
231 232 233 234 234 235 235 236 236 237 237 142 139 138 137 136 136
135 135 135 135 135 135 135 135 134 134 132 132 132 132 133 133 133
134 134 134 255 255 255 255 255 255 255 255 255 255 255 255 255 255
255 255 255 255 255 255 255 255 255 255 255 255 255 255 255 255 255
255 255 255 255 255 255 255 255 255 255 255 255 255 255 255 255 255
255 255 255 255 255 255 255 255 255 255 255 255 255 255 255 255 255
255 255 255 255 255 255 255 255 255 255 255 255 255 255 255 255 255
255 255 255 255 255 255 255 255 255 255 255 255 255 255 255 255 255
255 255 255 255 255 255 255 255 255 255 255 255 255 255 255 255 255
255 255 255 255 255 255 255 255 255 255 255 255 255 255 255 255 255
255 255 255 255 255 255 255 255 255 255 255 255 255 255 255 255 255
255 255 255 255 255 255 255 255 255 255 255 255 255 255 255 255 255
255 255 255 255 255 255 255 255 255 255 255 255 255 255 255 255 255
255 255 255 255 255 255 255 255 255 255 255 255 255 255 255 255 255
255 255 255 255 255 255 255 255 255 255 255 255 255 255 255 196 196
213 182 145 158 167 183 190 191 190 190 184 183 183 184 177 173 173
172 171 170 170 169 168 168 168 166 157 140 134 134 134 134 114 109
99 99 91 91 89 89 88 80 80 75 75 66 66 65 60 60 59
58 58 55 49 49 48 48 55 55 55 54 40 40 26 25 25 25
25 24 24 22 17 17 17 17 17 17 17 19 19 18 13 13 14
14 15 15 16 23 25 30 31 32 32 33 33 33 34 35 37 38
38 27 25 25 24 23 22 22 21 22 23 23 22 22 23 23 10
10 9 9 8 7 7 7 7 6 6 6 6 6 6 6 6 5
5 5 6 6 6 7 7 8 9 9 10 10 10 17 22 22 69
69 119 196 220 222 223 223 223 222 222 212 211 198 198 209 221 221
155 204 231 231 231 240 240 204 219 234 239 239 236 235 224 172 168
168 168 143 159 202 202 198 131 84 104 122 123 90 91 94 118 193
201 197 197 198 199 199 199 199 225 225 229 230 231 231 232 233 234
234 235 235 236 236 237 237 142 139 138 137 137 136 136 135 135 135
136 136 136 135 135 134 132 132 132 132 133 133 134 134 134 134 255
255 255 255 255 255 255 255 255 255 255 255 255 255 255 255 255 255
255 255 255 255 255 255 255 255 255 255 255 255 255 255 255 255 255
255 255 255 255 255 255 255 255 255 255 255 255 255 255 255 255 255
255 255 255 255 255 255 255 255 255 255 255 255 255 255 255 255 255
255 255 255 255 255 255 255 255 255 255 255 255 255 255 255 255 255
255 255 255 255 255 255 255 255 255 255 255 255 255 255 255 255 255
255 255 255 255 255 255 255 255 255 255 255 255 255 255 255 255 255
255 255 255 255 255 255 255 255 255 255 255 255 255 255 255 255 255
255 255 255 255 255 255 255 255 255 255 255 255 255 255 255 255 255
255 255 255 255 255 255 255 255 255 255 255 255 255 255 255 255 255
255 255 255 255 255 255 255 255 255 255 255 255 255 255 255 255 255
255 255 255 255 255 255 255 255 255 255 255 255 255 255 255 255 255
255 255 255 255 255 255 255 255 255 255 255 196 196 197 182 166 166
167 182 185 185 185 185 184 178 178 178 176 173 173 173 170 169 169
168 168 168 168 148 148 140 134 134 125 125 114 99 99 94 91 91
89 88 88 80 75 75 67 66 66 66 60 59 59 58 58 60 60
65 65 66 67 67 61 54 41 40 26 26 26 25 24 24 23 22
18 18 18 18 18 19 19 20 26 26 13 14 14 14 15 16 16
20 25 30 30 30 24 24 24 24 30 36 37 38 38 28 28 25
23 23 22 21 20 18 18 18 18 21 22 22 10 10 9 9 8
7 7 7 6 6 6 6 6 6 6 6 6 6 5 5 6 6
6 6 7 7 8 9 9 10 10 11 12 13 52 58 85 142 203
222 223 223 223 222 222 220 220 209 209 209 202 169 155 156 172 174
167 207 193 193 208 208 232 232 233 233 233 172 168 154 152 144 159
202 202 198 198 48 48 68 80 90 92 94 118 163 163 197 196 195
174 151 140 180 216 216 223 223 223 227 231 231 232 233 234 235 236
236 237 220 143 143 141 137 137 137 136 136 136 135 137 137 136 136
135 134 133 133 133 133 133 134 134 135 135 135 255 255 255 255 255
255 255 255 255 255 255 255 255 255 255 255 255 255 255 255 255 255
255 255 255 255 255 255 255 255 255 255 255 255 255 255 255 255 255
255 255 255 255 255 255 255 255 255 255 255 255 255 255 255 255 255
255 255 255 255 255 255 255 255 255 255 255 255 255 255 255 255 255
255 255 255 255 255 255 255 255 255 255 255 255 255 255 255 255 255
255 255 255 255 255 255 255 255 255 255 255 255 255 255 255 255 255
255 255 255 255 255 255 255 255 255 255 255 255 255 255 255 255 255
255 255 255 255 255 255 255 255 255 255 255 255 255 255 255 255 255
255 255 255 255 255 255 255 255 255 255 255 255 255 255 255 255 255
255 255 255 255 255 255 255 255 255 255 255 255 255 255 255 255 255
255 255 255 255 255 255 255 255 255 255 255 255 255 255 255 255 255
255 255 255 255 255 255 255 255 255 255 255 255 255 255 255 255 255
255 255 255 255 255 255 255 197 197 197 181 180 174 179 178 178 178
179 179 178 177 176 175 173 173 173 172 167 168 168 168 168 168 168
147 148 140 134 134 119 114 114 97 93 94 91 90 90 87 87 80
73 68 67 66 66 66 61 61 61 61 62 80 97 97 97 92 92
76 68 54 41 28 27 26 26 25 24 24 23 22 20 19 19 20
19 20 20 20 26 26 26 14 14 15 15 16 17 18 18 18 19
19 22 23 23 24 26 30 30 29 29 28 28 27 26 26 23 19
18 18 17 17 18 19 21 18 10 10 9 8 8 7 7 6 6
6 6 6 6 6 6 6 6 6 6 6 6 6 6 6 7 7
8 8 9 9 10 10 13 13 42 58 59 90 154 222 223 223 222
222 222 221 221 220 220 211 202 169 156 156 158 150 150 162 162 162
189 189 218 185 185 233 233 172 168 154 144 144 160 202 202 179 198
48 48 68 80 80 92 94 94 98 98 185 195 169 137 100 100 167
160 160 193 221 223 224 225 231 232 233 233 236 236 236 237 220 213
217 188 138 137 137 137 137 136 138 138 138 137 136 135 135 134 133
133 134 134 134 135 135 136 136 255 255 255 255 255 255 255 255 255
255 255 255 255 255 255 255 255 255 255 255 255 255 255 255 255 255
255 255 255 255 255 255 255 255 255 255 255 255 255 255 255 255 255
255 255 255 255 255 255 255 255 255 255 255 255 255 255 255 255 255
255 255 255 255 255 255 255 255 255 255 255 255 255 255 255 255 255
255 255 255 255 255 255 255 255 255 255 255 255 255 255 255 255 255
255 255 255 255 255 255 255 255 255 255 255 255 255 255 255 255 255
255 255 255 255 255 255 255 255 255 255 255 255 255 255 255 255 255
255 255 255 255 255 255 255 255 255 255 255 255 255 255 255 255 255
255 255 255 255 255 255 255 255 255 255 255 255 255 255 255 255 255
255 255 255 255 255 255 255 255 255 255 255 255 255 255 255 255 255
255 255 255 255 255 255 255 255 255 255 255 255 255 255 255 255 255
255 255 255 255 255 255 255 255 255 255 255 255 255 255 255 255 255
255 255 255 197 197 197 189 180 179 179 176 176 178 178 178 178 177
177 171 172 172 172 172 167 167 166 166 165 152 152 147 147 135 121
121 105 102 102 94 93 92 91 90 90 85 85 80 73 68 67 67
66 66 82 88 92 92 92 92 97 97 97 97 92 76 68 58 41
28 27 27 26 25 25 24 23 21 21 20 20 20 20 21 21 27
27 28 29 15 15 20 20 18 18 18 18 18 19 19 19 19 24
24 24 26 26 27 28 28 29 29 29 25 24 18 17 17 16 16
16 16 17 17 10 9 9 8 7 7 6 6 6 6 6 6 6
6 6 6 6 6 6 6 6 6 6 6 6 7 7 8 8 9
9 9 13 13 17 22 28 66 86 212 223 223 223 222 222 221 221
221 221 221 221 200 200 171 160 150 150 151 151 159 189 189 180 175
139 220 228 168 168 154 143 143 160 199 209 179 158 53 48 48 56
74 93 93 94 98 98 166 166 169 73 73 90 167 101 101 158 221
223 224 225 228 232 232 232 235 235 235 234 224 224 224 224 138 138
138 138 138 139 139 139 138 138 136 136 135 134 134 134 137 137 137
137 137 137 137 255 255 255 255 255 255 255 255 255 255 255 255 255
255 255 255 255 255 255 255 255 255 255 255 255 255 255 255 255 255
255 255 255 255 255 255 255 255 255 255 255 255 255 255 255 255 255
255 255 255 255 255 255 255 255 255 255 255 255 255 255 255 255 255
255 255 255 255 255 255 255 255 255 255 255 255 255 255 255 255 255
255 255 255 255 255 255 255 255 255 255 255 255 255 255 255 255 255
255 255 255 255 255 255 255 255 255 255 255 255 255 255 255 255 255
255 255 255 255 255 255 255 255 255 255 255 255 255 255 255 255 255
255 255 255 255 255 255 255 255 255 255 255 255 255 255 255 255 255
255 255 255 255 255 255 255 255 255 255 255 255 255 255 255 255 255
255 255 255 255 255 255 255 255 255 255 255 255 255 255 255 255 255
255 255 255 255 255 255 255 255 255 255 255 255 255 255 255 255 255
255 255 255 255 255 255 255 255 255 255 255 255 255 255 255 255 197
197 197 196 155 191 179 146 168 168 173 172 172 171 171 171 171 171
171 172 166 166 166 165 165 145 145 134 126 126 117 100 100 100 91
91 83 83 83 82 82 82 80 80 73 73 80 80 100 106 107 107
108 109 109 98 98 97 97 97 91 71 69 68 44 28 28 27 26
26 25 24 22 22 22 22 22 22 22 22 22 27 28 29 29 30
23 20 20 20 19 19 19 19 18 18 19 19 19 24 24 26 26
27 28 28 29 29 29 24 24 15 16 16 15 14 14 13 12 12
10 9 8 8 7 7 6 6 6 6 6 6 6 6 6 6 6
6 6 5 5 6 6 6 6 6 7 7 7 8 8 9 9 13
14 22 28 48 75 94 202 219 219 222 222 222 222 222 221 221 221
218 218 210 210 165 165 152 152 152 189 189 180 151 139 163 220 168
168 143 143 143 160 199 210 207 134 53 46 48 48 74 93 93 93
98 99 133 148 169 73 73 75 111 97 101 169 221 224 224 225 228
232 232 232 235 235 234 234 234 234 234 234 139 139 139 139 139 139
140 139 139 138 137 136 136 135 135 134 137 137 137 138 138 138 138
255 255 255 255 255 255 255 255 255 255 255 255 255 255 255 255 255
255 255 255 255 255 255 255 255 255 255 255 255 255 255 255 255 255
255 255 255 255 255 255 255 255 255 255 255 255 255 255 255 255 255
255 255 255 255 255 255 255 255 255 255 255 255 255 255 255 255 255
255 255 255 255 255 255 255 255 255 255 255 255 255 255 255 255 255
255 255 255 255 255 255 255 255 255 255 255 255 255 255 255 255 255
255 255 255 255 255 255 255 255 255 255 255 255 255 255 255 255 255
255 255 255 255 255 255 255 255 255 255 255 255 255 255 255 255 255
255 255 255 255 255 255 255 255 255 255 255 255 255 255 255 255 255
255 255 255 255 255 255 255 255 255 255 255 255 255 255 255 255 255
255 255 255 255 255 255 255 255 255 255 255 255 255 255 255 255 255
255 255 255 255 255 255 255 255 255 255 255 255 255 255 255 255 255
255 255 255 255 255 255 255 255 255 255 255 255 197 197 196 196 155
191 202 159 159 168 168 171 170 169 168 168 169 171 171 170 160 157
156 150 149 134 126 126 126 111 105 100 100 100 91 91 83 82 82
82 81 81 80 80 80 79 121 122 122 125 126 126 116 109 109 100
98 98 93 90 90 71 70 68 59 28 28 28 32 32 26 26 22
22 22 23 23 22 22 22 23 28 28 29 29 30 31 30 20 20
19 19 19 19 18 18 18 19 19 19 20 26 26 26 27 28 28
29 29 24 23 15 14 13 13 13 13 12 12 11 10 8 8 7
7 6 6 6 6 6 6 6 6 6 6 6 6 6 5 5 5
5 6 6 6 6 6 7 7 7 8 8 9 9 10 10 28 36
39 69 126 219 219 222 222 222 222 223 224 224 220 219 219 219 219
216 197 185 152 152 179 180 180 145 130 130 142 142 142 143 143 143
177 210 210 210 134 29 29 50 51 74 77 92 93 99 99 100 100
101 74 74 75 75 92 124 169 223 223 210 210 228 228 228 232 232
233 233 233 233 233 234 234 139 139 140 140 140 140 140 140 140 139
139 138 137 136 136 137 137 138 138 138 138 138 139 255 255 255 255
255 255 255 255 255 255 255 255 255 255 255 255 255 255 255 255 255
255 255 255 255 255 255 255 255 255 255 255 255 255 255 255 255 255
255 255 255 255 255 255 255 255 255 255 255 255 255 255 255 255 255
255 255 255 255 255 255 255 255 255 255 255 255 255 255 255 255 255
255 255 255 255 255 255 255 255 255 255 255 255 255 255 255 255 255
255 255 255 255 255 255 255 255 255 255 255 255 255 255 255 255 255
255 255 255 255 255 255 255 255 255 255 255 255 255 255 255 255 255
255 255 255 255 255 255 255 255 255 255 255 255 255 255 255 255 255
255 255 255 255 255 255 255 255 255 255 255 255 255 255 255 255 255
255 255 255 255 255 255 255 255 255 255 255 255 255 255 255 255 255
255 255 255 255 255 255 255 255 255 255 255 255 255 255 255 255 255
255 255 255 255 255 255 255 255 255 255 255 255 255 255 255 255 255
255 255 255 255 255 255 255 255 197 197 181 168 155 186 222 174 145
146 146 156 164 167 167 167 167 167 165 158 158 157 148 142 132 132
125 125 120 111 105 100 97 81 81 81 81 82 82 81 81 81 80
80 122 130 130 130 130 130 130 127 126 126 124 124 98 98 93 87
81 71 70 69 59 59 45 37 37 37 46 46 34 33 25 24 24
26 26 26 26 29 29 37 36 36 36 36 31 25 25 22 20 20
18 18 18 18 19 19 20 21 25 26 27 28 28 28 28 23 23
14 14 13 12 12 12 11 11 10 10 8 7 7 6 6 5 5
5 5 5 5 6 6 6 6 5 5 5 5 5 5 5 6 6
6 6 6 6 7 7 8 8 9 10 11 11 35 35 55 61 155
219 222 223 223 223 223 224 224 220 220 219 219 221 221 213 213 194
157 179 179 179 153 130 100 101 101 115 143 143 161 209 213 213 213
134 29 29 50 61 74 77 92 93 93 93 75 75 75 74 74 75
75 92 124 169 209 209 209 189 189 207 213 226 226 231 232 233 233
233 233 234 163 140 140 140 140 140 141 141 141 140 140 139 137 137
137 137 138 138 138 139 139 139 139 255 255 255 255 255 255 255 255
255 255 255 255 255 255 255 255 255 255 255 255 255 255 255 255 255
255 255 255 255 255 255 255 255 255 255 255 255 255 255 255 255 255
255 255 255 255 255 255 255 255 255 255 255 255 255 255 255 255 255
255 255 255 255 255 255 255 255 255 255 255 255 255 255 255 255 255
255 255 255 255 255 255 255 255 255 255 255 255 255 255 255 255 255
255 255 255 255 255 255 255 255 255 255 255 255 255 255 255 255 255
255 255 255 255 255 255 255 255 255 255 255 255 255 255 255 255 255
255 255 255 255 255 255 255 255 255 255 255 255 255 255 255 255 255
255 255 255 255 255 255 255 255 255 255 255 255 255 255 255 255 255
255 255 255 255 255 255 255 255 255 255 255 255 255 255 255 255 255
255 255 255 255 255 255 255 255 255 255 255 255 255 255 255 255 255
255 255 255 255 255 255 255 255 255 255 255 255 255 255 255 255 255
255 255 255 255 197 197 174 168 165 170 222 210 145 145 145 156 158
165 166 160 159 159 158 158 158 157 146 142 132 132 120 114 111 111
104 92 92 81 81 81 81 81 80 80 80 80 80 101 125 131 131
131 130 130 130 128 126 126 125 125 109 99 93 87 79 71 70 70
59 59 49 49 48 47 47 46 40 33 25 25 28 28 29 29 29
37 37 37 38 38 39 39 35 35 35 21 21 20 20 18 18 18
19 20 21 22 24 25 25 28 28 28 28 22 22 15 13 12 12
11 11 10 10 9 9 8 7 7 6 6 5 5 5 5 5 5
5 5 5 5 5 5 5 5 5 5 5 5 6 6 6 6 6
6 7 7 8 8 9 11 11 12 35 42 60 84 192 223 223 223
223 224 224 224 220 220 220 220 221 221 221 221 210 210 179 179 172
153 130 100 99 99 115 153 161 161 213 213 213 213 206 29 29 61
61 75 76 77 77 78 78 75 69 69 70 71 75 75 82 109 113
171 201 209 189 189 199 213 226 226 229 229 230 232 233 233 195 178
178 178 166 148 145 144 142 142 141 140 140 138 138 137 138 138 138
139 139 139 139 139 255 255 255 255 255 255 255 255 255 255 255 255
255 255 255 255 255 255 255 255 255 255 255 255 255 255 255 255 255
255 255 255 255 255 255 255 255 255 255 255 255 255 255 255 255 255
255 255 255 255 255 255 255 255 255 255 255 255 255 255 255 255 255
255 255 255 255 255 255 255 255 255 255 255 255 255 255 255 255 255
255 255 255 255 255 255 255 255 255 255 255 255 255 255 255 255 255
255 255 255 255 255 255 255 255 255 255 255 255 255 255 255 255 255
255 255 255 255 255 255 255 255 255 255 255 255 255 255 255 255 255
255 255 255 255 255 255 255 255 255 255 255 255 255 255 255 255 255
255 255 255 255 255 255 255 255 255 255 255 255 255 255 255 255 255
255 255 255 255 255 255 255 255 255 255 255 255 255 255 255 255 255
255 255 255 255 255 255 255 255 255 255 255 255 255 255 255 255 255
255 255 255 255 255 255 255 255 255 255 255 255 255 255 255 255 255
197 196 174 168 165 169 222 222 145 145 145 156 158 159 159 159 159
158 158 158 158 157 146 139 126 126 120 111 111 103 103 92 77 77
77 77 77 78 79 80 80 80 119 131 131 131 131 131 130 130 130
130 126 126 126 125 125 120 120 87 79 71 71 70 59 59 50 49
49 48 47 47 40 32 30 30 30 30 31 37 37 37 37 49 49
49 51 54 54 35 35 35 35 35 34 34 36 36 29 23 22 23
24 25 25 28 28 28 28 21 21 15 12 10 10 9 9 9 9
8 8 7 7 6 6 5 5 5 5 5 5 5 5 5 5 5
5 5 5 5 5 5 5 5 5 5 5 5 6 6 6 7 7
8 10 10 11 12 13 38 41 74 129 210 198 223 224 224 224 224
220 220 220 220 221 221 221 221 213 213 200 200 172 153 130 100 100
100 115 149 161 161 173 184 184 213 213 33 33 65 65 71 71 70
70 70 69 69 69 69 53 53 61 61 76 82 89 139 183 209 189
189 199 217 217 222 228 228 228 231 230 230 195 195 187 187 166 156
145 145 142 142 142 141 140 139 138 138 138 138 139 139 139 139 140
140 255 255 255 255 255 255 255 255 255 255 255 255 255 255 255 255
255 255 255 255 255 255 255 255 255 255 255 255 255 255 255 255 255
255 255 255 255 255 255 255 255 255 255 255 255 255 255 255 255 255
255 255 255 255 255 255 255 255 255 255 255 255 255 255 255 255 255
255 255 255 255 255 255 255 255 255 255 255 255 255 255 255 255 255
255 255 255 255 255 255 255 255 255 255 255 255 255 255 255 255 255
255 255 255 255 255 255 255 255 255 255 255 255 255 255 255 255 255
255 255 255 255 255 255 255 255 255 255 255 255 255 255 255 255 255
255 255 255 255 255 255 255 255 255 255 255 255 255 255 255 255 255
255 255 255 255 255 255 255 255 255 255 255 255 255 255 255 255 255
255 255 255 255 255 255 255 255 255 255 255 255 255 255 255 255 255
255 255 255 255 255 255 255 255 255 255 255 255 255 255 255 255 255
255 255 255 255 255 255 255 255 255 255 255 255 255 196 196 184 167
136 136 222 222 187 136 145 156 156 156 156 156 157 157 158 158 155
139 139 130 126 104 104 104 103 103 84 84 76 76 75 75 76 75
79 80 80 130 130 132 132 132 132 132 132 131 131 130 128 127 126
126 126 120 120 94 94 94 72 70 70 60 50 50 49 48 48 48
48 31 31 31 31 31 32 43 44 44 44 49 49 49 51 57 57
57 41 36 36 37 37 37 41 42 34 32 32 28 27 26 26 27
28 28 28 20 20 16 12 9 9 9 9 8 8 8 7 7 6
6 6 5 5 5 5 5 5 5 5 5 5 5 5 5 5 5
5 5 5 5 5 5 5 5 5 5 6 6 7 8 9 10 12
12 12 17 41 51 63 150 160 223 224 224 224 224 220 220 220 220
220 221 221 221 220 220 200 200 191 172 148 100 100 100 112 141 145
145 141 150 150 198 198 38 38 65 65 71 71 70 70 62 49 49
69 69 53 53 60 61 76 82 89 139 150 178 189 189 199 217 217
221 226 227 228 228 229 230 216 216 216 216 166 147 146 145 145 144
143 141 141 140 139 139 139 139 139 139 139 139 140 140 255 255 255
255 255 255 255 255 255 255 255 255 255 255 255 255 255 255 255 255
255 255 255 255 255 255 255 255 255 255 255 255 255 255 255 255 255
255 255 255 255 255 255 255 255 255 255 255 255 255 255 255 255 255
255 255 255 255 255 255 255 255 255 255 255 255 255 255 255 255 255
255 255 255 255 255 255 255 255 255 255 255 255 255 255 255 255 255
255 255 255 255 255 255 255 255 255 255 255 255 255 255 255 255 255
255 255 255 255 255 255 255 255 255 255 255 255 255 255 255 255 255
255 255 255 255 255 255 255 255 255 255 255 255 255 255 255 255 255
255 255 255 255 255 255 255 255 255 255 255 255 255 255 255 255 255
255 255 255 255 255 255 255 255 255 255 255 255 255 255 255 255 255
255 255 255 255 255 255 255 255 255 255 255 255 255 255 255 255 255
255 255 255 255 255 255 255 255 255 255 255 255 255 255 255 255 255
255 255 255 255 255 255 255 255 255 184 184 184 167 136 125 204 213
208 128 141 142 156 156 156 156 156 157 156 138 138 138 123 123 115
104 104 97 85 85 84 81 74 75 75 75 75 75 78 80 115 130
130 132 132 132 132 132 132 132 131 131 130 128 127 126 126 122 122
114 114 98 97 75 72 60 50 50 50 49 48 48 48 43 34 34
34 33 33 43 44 45 44 49 50 50 51 57 57 57 55 38 38
38 38 38 43 42 34 32 32 28 29 29 29 29 29 28 28 20
18 16 11 9 9 8 8 8 8 7 7 7 6 6 6 5 5
5 5 5 5 5 5 5 5 5 5 5 5 5 5 5 5 5
5 5 5 5 5 5 6 6 7 8 9 10 11 11 12 17 20
31 60 99 155 199 214 225 225 224 220 220 220 220 220 220 221 220
220 220 216 216 191 181 157 108 100 100 112 133 145 145 144 150 150
150 172 38 38 50 50 50 50 70 70 62 49 48 58 58 56 54
60 61 76 88 89 147 146 146 189 189 199 217 217 220 226 227 227
228 229 230 230 233 233 233 205 147 146 146 145 144 144 141 141 140
140 141 141 141 140 140 140 139 140 140 255 255 255 255 255 255 255
255 255 255 255 255 255 255 255 255 255 255 255 255 255 255 255 255
255 255 255 255 255 255 255 255 255 255 255 255 255 255 255 255 255
255 255 255 255 255 255 255 255 255 255 255 255 255 255 255 255 255
255 255 255 255 255 255 255 255 255 255 255 255 255 255 255 255 255
255 255 255 255 255 255 255 255 255 255 255 255 255 255 255 255 255
255 255 255 255 255 255 255 255 255 255 255 255 255 255 255 255 255
255 255 255 255 255 255 255 255 255 255 255 255 255 255 255 255 255
255 255 255 255 255 255 255 255 255 255 255 255 255 255 255 255 255
255 255 255 255 255 255 255 255 255 255 255 255 255 255 255 255 255
255 255 255 255 255 255 255 255 255 255 255 255 255 255 255 255 255
255 255 255 255 255 255 255 255 255 255 255 255 255 255 255 255 255
255 255 255 255 255 255 255 255 255 255 255 255 255 255 255 255 255
255 255 255 255 255 184 184 184 167 160 125 151 202 208 110 141 143
147 148 149 150 150 142 142 138 125 123 123 106 106 93 93 85 85
85 84 81 74 74 74 74 75 75 103 124 129 131 131 131 132 132
132 132 132 132 132 131 131 130 127 126 126 124 123 123 123 107 107
96 72 72 72 60 60 52 52 52 47 47 38 38 35 34 34 42
46 46 46 50 50 50 51 57 57 57 54 54 40 40 41 42 44
44 45 37 37 32 32 33 33 33 33 33 39 21 18 15 11 9
8 8 8 7 7 7 7 6 6 6 6 5 5 5 5 5 5
5 5 5 5 5 5 5 5 5 6 6 6 5 5 5 5 5
5 5 6 6 7 8 8 9 10 11 12 12 19 20 30 77 128
173 206 225 225 220 220 220 220 220 220 220 220 220 219 218 217 216
191 181 157 109 103 103 111 133 144 144 144 189 189 150 150 45 37
37 36 36 36 40 45 60 60 38 38 55 55 55 59 61 142 151
151 166 146 144 162 189 199 217 218 219 226 226 227 228 229 230 230
233 233 233 205 192 181 150 146 144 144 141 141 141 141 142 142 142
142 142 139 139 139 139 255 255 255 255 255 255 255 255 255 255 255
255 255 255 255 255 255 255 255 255 255 255 255 255 255 255 255 255
255 255 255 255 255 255 255 255 255 255 255 255 255 255 255 255 255
255 255 255 255 255 255 255 255 255 255 255 255 255 255 255 255 255
255 255 255 255 255 255 255 255 255 255 255 255 255 255 255 255 255
255 255 255 255 255 255 255 255 255 255 255 255 255 255 255 255 255
255 255 255 255 255 255 255 255 255 255 255 255 255 255 255 255 255
255 255 255 255 255 255 255 255 255 255 255 255 255 255 255 255 255
255 255 255 255 255 255 255 255 255 255 255 255 255 255 255 255 255
255 255 255 255 255 255 255 255 255 255 255 255 255 255 255 255 255
255 255 255 255 255 255 255 255 255 255 255 255 255 255 255 255 255
255 255 255 255 255 255 255 255 255 255 255 255 255 255 255 255 255
255 255 255 255 255 255 255 255 255 255 255 255 255 255 255 255 255
255 183 183 183 167 167 125 114 114 144 110 123 143 146 145 146 147
147 141 127 125 125 117 108 106 93 93 93 85 85 74 73 73 73
73 74 74 77 77 115 130 130 131 131 131 132 132 132 132 132 132
132 132 131 131 128 128 127 124 124 124 123 107 107 96 78 73 73
73 60 60 61 61 54 51 45 45 36 35 35 42 46 48 49 50
50 51 51 51 55 55 54 54 53 43 43 43 44 51 51 39 40
40 40 34 34 34 33 33 39 39 19 15 10 8 8 8 7 7
7 7 6 6 6 6 6 5 5 5 5 5 5 5 5 5 5
5 5 5 5 6 6 6 6 6 5 5 5 5 5 5 6 6
7 7 8 9 10 11 12 12 13 13 30 46 79 143 205 205 209
219 219 220 220 220 220 220 220 220 219 219 217 216 205 182 157 153
106 106 111 133 142 151 155 197 197 156 149 45 36 36 36 36 36
40 45 60 60 38 38 55 56 56 58 62 142 182 163 166 146 137
162 189 201 212 212 212 226 226 227 228 230 230 231 233 233 233 233
203 203 162 160 158 158 157 157 147 147 144 143 143 144 143 139 139
139 139 255 255 255 255 255 255 255 255 255 255 255 255 255 255 255
255 255 255 255 255 255 255 255 255 255 255 255 255 255 255 255 255
255 255 255 255 255 255 255 255 255 255 255 255 255 255 255 255 255
255 255 255 255 255 255 255 255 255 255 255 255 255 255 255 255 255
255 255 255 255 255 255 255 255 255 255 255 255 255 255 255 255 255
255 255 255 255 255 255 255 255 255 255 255 255 255 255 255 255 255
255 255 255 255 255 255 255 255 255 255 255 255 255 255 255 255 255
255 255 255 255 255 255 255 255 255 255 255 255 255 255 255 255 255
255 255 255 255 255 255 255 255 255 255 255 255 255 255 255 255 255
255 255 255 255 255 255 255 255 255 255 255 255 255 255 255 255 255
255 255 255 255 255 255 255 255 255 255 255 255 255 255 255 255 255
255 255 255 255 255 255 255 255 255 255 255 255 255 255 255 255 255
255 255 255 255 255 255 255 255 255 255 255 255 255 255 175 175 175
170 167 132 102 111 111 111 123 139 139 144 144 143 136 136 128 113
113 108 106 106 93 93 92 85 74 74 72 72 73 73 73 73 77
128 129 130 130 131 131 132 132 132 132 132 132 132 132 132 132 132
132 128 128 124 125 125 123 107 106 103 78 73 73 73 73 64 64
61 54 51 45 45 36 36 37 42 42 50 50 51 51 51 51 51
51 52 53 53 53 50 49 44 44 51 51 51 51 51 51 34 34
34 34 33 44 44 19 14 9 9 8 8 7 7 7 7 6 6
6 6 6 6 5 5 5 5 5 5 5 5 5 5 5 5 5
6 6 6 6 6 6 5 5 5 5 6 6 6 7 7 8 9
10 10 11 12 12 13 30 46 64 88 205 205 209 219 219 219 220
220 220 220 220 220 219 218 217 213 205 182 164 155 139 125 125 133
140 151 155 197 197 185 147 45 36 36 37 36 36 40 45 45 45
38 38 46 46 46 58 62 100 135 135 136 136 137 156 189 210 212
212 212 225 227 228 229 230 231 232 233 233 233 233 203 203 186 180
179 163 157 157 152 149 148 147 146 145 143 139 139 139 138 255 255
255 255 255 255 255 255 255 255 255 255 255 255 255 255 255 255 255
255 255 255 255 255 255 255 255 255 255 255 255 255 255 255 255 255
255 255 255 255 255 255 255 255 255 255 255 255 255 255 255 255 255
255 255 255 255 255 255 255 255 255 255 255 255 255 255 255 255 255
255 255 255 255 255 255 255 255 255 255 255 255 255 255 255 255 255
255 255 255 255 255 255 255 255 255 255 255 255 255 255 255 255 255
255 255 255 255 255 255 255 255 255 255 255 255 255 255 255 255 255
255 255 255 255 255 255 255 255 255 255 255 255 255 255 255 255 255
255 255 255 255 255 255 255 255 255 255 255 255 255 255 255 255 255
255 255 255 255 255 255 255 255 255 255 255 255 255 255 255 255 255
255 255 255 255 255 255 255 255 255 255 255 255 255 255 255 255 255
255 255 255 255 255 255 255 255 255 255 255 255 255 255 255 255 255
255 255 255 255 255 255 255 255 255 255 174 174 171 170 168 132 102
111 111 134 123 139 139 140 141 142 136 130 113 113 101 101 100 93
93 93 92 85 72 72 72 72 72 72 79 85 128 128 129 130 131
131 132 132 132 132 132 132 132 132 132 132 132 132 132 129 128 127
126 126 123 106 106 103 79 80 80 80 81 81 75 75 75 62 62
52 51 42 42 42 42 51 51 52 51 51 51 51 51 52 52 52
52 51 50 45 45 52 52 52 52 52 51 43 41 47 47 44 44
45 19 14 9 9 8 8 7 7 7 6 6 6 6 6 6 6
6 6 5 5 5 5 5 5 5 5 5 5 5 6 6 6 6
6 6 5 5 5 5 6 6 6 7 7 8 8 9 10 10 11
12 12 25 30 57 76 142 205 205 219 219 220 220 220 221 221 220
219 219 218 217 213 205 196 164 155 155 125 125 126 126 136 155 196
196 174 146 57 38 38 38 38 44 44 44 38 38 38 41 46 46
46 58 62 80 95 128 131 131 137 152 178 210 212 218 218 219 227
228 229 231 232 233 233 233 233 233 192 203 186 180 178 174 173 170
159 153 152 152 149 149 143 139 139 138 138 255 255 255 255 255 255
255 255 255 255 255 255 255 255 255 255 255 255 255 255 255 255 255
255 255 255 255 255 255 255 255 255 255 255 255 255 255 255 255 255
255 255 255 255 255 255 255 255 255 255 255 255 255 255 255 255 255
255 255 255 255 255 255 255 255 255 255 255 255 255 255 255 255 255
255 255 255 255 255 255 255 255 255 255 255 255 255 255 255 255 255
255 255 255 255 255 255 255 255 255 255 255 255 255 255 255 255 255
255 255 255 255 255 255 255 255 255 255 255 255 255 255 255 255 255
255 255 255 255 255 255 255 255 255 255 255 255 255 255 255 255 255
255 255 255 255 255 255 255 255 255 255 255 255 255 255 255 255 255
255 255 255 255 255 255 255 255 255 255 255 255 255 255 255 255 255
255 255 255 255 255 255 255 255 255 255 255 255 255 255 255 255 255
255 255 255 255 255 255 255 255 255 255 255 255 255 255 255 255 255
255 255 255 255 255 255 173 173 171 170 168 162 102 143 146 141 123
128 139 139 137 136 136 115 113 113 101 94 93 93 93 93 76 76
72 71 71 72 72 72 111 131 135 135 135 134 134 133 133 133 133
132 132 132 132 132 132 132 132 132 132 129 128 128 127 126 124 106
106 105 104 101 101 91 89 88 75 75 75 74 74 55 55 47 42
42 42 52 52 53 54 51 52 52 52 52 52 52 52 52 52 53
53 52 55 55 54 53 50 47 47 47 47 47 46 46 30 14 9
9 8 8 7 7 7 7 6 6 6 6 6 6 6 6 6 6
5 5 5 5 5 5 5 5 5 5 6 6 6 6 6 5 5
5 6 6 6 6 7 7 7 8 8 9 10 11 11 12 12 22
40 76 108 193 205 205 219 220 220 221 221 221 220 219 219 218 213
213 205 197 174 159 159 133 127 126 126 136 136 181 196 168 146 102
48 47 46 45 45 45 45 32 32 37 46 46 46 46 51 53 80
84 128 131 131 136 152 168 198 212 218 218 219 219 224 224 232 233
233 233 233 233 188 174 181 181 180 177 175 171 171 159 159 159 159
152 148 143 139 139 138 138 255 255 255 255 255 255 255 255 255 255
255 255 255 255 255 255 255 255 255 255 255 255 255 255 255 255 255
255 255 255 255 255 255 255 255 255 255 255 255 255 255 255 255 255
255 255 255 255 255 255 255 255 255 255 255 255 255 255 255 255 255
255 255 255 255 255 255 255 255 255 255 255 255 255 255 255 255 255
255 255 255 255 255 255 255 255 255 255 255 255 255 255 255 255 255
255 255 255 255 255 255 255 255 255 255 255 255 255 255 255 255 255
255 255 255 255 255 255 255 255 255 255 255 255 255 255 255 255 255
255 255 255 255 255 255 255 255 255 255 255 255 255 255 255 255 255
255 255 255 255 255 255 255 255 255 255 255 255 255 255 255 255 255
255 255 255 255 255 255 255 255 255 255 255 255 255 255 255 255 255
255 255 255 255 255 255 255 255 255 255 255 255 255 255 255 255 255
255 255 255 255 255 255 255 255 255 255 255 255 255 255 255 255 255
255 255 173 172 171 170 169 162 137 143 134 100 100 107 139 139 137
116 116 115 113 113 97 94 93 90 85 69 69 69 69 70 70 73
73 83 132 134 135 135 135 135 134 134 134 133 133 133 133 133 132
132 132 132 132 132 131 130 129 128 127 126 125 123 122 104 104 104
105 105 95 88 87 87 74 74 74 55 55 49 49 48 47 55 55
54 54 54 52 52 52 52 52 52 52 52 52 53 53 55 56 56
56 53 49 47 47 47 47 47 47 47 30 14 9 9 8 8 8
7 7 7 6 6 6 6 6 6 6 6 6 6 6 5 5 5
5 5 5 5 5 5 5 6 6 6 5 5 5 5 5 6 6
6 6 7 7 7 8 8 9 10 11 11 11 11 40 42 90 90
196 196 219 220 220 221 221 221 221 219 219 218 213 203 202 197 194
160 160 140 135 126 126 126 136 178 178 151 146 102 48 47 47 47
46 46 45 32 32 37 46 46 46 41 41 53 55 84 119 131 131
144 152 160 182 188 217 217 217 212 212 213 233 233 234 234 221 200
174 174 174 175 176 176 175 171 171 164 162 162 159 152 148 144 139
139 138 138 255 255 255 255 255 255 255 255 255 255 255 255 255 255
255 255 255 255 255 255 255 255 255 255 255 255 255 255 255 255 255
255 255 255 255 255 255 255 255 255 255 255 255 255 255 255 255 255
255 255 255 255 255 255 255 255 255 255 255 255 255 255 255 255 255
255 255 255 255 255 255 255 255 255 255 255 255 255 255 255 255 255
255 255 255 255 255 255 255 255 255 255 255 255 255 255 255 255 255
255 255 255 255 255 255 255 255 255 255 255 255 255 255 255 255 255
255 255 255 255 255 255 255 255 255 255 255 255 255 255 255 255 255
255 255 255 255 255 255 255 255 255 255 255 255 255 255 255 255 255
255 255 255 255 255 255 255 255 255 255 255 255 255 255 255 255 255
255 255 255 255 255 255 255 255 255 255 255 255 255 255 255 255 255
255 255 255 255 255 255 255 255 255 255 255 255 255 255 255 255 255
255 255 255 255 255 255 255 255 255 255 255 255 255 255 255 173 171
171 170 162 162 137 105 96 96 96 101 110 123 123 116 116 115 114
113 97 94 90 90 69 69 69 69 69 70 70 78 112 132 132 134
135 135 135 135 135 135 134 134 134 133 133 133 133 132 132 132 132
132 131 131 128 127 127 126 124 123 123 117 117 116 116 116 99 98
88 89 89 78 78 57 55 49 49 55 55 55 55 55 55 54 53
52 52 52 52 52 52 52 53 53 53 55 56 56 57 57 49 47
46 46 46 47 47 47 30 14 9 9 9 8 8 7 7 7 6
6 6 6 6 6 6 6 6 6 6 6 5 5 5 5 5 5
5 5 5 5 5 5 5 5 5 5 5 5 6 6 6 6 7
7 7 8 8 9 10 11 11 11 24 28 45 61 153 196 196 220
221 221 221 221 221 220 219 219 210 203 202 201 194 176 176 158 151
126 126 125 124 137 138 138 138 102 48 48 47 47 62 61 45 33
32 54 60 60 46 36 37 37 45 80 81 121 126 144 152 160 182
188 200 217 217 212 212 213 234 234 234 234 221 172 163 162 162 162
162 162 163 163 163 163 162 162 159 159 147 144 139 138 138 138 255
255 255 255 255 255 255 255 255 255 255 255 255 255 255 255 255 255
255 255 255 255 255 255 255 255 255 255 255 255 255 255 255 255 255
255 255 255 255 255 255 255 255 255 255 255 255 255 255 255 255 255
255 255 255 255 255 255 255 255 255 255 255 255 255 255 255 255 255
255 255 255 255 255 255 255 255 255 255 255 255 255 255 255 255 255
255 255 255 255 255 255 255 255 255 255 255 255 255 255 255 255 255
255 255 255 255 255 255 255 255 255 255 255 255 255 255 255 255 255
255 255 255 255 255 255 255 255 255 255 255 255 255 255 255 255 255
255 255 255 255 255 255 255 255 255 255 255 255 255 255 255 255 255
255 255 255 255 255 255 255 255 255 255 255 255 255 255 255 255 255
255 255 255 255 255 255 255 255 255 255 255 255 255 255 255 255 255
255 255 255 255 255 255 255 255 255 255 255 255 255 255 255 255 255
255 255 255 255 255 255 255 255 255 255 255 173 170 170 170 161 161
137 97 96 96 96 101 106 115 115 115 115 115 114 113 97 93 86
83 69 69 69 68 69 87 87 119 126 132 132 134 135 135 135 135
135 135 135 135 134 134 133 133 133 132 132 132 132 132 131 131 128
127 127 125 125 124 124 124 124 124 124 124 99 98 93 92 91 87
78 57 56 56 55 55 55 55 56 56 56 56 56 52 52 52 52
52 52 52 53 53 54 55 57 57 57 57 49 46 46 46 45 47
47 47 34 14 10 10 9 9 8 7 7 7 7 6 6 6 7
7 7 7 7 6 6 6 5 5 5 5 5 5 5 5 5 5
5 5 5 5 5 5 5 5 5 6 6 6 6 6 7 7 7
8 8 8 9 10 24 28 45 61 116 196 196 207 221 222 222 222
221 220 219 219 204 204 203 200 198 198 176 168 151 151 144 130 124
124 124 127 127 93 48 46 46 48 62 62 48 33 33 55 62 62
47 36 36 36 43 52 76 92 114 144 154 169 188 188 200 200 222
222 222 228 234 234 234 234 221 189 163 162 162 159 158 157 157 161
163 162 162 161 160 159 156 155 140 138 138 138 255 255 255 255 255
255 255 255 255 255 255 255 255 255 255 255 255 255 255 255 255 255
255 255 255 255 255 255 255 255 255 255 255 255 255 255 255 255 255
255 255 255 255 255 255 255 255 255 255 255 255 255 255 255 255 255
255 255 255 255 255 255 255 255 255 255 255 255 255 255 255 255 255
255 255 255 255 255 255 255 255 255 255 255 255 255 255 255 255 255
255 255 255 255 255 255 255 255 255 255 255 255 255 255 255 255 255
255 255 255 255 255 255 255 255 255 255 255 255 255 255 255 255 255
255 255 255 255 255 255 255 255 255 255 255 255 255 255 255 255 255
255 255 255 255 255 255 255 255 255 255 255 255 255 255 255 255 255
255 255 255 255 255 255 255 255 255 255 255 255 255 255 255 255 255
255 255 255 255 255 255 255 255 255 255 255 255 255 255 255 255 255
255 255 255 255 255 255 255 255 255 255 255 255 255 255 255 255 255
255 255 255 255 255 255 255 169 169 169 169 143 136 136 109 97 103
103 108 106 108 107 107 107 107 100 100 93 93 73 73 69 69 68
68 68 106 119 123 132 132 133 134 134 135 135 135 135 135 135 135
134 134 134 133 133 132 132 132 132 132 131 131 127 127 127 126 125
124 124 124 124 124 124 124 122 97 93 92 91 87 78 57 57 57
57 57 57 58 58 58 58 59 59 52 52 52 53 53 53 53 53
53 53 56 57 57 57 56 49 44 43 42 41 47 47 35 34 14
11 10 10 9 9 8 7 7 7 7 7 7 7 7 7 7 7
7 6 6 6 5 5 5 5 5 5 5 5 5 5 5 5 5
5 5 5 5 5 5 5 6 6 6 6 6 7 7 8 8 9
9 24 28 28 45 68 143 180 180 221 222 222 222 222 221 222 206
205 204 203 199 198 197 196 173 156 156 173 166 124 118 117 116 116
92 45 45 45 60 62 62 62 40 40 55 63 62 47 36 36 36
36 52 71 75 114 144 154 171 198 198 200 219 222 233 235 235 234
234 234 234 234 216 211 162 163 158 158 157 157 157 162 162 162 161
160 159 157 155 140 138 138 138 255 255 255 255 255 255 255 255 255
255 255 255 255 255 255 255 255 255 255 255 255 255 255 255 255 255
255 255 255 255 255 255 255 255 255 255 255 255 255 255 255 255 255
255 255 255 255 255 255 255 255 255 255 255 255 255 255 255 255 255
255 255 255 255 255 255 255 255 255 255 255 255 255 255 255 255 255
255 255 255 255 255 255 255 255 255 255 255 255 255 255 255 255 255
255 255 255 255 255 255 255 255 255 255 255 255 255 255 255 255 255
255 255 255 255 255 255 255 255 255 255 255 255 255 255 255 255 255
255 255 255 255 255 255 255 255 255 255 255 255 255 255 255 255 255
255 255 255 255 255 255 255 255 255 255 255 255 255 255 255 255 255
255 255 255 255 255 255 255 255 255 255 255 255 255 255 255 255 255
255 255 255 255 255 255 255 255 255 255 255 255 255 255 255 255 255
255 255 255 255 255 255 255 255 255 255 255 255 255 255 255 255 255
255 255 255 169 169 169 155 143 136 134 131 101 118 119 108 98 98
104 103 102 102 101 100 87 87 73 69 69 69 68 77 89 128 128
130 132 132 133 134 134 135 135 135 135 135 135 135 135 134 134 133
133 132 132 132 132 131 131 131 127 127 127 126 125 125 125 124 124
124 124 124 124 97 93 93 89 87 72 57 57 58 58 58 58 58
58 59 59 59 59 60 55 55 55 55 53 53 53 53 53 53 53
57 57 56 42 39 39 41 40 39 37 36 34 14 11 11 10 10
9 8 8 7 7 7 7 7 7 7 7 7 7 7 6 6 6
6 5 5 5 5 5 5 5 5 5 5 5 5 5 5 5 5
5 5 5 5 5 5 6 6 6 7 7 7 8 9 9 9 15
31 59 59 164 180 203 222 222 222 222 222 222 206 205 205 206 200
197 197 196 183 173 173 187 187 152 119 116 116 115 81 45 45 45
60 66 72 72 59 59 62 63 62 47 36 36 36 36 52 63 90
115 118 154 196 212 212 221 221 222 233 235 235 235 234 234 234 233
233 218 174 164 158 158 158 157 157 162 162 162 162 153 153 154 154
140 138 138 138 255 255 255 255 255 255 255 255 255 255 255 255 255
255 255 255 255 255 255 255 255 255 255 255 255 255 255 255 255 255
255 255 255 255 255 255 255 255 255 255 255 255 255 255 255 255 255
255 255 255 255 255 255 255 255 255 255 255 255 255 255 255 255 255
255 255 255 255 255 255 255 255 255 255 255 255 255 255 255 255 255
255 255 255 255 255 255 255 255 255 255 255 255 255 255 255 255 255
255 255 255 255 255 255 255 255 255 255 255 255 255 255 255 255 255
255 255 255 255 255 255 255 255 255 255 255 255 255 255 255 255 255
255 255 255 255 255 255 255 255 255 255 255 255 255 255 255 255 255
255 255 255 255 255 255 255 255 255 255 255 255 255 255 255 255 255
255 255 255 255 255 255 255 255 255 255 255 255 255 255 255 255 255
255 255 255 255 255 255 255 255 255 255 255 255 255 255 255 255 255
255 255 255 255 255 255 255 255 255 255 255 255 255 255 255 255 150
150 148 146 143 135 135 131 106 118 117 99 99 85 88 94 94 94
87 87 87 87 74 69 69 69 69 119 119 128 128 131 131 132 133
133 134 134 135 135 135 135 135 135 135 134 134 133 133 132 132 132
131 129 129 128 128 127 127 126 126 126 125 125 125 125 124 124 124
121 116 93 88 87 79 70 57 58 58 58 69 75 75 76 66 60
60 60 59 58 57 56 56 54 54 53 53 53 54 54 54 55 42
35 28 28 29 29 29 30 25 14 13 11 11 10 10 9 8 8
8 7 7 7 7 7 7 7 7 7 7 6 6 6 6 5 5
5 5 5 5 5 5 5 5 5 5 5 5 5 5 5 5 5
5 5 5 5 6 6 6 7 7 8 9 9 15 15 30 56 120
182 200 200 221 221 222 222 222 206 206 206 206 207 197 197 187 184
184 184 187 187 171 171 126 115 115 63 45 45 45 60 66 72 72
72 72 74 74 74 71 36 36 36 36 52 75 90 119 118 143 196
218 218 221 233 233 234 234 235 235 234 234 234 233 233 218 174 165
166 166 158 158 161 162 164 164 163 153 153 151 151 139 139 139 139
255 255 255 255 255 255 255 255 255 255 255 255 255 255 255 255 255
255 255 255 255 255 255 255 255 255 255 255 255 255 255 255 255 255
255 255 255 255 255 255 255 255 255 255 255 255 255 255 255 255 255
255 255 255 255 255 255 255 255 255 255 255 255 255 255 255 255 255
255 255 255 255 255 255 255 255 255 255 255 255 255 255 255 255 255
255 255 255 255 255 255 255 255 255 255 255 255 255 255 255 255 255
255 255 255 255 255 255 255 255 255 255 255 255 255 255 255 255 255
255 255 255 255 255 255 255 255 255 255 255 255 255 255 255 255 255
255 255 255 255 255 255 255 255 255 255 255 255 255 255 255 255 255
255 255 255 255 255 255 255 255 255 255 255 255 255 255 255 255 255
255 255 255 255 255 255 255 255 255 255 255 255 255 255 255 255 255
255 255 255 255 255 255 255 255 255 255 255 255 255 255 255 255 255
255 255 255 255 255 255 255 255 255 255 255 255 149 148 148 146 138
135 135 130 106 106 117 103 103 63 67 88 94 94 87 87 77 77
76 69 75 90 109 129 129 129 129 131 131 132 133 133 134 134 135
135 135 135 135 135 135 134 134 133 133 132 132 131 131 130 129 128
128 127 127 126 126 126 126 126 125 125 125 124 124 124 116 93 88
87 79 77 60 60 60 69 70 76 76 76 66 62 62 62 61 58
57 57 57 57 54 53 53 53 54 54 54 54 42 25 21 22 22
22 23 23 24 14 13 12 12 11 10 9 9 8 8 8 8 8
8 7 7 7 7 7 7 6 6 6 6 6 5 5 5 5 5
5 5 5 5 5 5 5 4 4 4 4 4 5 5 5 5 5
5 5 6 6 7 8 8 9 11 15 30 56 84 127 200 196 207
221 222 222 221 221 218 217 217 207 208 197 187 184 184 184 188 189
189 197 147 135 112 43 43 44 45 59 66 72 73 87 87 103 92
92 85 37 37 37 57 66 75 103 129 129 137 164 218 228 228 233
233 234 234 235 235 234 234 234 233 233 218 166 166 166 166 158 158
160 164 164 164 163 152 152 151 151 139 139 139 139 255 255 255 255
255 255 255 255 255 255 255 255 255 255 255 255 255 255 255 255 255
255 255 255 255 255 255 255 255 255 255 255 255 255 255 255 255 255
255 255 255 255 255 255 255 255 255 255 255 255 255 255 255 255 255
255 255 255 255 255 255 255 255 255 255 255 255 255 255 255 255 255
255 255 255 255 255 255 255 255 255 255 255 255 255 255 255 255 255
255 255 255 255 255 255 255 255 255 255 255 255 255 255 255 255 255
255 255 255 255 255 255 255 255 255 255 255 255 255 255 255 255 255
255 255 255 255 255 255 255 255 255 255 255 255 255 255 255 255 255
255 255 255 255 255 255 255 255 255 255 255 255 255 255 255 255 255
255 255 255 255 255 255 255 255 255 255 255 255 255 255 255 255 255
255 255 255 255 255 255 255 255 255 255 255 255 255 255 255 255 255
255 255 255 255 255 255 255 255 255 255 255 255 255 255 255 255 255
255 255 255 255 255 255 255 255 149 146 146 146 137 135 135 130 107
106 116 104 103 62 67 87 87 87 87 87 77 77 76 76 96 110
130 130 130 131 131 131 132 132 133 133 134 134 134 135 135 135 135
135 134 134 134 133 133 132 132 131 130 130 129 128 128 127 127 127
127 127 126 126 126 126 125 125 124 124 115 93 91 90 90 77 72
72 72 71 70 76 76 76 76 76 76 75 69 59 58 58 57 57
55 52 52 52 54 54 54 54 42 25 21 20 20 20 21 21 20
18 13 13 12 12 11 10 9 9 9 8 8 8 8 8 8 7
7 7 7 7 6 6 6 6 6 6 6 6 6 5 5 5 5
5 5 5 4 4 4 4 4 4 4 5 5 5 5 5 6 6
7 7 8 8 8 13 25 25 50 67 185 196 195 220 220 220 220
220 218 217 217 213 209 203 188 189 189 204 211 217 218 218 192 153
85 43 43 44 59 59 66 79 79 100 100 128 127 159 159 53 53
53 57 71 104 104 129 131 137 158 211 228 228 233 233 234 234 234
235 234 234 234 233 233 199 158 158 158 158 158 159 159 164 164 164
163 152 152 142 143 139 139 139 139 255 255 255 255 255 255 255 255
255 255 255 255 255 255 255 255 255 255 255 255 255 255 255 255 255
255 255 255 255 255 255 255 255 255 255 255 255 255 255 255 255 255
255 255 255 255 255 255 255 255 255 255 255 255 255 255 255 255 255
255 255 255 255 255 255 255 255 255 255 255 255 255 255 255 255 255
255 255 255 255 255 255 255 255 255 255 255 255 255 255 255 255 255
255 255 255 255 255 255 255 255 255 255 255 255 255 255 255 255 255
255 255 255 255 255 255 255 255 255 255 255 255 255 255 255 255 255
255 255 255 255 255 255 255 255 255 255 255 255 255 255 255 255 255
255 255 255 255 255 255 255 255 255 255 255 255 255 255 255 255 255
255 255 255 255 255 255 255 255 255 255 255 255 255 255 255 255 255
255 255 255 255 255 255 255 255 255 255 255 255 255 255 255 255 255
255 255 255 255 255 255 255 255 255 255 255 255 255 255 255 255 255
255 255 255 255 149 146 146 137 136 135 135 130 107 106 106 104 103
62 62 81 86 84 83 81 77 77 77 103 128 129 130 130 130 131
131 132 132 132 133 133 133 134 134 134 134 134 134 134 134 134 134
133 133 132 131 131 130 130 129 128 127 127 127 127 127 127 127 127
127 126 126 125 125 122 115 93 92 92 89 76 75 74 74 74 74
84 84 78 78 78 78 79 69 59 59 59 58 58 58 53 52 53
54 54 53 53 36 25 20 20 20 20 20 20 20 18 18 14 13
12 11 11 10 10 9 9 8 8 8 8 8 8 8 7 7 7
7 6 6 6 6 6 6 6 6 5 5 5 5 5 5 5 4
4 4 4 4 4 4 4 5 5 5 5 5 6 6 7 7 8
8 9 25 25 37 67 123 196 195 195 215 219 220 220 219 219 218
213 209 203 191 190 204 204 212 217 219 219 219 213 144 42 42 54
58 65 66 79 79 141 147 142 149 192 218 53 53 76 81 81 104
104 127 132 137 139 139 197 228 233 233 234 234 234 234 234 234 233
224 224 199 143 143 143 143 143 144 145 146 147 148 148 142 142 141
141 139 136 134 134 255 255 255 255 255 255 255 255 255 255 255 255
255 255 255 255 255 255 255 255 255 255 255 255 255 255 255 255 255
255 255 255 255 255 255 255 255 255 255 255 255 255 255 255 255 255
255 255 255 255 255 255 255 255 255 255 255 255 255 255 255 255 255
255 255 255 255 255 255 255 255 255 255 255 255 255 255 255 255 255
255 255 255 255 255 255 255 255 255 255 255 255 255 255 255 255 255
255 255 255 255 255 255 255 255 255 255 255 255 255 255 255 255 255
255 255 255 255 255 255 255 255 255 255 255 255 255 255 255 255 255
255 255 255 255 255 255 255 255 255 255 255 255 255 255 255 255 255
255 255 255 255 255 255 255 255 255 255 255 255 255 255 255 255 255
255 255 255 255 255 255 255 255 255 255 255 255 255 255 255 255 255
255 255 255 255 255 255 255 255 255 255 255 255 255 255 255 255 255
255 255 255 255 255 255 255 255 255 255 255 255 255 255 255 255 255
149 141 141 136 136 135 134 130 110 106 105 104 104 62 62 61 71
82 82 81 81 81 97 130 130 130 130 130 131 131 132 132 132 132
133 133 133 133 134 134 134 134 134 134 134 134 133 133 132 132 131
131 130 129 129 127 127 127 127 127 127 127 128 128 127 128 127 125
125 122 115 87 87 87 76 76 75 74 74 74 74 84 84 85 86
87 87 88 69 60 59 59 59 59 58 58 57 56 55 55 52 48
36 24 20 19 19 19 18 18 19 18 18 15 15 12 12 11 11
10 10 9 9 9 8 8 8 8 8 8 7 7 7 7 6 6
6 6 6 6 6 5 5 5 5 5 5 5 5 4 4 4 4
4 4 4 4 5 5 5 5 5 6 6 7 7 8 9 15 17
26 50 63 123 182 182 182 219 219 219 219 220 219 213 214 209 209
200 209 209 212 217 220 220 220 221 187 137 46 54 58 65 66 79
79 141 196 132 188 218 218 197 132 132 112 100 105 105 107 132 136
136 135 155 222 233 233 234 234 234 233 233 233 233 221 221 214 143
143 142 142 142 141 141 141 141 141 141 141 141 141 140 139 136 134
134 255 255 255 255 255 255 255 255 255 255 255 255 255 255 255 255
255 255 255 255 255 255 255 255 255 255 255 255 255 255 255 255 255
255 255 255 255 255 255 255 255 255 255 255 255 255 255 255 255 255
255 255 255 255 255 255 255 255 255 255 255 255 255 255 255 255 255
255 255 255 255 255 255 255 255 255 255 255 255 255 255 255 255 255
255 255 255 255 255 255 255 255 255 255 255 255 255 255 255 255 255
255 255 255 255 255 255 255 255 255 255 255 255 255 255 255 255 255
255 255 255 255 255 255 255 255 255 255 255 255 255 255 255 255 255
255 255 255 255 255 255 255 255 255 255 255 255 255 255 255 255 255
255 255 255 255 255 255 255 255 255 255 255 255 255 255 255 255 255
255 255 255 255 255 255 255 255 255 255 255 255 255 255 255 255 255
255 255 255 255 255 255 255 255 255 255 255 255 255 255 255 255 255
255 255 255 255 255 255 255 255 255 255 255 255 255 148 141 141 135
128 128 117 117 111 104 104 104 104 54 54 61 71 72 72 81 81
116 130 130 130 130 131 131 131 132 132 132 133 133 133 133 133 133
133 133 133 134 134 134 133 133 133 133 132 132 131 130 130 129 129
126 126 126 126 127 127 128 128 128 129 129 129 109 101 101 101 73
68 68 64 64 64 73 73 73 89 107 107 107 105 105 90 90 82
82 60 60 59 59 59 59 58 57 55 55 51 48 36 24 20 19
18 18 18 18 18 18 18 18 14 13 12 12 11 11 10 10 9
9 9 8 8 8 8 8 8 7 7 7 7 6 6 6 6 6
6 5 5 5 5 5 5 5 5 5 5 4 4 4 4 4 5
5 5 5 5 5 6 6 6 7 7 8 15 17 26 26 62 89
177 182 182 218 218 218 220 220 220 214 214 209 209 220 211 212 212
217 221 221 221 221 218 217 139 136 70 70 71 71 79 109 148 132
226 234 234 219 171 171 170 106 106 106 107 108 136 135 135 135 190
233 233 234 234 233 233 233 233 223 216 215 215 162 142 142 142 141
141 141 141 141 141 141 141 140 140 140 138 137 134 134 255 255 255
255 255 255 255 255 255 255 255 255 255 255 255 255 255 255 255 255
255 255 255 255 255 255 255 255 255 255 255 255 255 255 255 255 255
255 255 255 255 255 255 255 255 255 255 255 255 255 255 255 255 255
255 255 255 255 255 255 255 255 255 255 255 255 255 255 255 255 255
255 255 255 255 255 255 255 255 255 255 255 255 255 255 255 255 255
255 255 255 255 255 255 255 255 255 255 255 255 255 255 255 255 255
255 255 255 255 255 255 255 255 255 255 255 255 255 255 255 255 255
255 255 255 255 255 255 255 255 255 255 255 255 255 255 255 255 255
255 255 255 255 255 255 255 255 255 255 255 255 255 255 255 255 255
255 255 255 255 255 255 255 255 255 255 255 255 255 255 255 255 255
255 255 255 255 255 255 255 255 255 255 255 255 255 255 255 255 255
255 255 255 255 255 255 255 255 255 255 255 255 255 255 255 255 255
255 255 255 255 255 255 255 255 255 147 140 135 135 128 128 117 112
111 103 103 104 104 54 54 58 71 70 72 83 88 116 130 130 130
131 131 131 132 132 133 133 133 133 133 133 133 133 133 133 133 133
133 133 133 133 133 132 132 131 131 130 129 129 129 126 126 126 126
126 126 128 128 129 129 129 129 104 87 86 86 73 68 68 54 54
64 72 73 73 92 116 116 111 111 111 111 91 91 84 65 60 60
60 60 59 59 59 59 55 50 36 36 32 20 18 18 18 17 17
17 18 18 18 17 17 17 12 12 11 10 10 10 9 9 9 8
8 8 8 8 8 7 7 7 7 6 6 6 6 6 5 5 5
5 5 5 5 5 5 5 5 5 5 5 5 5 5 5 5 5
5 5 6 6 7 7 8 15 15 15 19 42 58 129 182 182 218
218 217 221 221 222 222 215 215 215 220 215 212 213 217 222 222 222
222 223 223 208 172 136 99 81 72 73 82 121 193 226 234 234 232
207 205 177 126 126 113 108 108 131 135 135 135 136 214 228 233 233
233 232 231 231 222 216 215 215 193 154 141 141 141 140 140 140 140
140 140 140 140 139 139 138 137 134 134 255 255 255 255 255 255 255
255 255 255 255 255 255 255 255 255 255 255 255 255 255 255 255 255
255 255 255 255 255 255 255 255 255 255 255 255 255 255 255 255 255
255 255 255 255 255 255 255 255 255 255 255 255 255 255 255 255 255
255 255 255 255 255 255 255 255 255 255 255 255 255 255 255 255 255
255 255 255 255 255 255 255 255 255 255 255 255 255 255 255 255 255
255 255 255 255 255 255 255 255 255 255 255 255 255 255 255 255 255
255 255 255 255 255 255 255 255 255 255 255 255 255 255 255 255 255
255 255 255 255 255 255 255 255 255 255 255 255 255 255 255 255 255
255 255 255 255 255 255 255 255 255 255 255 255 255 255 255 255 255
255 255 255 255 255 255 255 255 255 255 255 255 255 255 255 255 255
255 255 255 255 255 255 255 255 255 255 255 255 255 255 255 255 255
255 255 255 255 255 255 255 255 255 255 255 255 255 255 255 255 255
255 255 255 255 255 147 140 133 134 123 123 106 106 104 103 103 114
101 55 55 58 68 70 72 111 111 123 130 130 131 131 132 132 132
133 133 133 133 133 133 133 133 133 133 133 133 133 133 133 133 133
132 132 131 131 130 130 129 128 128 125 125 124 123 122 121 119 118
118 118 96 92 73 73 73 73 73 67 68 54 54 53 62 65 73
108 116 126 127 127 128 111 106 106 106 86 61 61 61 61 60 60
60 60 60 50 36 36 36 21 17 17 17 17 17 17 18 18 18
17 17 16 13 12 11 11 10 10 9 9 9 9 8 8 8 8
8 7 7 7 7 6 6 6 6 6 5 5 5 5 5 5 5
5 5 5 5 5 5 5 5 5 5 5 5 5 5 5 6 6
6 7 7 7 15 15 15 24 58 74 174 182 217 217 217 221 222
222 223 215 215 225 224 224 224 224 223 223 223 223 223 223 224 225
207 175 146 127 79 73 83 121 193 234 234 234 234 231 211 211 165
165 117 117 118 121 134 135 135 136 158 228 228 232 232 222 221 221
221 221 215 215 193 154 141 140 140 140 139 139 139 140 140 139 139
139 138 137 137 134 134 255 255 255 255 255 255 255 255 255 255 255
255 255 255 255 255 255 255 255 255 255 255 255 255 255 255 255 255
255 255 255 255 255 255 255 255 255 255 255 255 255 255 255 255 255
255 255 255 255 255 255 255 255 255 255 255 255 255 255 255 255 255
255 255 255 255 255 255 255 255 255 255 255 255 255 255 255 255 255
255 255 255 255 255 255 255 255 255 255 255 255 255 255 255 255 255
255 255 255 255 255 255 255 255 255 255 255 255 255 255 255 255 255
255 255 255 255 255 255 255 255 255 255 255 255 255 255 255 255 255
255 255 255 255 255 255 255 255 255 255 255 255 255 255 255 255 255
255 255 255 255 255 255 255 255 255 255 255 255 255 255 255 255 255
255 255 255 255 255 255 255 255 255 255 255 255 255 255 255 255 255
255 255 255 255 255 255 255 255 255 255 255 255 255 255 255 255 255
255 255 255 255 255 255 255 255 255 255 255 255 255 255 255 255 255
255 130 131 132 133 123 108 106 106 104 89 71 71 71 55 55 56
68 70 103 130 130 131 131 131 131 132 132 133 133 133 134 134 134
134 134 134 134 134 133 133 133 133 133 133 133 132 132 131 131 130
130 129 128 128 128 125 125 119 115 107 107 108 108 108 81 72 72
73 73 73 73 73 67 58 48 53 53 56 65 79 108 123 132 132
128 128 129 128 127 126 104 84 62 62 62 62 67 67 67 67 53
36 36 36 21 17 17 16 16 16 16 18 18 18 17 17 15 14
12 12 11 10 10 9 9 9 9 8 8 8 8 8 7 7 7
7 7 6 6 6 6 5 5 5 5 5 5 5 5 5 5 5
5 5 5 5 5 5 5 5 5 5 5 5 6 6 6 7 7
12 11 11 11 31 63 106 182 205 205 205 222 223 223 223 224 224
225 225 225 225 224 224 223 223 223 223 224 224 225 225 224 168 127
84 83 83 160 198 234 234 234 234 231 227 227 187 208 197 147 118
119 123 133 136 136 151 199 228 230 230 222 221 221 221 220 218 216
193 179 141 140 139 139 139 138 138 138 138 139 139 138 138 137 137
135 134 255 255 255 255 255 255 255 255 255 255 255 255 255 255 255
255 255 255 255 255 255 255 255 255 255 255 255 255 255 255 255 255
255 255 255 255 255 255 255 255 255 255 255 255 255 255 255 255 255
255 255 255 255 255 255 255 255 255 255 255 255 255 255 255 255 255
255 255 255 255 255 255 255 255 255 255 255 255 255 255 255 255 255
255 255 255 255 255 255 255 255 255 255 255 255 255 255 255 255 255
255 255 255 255 255 255 255 255 255 255 255 255 255 255 255 255 255
255 255 255 255 255 255 255 255 255 255 255 255 255 255 255 255 255
255 255 255 255 255 255 255 255 255 255 255 255 255 255 255 255 255
255 255 255 255 255 255 255 255 255 255 255 255 255 255 255 255 255
255 255 255 255 255 255 255 255 255 255 255 255 255 255 255 255 255
255 255 255 255 255 255 255 255 255 255 255 255 255 255 255 255 255
255 255 255 255 255 255 255 255 255 255 255 255 255 255 130 130 129
125 120 108 106 105 91 89 71 71 71 55 55 56 68 116 116 131
131 131 131 132 132 132 133 134 134 134 134 134 134 134 134 134 134
134 134 133 133 133 133 133 132 132 132 131 130 130 129 129 128 127
126 125 124 119 115 86 86 86 80 75 72 72 72 72 72 72 65
65 66 48 48 52 52 50 65 81 108 128 136 136 129 129 129 132
135 135 108 105 62 62 63 63 68 68 68 68 68 59 36 36 21
17 16 16 16 16 16 17 17 17 17 17 16 15 12 11 11 10
10 9 9 9 9 8 8 8 8 7 7 7 7 7 7 6 6
6 6 5 5 5 5 5 5 5 5 5 5 5 5 5 5 5
5 5 5 5 5 5 5 5 5 6 6 7 7 8 10 10 11
11 19 79 106 196 196 196 222 224 224 224 224 225 225 225 225 225
225 224 224 224 224 224 224 224 225 226 226 226 174 90 90 101 200
234 234 234 234 234 231 230 230 222 208 208 158 122 122 123 123 136
151 151 173 183 222 222 222 221 221 220 219 218 217 193 191 150 139
139 138 138 138 138 138 138 138 137 137 137 137 136 135 135 255 255
255 255 255 255 255 255 255 255 255 255 255 255 255 255 255 255 255
255 255 255 255 255 255 255 255 255 255 255 255 255 255 255 255 255
255 255 255 255 255 255 255 255 255 255 255 255 255 255 255 255 255
255 255 255 255 255 255 255 255 255 255 255 255 255 255 255 255 255
255 255 255 255 255 255 255 255 255 255 255 255 255 255 255 255 255
255 255 255 255 255 255 255 255 255 255 255 255 255 255 255 255 255
255 255 255 255 255 255 255 255 255 255 255 255 255 255 255 255 255
255 255 255 255 255 255 255 255 255 255 255 255 255 255 255 255 255
255 255 255 255 255 255 255 255 255 255 255 255 255 255 255 255 255
255 255 255 255 255 255 255 255 255 255 255 255 255 255 255 255 255
255 255 255 255 255 255 255 255 255 255 255 255 255 255 255 255 255
255 255 255 255 255 255 255 255 255 255 255 255 255 255 255 255 255
255 255 255 255 255 255 255 255 255 255 129 128 128 128 115 109 106
105 91 89 70 69 68 68 59 59 69 116 132 131 131 132 132 132
133 135 134 135 135 135 135 135 135 135 135 134 134 134 134 134 134
133 133 133 132 132 131 131 129 129 128 124 124 124 124 124 124 118
115 86 83 80 80 72 72 72 72 72 72 72 52 51 39 39 43
43 44 49 71 85 116 134 137 138 139 141 142 141 138 137 125 125
88 64 63 63 68 68 69 69 70 71 49 36 21 17 16 16 16
15 15 16 17 17 17 16 16 15 11 11 11 10 10 9 9 9
8 8 8 8 8 7 7 7 7 7 7 7 6 6 6 5 5
5 5 5 5 5 5 5 5 5 5 5 5 5 5 5 5 5
5 5 5 5 5 5 6 6 7 8 9 10 10 12 19 35 106
132 196 175 222 224 225 228 228 228 228 226 226 226 225 225 224 224
224 224 224 225 225 226 226 226 205 104 104 105 200 234 234 234 234
234 231 230 230 229 221 221 190 165 165 123 123 133 146 151 173 173
196 222 221 221 221 221 219 218 217 206 198 167 139 138 138 137 137
137 137 137 137 137 137 137 137 136 136 135 255 255 255 255 255 255
255 255 255 255 255 255 255 255 255 255 255 255 255 255 255 255 255
255 255 255 255 255 255 255 255 255 255 255 255 255 255 255 255 255
255 255 255 255 255 255 255 255 255 255 255 255 255 255 255 255 255
255 255 255 255 255 255 255 255 255 255 255 255 255 255 255 255 255
255 255 255 255 255 255 255 255 255 255 255 255 255 255 255 255 255
255 255 255 255 255 255 255 255 255 255 255 255 255 255 255 255 255
255 255 255 255 255 255 255 255 255 255 255 255 255 255 255 255 255
255 255 255 255 255 255 255 255 255 255 255 255 255 255 255 255 255
255 255 255 255 255 255 255 255 255 255 255 255 255 255 255 255 255
255 255 255 255 255 255 255 255 255 255 255 255 255 255 255 255 255
255 255 255 255 255 255 255 255 255 255 255 255 255 255 255 255 255
255 255 255 255 255 255 255 255 255 255 255 255 255 255 255 255 255
255 255 255 255 255 255 128 128 128 128 115 109 107 93 90 88 75
68 68 68 67 67 79 121 132 132 132 132 133 133 134 135 135 135
135 135 135 135 135 135 135 135 135 135 134 134 134 134 133 133 132
132 131 131 128 127 127 103 103 102 101 101 100 100 82 80 80 80
80 72 72 72 72 72 72 72 38 37 37 38 38 43 44 48 71
85 131 134 143 143 142 147 143 141 142 143 144 144 114 81 70 70
69 69 69 69 77 80 80 36 24 17 16 16 16 15 15 16 16
16 16 16 16 15 11 11 10 10 9 9 9 8 8 8 8 8
7 7 7 7 7 7 7 7 6 6 6 6 5 5 5 5 5
5 5 5 5 5 5 5 5 5 5 5 5 5 5 5 5 5
5 5 6 6 7 7 8 9 10 11 11 31 76 101 195 184 192
227 226 228 228 228 228 227 227 226 225 225 225 225 224 225 225 225
225 226 226 227 227 189 105 105 196 234 234 234 234 234 232 229 229
229 221 221 190 190 165 124 124 134 146 165 173 173 180 197 221 221
221 221 219 195 195 206 206 167 139 137 137 137 137 137 137 137 137
137 137 137 136 136 136 136 255 255 255 255 255 255 255 255 255 255
255 255 255 255 255 255 255 255 255 255 255 255 255 255 255 255 255
255 255 255 255 255 255 255 255 255 255 255 255 255 255 255 255 255
255 255 255 255 255 255 255 255 255 255 255 255 255 255 255 255 255
255 255 255 255 255 255 255 255 255 255 255 255 255 255 255 255 255
255 255 255 255 255 255 255 255 255 255 255 255 255 255 255 255 255
255 255 255 255 255 255 255 255 255 255 255 255 255 255 255 255 255
255 255 255 255 255 255 255 255 255 255 255 255 255 255 255 255 255
255 255 255 255 255 255 255 255 255 255 255 255 255 255 255 255 255
255 255 255 255 255 255 255 255 255 255 255 255 255 255 255 255 255
255 255 255 255 255 255 255 255 255 255 255 255 255 255 255 255 255
255 255 255 255 255 255 255 255 255 255 255 255 255 255 255 255 255
255 255 255 255 255 255 255 255 255 255 255 255 255 255 255 255 255
255 255 121 121 121 117 114 107 107 87 88 88 75 68 68 67 67
67 101 125 133 133 133 133 134 134 135 135 136 136 136 137 137 135
135 135 135 135 135 135 135 134 134 134 133 133 132 131 131 131 127
127 127 104 73 73 74 74 75 75 77 78 79 83 83 83 83 82
82 82 76 37 35 34 34 33 36 43 44 48 71 85 134 134 144
144 145 148 149 150 150 150 150 150 150 140 97 70 70 70 70 70
77 80 80 62 24 17 16 16 16 15 15 15 16 16 15 13 12
11 11 10 10 9 9 9 8 8 8 8 8 7 7 7 7 7
7 7 7 7 7 6 6 6 5 5 5 5 5 5 5 5 5
5 5 5 5 5 5 5 5 5 5 5 5 5 5 5 5 6
6 7 8 8 10 11 11 12 36 43 119 184 183 227 227 228 228
228 228 228 227 227 226 226 225 225 225 225 225 225 226 226 227 227
227 227 128 106 117 194 212 234 234 233 233 229 228 228 221 221 210
210 178 139 124 134 136 141 173 179 180 180 216 221 221 220 219 195
194 206 206 192 144 136 136 136 136 136 136 137 137 137 137 136 136
136 136 136 255 255 255 255 255 255 255 255 255 255 255 255 255 255
255 255 255 255 255 255 255 255 255 255 255 255 255 255 255 255 255
255 255 255 255 255 255 255 255 255 255 255 255 255 255 255 255 255
255 255 255 255 255 255 255 255 255 255 255 255 255 255 255 255 255
255 255 255 255 255 255 255 255 255 255 255 255 255 255 255 255 255
255 255 255 255 255 255 255 255 255 255 255 255 255 255 255 255 255
255 255 255 255 255 255 255 255 255 255 255 255 255 255 255 255 255
255 255 255 255 255 255 255 255 255 255 255 255 255 255 255 255 255
255 255 255 255 255 255 255 255 255 255 255 255 255 255 255 255 255
255 255 255 255 255 255 255 255 255 255 255 255 255 255 255 255 255
255 255 255 255 255 255 255 255 255 255 255 255 255 255 255 255 255
255 255 255 255 255 255 255 255 255 255 255 255 255 255 255 255 255
255 255 255 255 255 255 255 255 255 255 255 255 255 255 255 121 121
120 117 114 107 107 88 88 88 84 72 68 68 74 86 118 133 133
133 134 134 134 135 135 136 136 136 137 137 137 136 135 135 135 135
135 135 135 134 134 133 133 132 132 131 130 130 127 126 126 73 73
73 73 74 74 75 76 78 78 87 87 87 87 87 86 82 74 37
36 31 32 32 36 36 43 48 71 101 133 135 145 145 145 150 150
150 150 150 150 150 150 149 132 124 70 70 71 71 74 75 80 79
51 18 16 16 16 15 15 15 15 15 15 13 11 11 10 10 9
9 9 8 8 8 8 8 7 7 7 7 7 7 7 7 7 7
7 6 6 6 5 5 5 5 5 4 4 5 5 5 5 5 5
5 5 5 5 5 5 5 5 5 5 5 5 5 6 7 7 8
10 10 11 11 27 43 85 162 183 194 228 228 229 229 229 229 228
227 227 226 226 226 225 225 226 226 226 226 227 227 227 227 203 107
89 89 150 221 224 233 233 229 228 227 222 221 210 210 206 193 145
145 138 141 173 179 187 181 182 196 220 220 219 219 205 205 206 204
144 136 136 136 136 136 136 136 136 136 136 136 136 136 136 136 255
255 255 255 255 255 255 255 255 255 255 255 255 255 255 255 255 255
255 255 255 255 255 255 255 255 255 255 255 255 255 255 255 255 255
255 255 255 255 255 255 255 255 255 255 255 255 255 255 255 255 255
255 255 255 255 255 255 255 255 255 255 255 255 255 255 255 255 255
255 255 255 255 255 255 255 255 255 255 255 255 255 255 255 255 255
255 255 255 255 255 255 255 255 255 255 255 255 255 255 255 255 255
255 255 255 255 255 255 255 255 255 255 255 255 255 255 255 255 255
255 255 255 255 255 255 255 255 255 255 255 255 255 255 255 255 255
255 255 255 255 255 255 255 255 255 255 255 255 255 255 255 255 255
255 255 255 255 255 255 255 255 255 255 255 255 255 255 255 255 255
255 255 255 255 255 255 255 255 255 255 255 255 255 255 255 255 255
255 255 255 255 255 255 255 255 255 255 255 255 255 255 255 255 255
255 255 255 255 255 255 255 255 255 255 255 117 114 108 108 108 95
90 88 88 88 88 88 88 93 98 110 132 133 134 134 134 135 135
135 136 136 137 137 137 137 136 136 135 135 135 135 135 135 135 134
134 133 132 132 131 130 130 129 127 126 92 81 81 74 73 73 74
75 76 79 84 87 87 87 87 87 86 82 56 37 36 30 30 29
28 28 37 48 77 101 133 136 146 146 150 151 152 152 152 152 151
150 150 149 139 139 105 71 71 71 74 74 77 79 51 31 16 16
16 15 15 14 13 13 13 13 11 10 10 9 9 9 8 8 8
8 8 8 7 7 7 7 7 7 7 7 7 7 7 7 6 6
6 5 5 5 5 5 4 5 5 5 5 5 5 5 5 5 5
5 5 5 5 5 5 5 5 5 6 6 7 8 9 10 11 11
12 43 62 118 183 158 225 229 229 229 229 229 228 228 227 227 226
226 225 226 226 226 227 227 227 227 227 227 226 171 89 80 80 150
153 153 212 229 227 225 223 220 217 210 206 206 194 194 141 141 141
179 191 181 182 192 203 220 219 219 219 205 205 204 145 136 136 136
136 136 136 136 136 136 136 136 136 135 135 135 255 255 255 255 255
255 255 255 255 255 255 255 255 255 255 255 255 255 255 255 255 255
255 255 255 255 255 255 255 255 255 255 255 255 255 255 255 255 255
255 255 255 255 255 255 255 255 255 255 255 255 255 255 255 255 255
255 255 255 255 255 255 255 255 255 255 255 255 255 255 255 255 255
255 255 255 255 255 255 255 255 255 255 255 255 255 255 255 255 255
255 255 255 255 255 255 255 255 255 255 255 255 255 255 255 255 255
255 255 255 255 255 255 255 255 255 255 255 255 255 255 255 255 255
255 255 255 255 255 255 255 255 255 255 255 255 255 255 255 255 255
255 255 255 255 255 255 255 255 255 255 255 255 255 255 255 255 255
255 255 255 255 255 255 255 255 255 255 255 255 255 255 255 255 255
255 255 255 255 255 255 255 255 255 255 255 255 255 255 255 255 255
255 255 255 255 255 255 255 255 255 255 255 255 255 255 255 255 255
255 255 255 255 255 255 255 107 108 108 98 98 90 90 88 88 88
88 93 101 127 127 127 132 133 134 134 135 135 135 136 136 136 137
137 137 137 136 136 135 135 135 135 135 135 134 134 134 133 132 132
131 130 129 129 126 119 92 81 81 73 72 73 73 74 76 85 87
87 87 87 87 79 79 65 52 38 36 27 27 27 28 28 37 51
77 104 133 136 147 147 150 153 153 154 155 156 157 158 159 159 158
154 154 126 80 72 72 71 71 76 76 65 24 25 25 15 14 14
13 12 11 11 10 10 9 9 9 8 8 8 8 8 8 7 7
7 7 7 6 6 7 7 7 7 7 7 6 6 6 5 5 5
5 5 5 5 5 5 5 5 5 5 5 5 5 5 5 5 5
5 5 5 5 5 5 6 7 7 8 9 10 11 12 22 62 62
158 158 191 229 229 229 230 229 229 229 227 227 227 226 226 226 226
226 227 227 227 227 227 227 226 226 122 80 67 67 67 120 151 230
226 226 230 218 217 216 215 214 214 199 159 136 136 136 191 192 192
192 191 197 214 219 219 219 190 184 147 137 136 136 136 136 136 136
136 136 136 136 136 135 135 135 255 255 255 255 255 255 255 255 255
255 255 255 255 255 255 255 255 255 255 255 255 255 255 255 255 255
255 255 255 255 255 255 255 255 255 255 255 255 255 255 255 255 255
255 255 255 255 255 255 255 255 255 255 255 255 255 255 255 255 255
255 255 255 255 255 255 255 255 255 255 255 255 255 255 255 255 255
255 255 255 255 255 255 255 255 255 255 255 255 255 255 255 255 255
255 255 255 255 255 255 255 255 255 255 255 255 255 255 255 255 255
255 255 255 255 255 255 255 255 255 255 255 255 255 255 255 255 255
255 255 255 255 255 255 255 255 255 255 255 255 255 255 255 255 255
255 255 255 255 255 255 255 255 255 255 255 255 255 255 255 255 255
255 255 255 255 255 255 255 255 255 255 255 255 255 255 255 255 255
255 255 255 255 255 255 255 255 255 255 255 255 255 255 255 255 255
255 255 255 255 255 255 255 255 255 255 255 255 255 255 255 255 255
255 255 255 107 108 108 97 97 90 90 89 92 101 127 131 131 131
131 131 133 134 134 134 135 135 135 136 136 136 137 137 137 136 136
136 135 135 135 134 134 134 134 134 134 133 132 131 131 130 129 129
126 96 76 76 71 72 72 73 74 74 76 85 85 87 87 87 87
62 62 62 52 38 35 26 26 27 27 28 37 51 77 110 133 147
148 148 155 154 155 155 160 160 161 160 160 159 157 157 156 140 105
98 88 71 71 71 71 65 30 25 25 19 14 13 13 12 11 11
10 10 9 9 9 8 8 8 8 8 7 7 7 7 7 7 6
6 6 7 7 7 7 7 6 6 6 6 5 5 5 5 5 5
5 5 5 5 5 5 6 6 6 6 6 5 5 5 5 5 5
5 5 6 6 7 8 9 9 10 12 19 19 57 80 146 173 196
229 230 230 230 230 229 228 227 227 227 227 227 226 227 227 227 227
227 227 226 226 226 222 80 62 62 62 120 120 240 239 239 239 217
217 216 216 215 213 199 159 136 136 135 172 193 193 193 190 190 192
219 219 219 190 157 147 137 137 137 137 136 136 136 136 136 136 136
135 135 135 135 255 255 255 255 255 255 255 255 255 255 255 255 255
255 255 255 255 255 255 255 255 255 255 255 255 255 255 255 255 255
255 255 255 255 255 255 255 255 255 255 255 255 255 255 255 255 255
255 255 255 255 255 255 255 255 255 255 255 255 255 255 255 255 255
255 255 255 255 255 255 255 255 255 255 255 255 255 255 255 255 255
255 255 255 255 255 255 255 255 255 255 255 255 255 255 255 255 255
255 255 255 255 255 255 255 255 255 255 255 255 255 255 255 255 255
255 255 255 255 255 255 255 255 255 255 255 255 255 255 255 255 255
255 255 255 255 255 255 255 255 255 255 255 255 255 255 255 255 255
255 255 255 255 255 255 255 255 255 255 255 255 255 255 255 255 255
255 255 255 255 255 255 255 255 255 255 255 255 255 255 255 255 255
255 255 255 255 255 255 255 255 255 255 255 255 255 255 255 255 255
255 255 255 255 255 255 255 255 255 255 255 255 255 255 255 255 105
103 101 95 90 90 89 89 92 120 131 131 131 131 131 133 134 134
134 135 135 135 135 136 136 136 136 136 136 136 136 135 135 135 134
134 134 134 134 134 134 133 132 131 130 130 129 128 126 96 76 76
71 71 72 74 74 75 76 78 79 80 71 69 68 62 62 62 52
38 35 25 25 25 25 25 36 51 72 110 133 147 149 149 155 155
156 158 160 161 161 161 161 160 157 157 156 154 144 144 111 85 85
72 71 65 35 35 27 27 18 15 12 12 11 11 10 10 9 9
9 8 8 8 8 8 7 7 7 7 7 7 6 6 6 6 7
7 7 7 7 6 6 6 6 6 5 5 5 5 5 6 6 6
6 6 6 6 6 6 6 6 5 5 5 5 5 5 5 5 6
6 7 8 9 9 10 10 19 27 72 132 167 186 218 230 231 230
230 229 228 228 228 227 227 227 227 227 227 227 227 226 226 226 226
225 225 180 89 62 62 120 120 240 240 240 240 217 217 216 216 214
213 202 180 180 162 135 140 193 194 195 190 189 189 203 219 219 211
139 138 138 137 137 137 137 137 137 137 136 136 136 135 135 135 135
255 255 255 255 255 255 255 255 255 255 255 255 255 255 255 255 255
255 255 255 255 255 255 255 255 255 255 255 255 255 255 255 255 255
255 255 255 255 255 255 255 255 255 255 255 255 255 255 255 255 255
255 255 255 255 255 255 255 255 255 255 255 255 255 255 255 255 255
255 255 255 255 255 255 255 255 255 255 255 255 255 255 255 255 255
255 255 255 255 255 255 255 255 255 255 255 255 255 255 255 255 255
255 255 255 255 255 255 255 255 255 255 255 255 255 255 255 255 255
255 255 255 255 255 255 255 255 255 255 255 255 255 255 255 255 255
255 255 255 255 255 255 255 255 255 255 255 255 255 255 255 255 255
255 255 255 255 255 255 255 255 255 255 255 255 255 255 255 255 255
255 255 255 255 255 255 255 255 255 255 255 255 255 255 255 255 255
255 255 255 255 255 255 255 255 255 255 255 255 255 255 255 255 255
255 255 255 255 255 255 255 255 255 255 255 255 101 102 101 90 87
88 89 104 116 128 131 131 132 133 134 134 134 134 134 135 135 135
135 136 136 136 136 136 136 136 136 135 135 134 134 134 134 134 134
134 134 133 132 131 130 129 129 128 126 96 69 75 74 74 74 74
74 74 61 61 61 61 61 61 61 61 62 62 47 34 34 24 24
24 24 25 36 51 72 112 137 147 150 150 156 156 159 160 160 161
161 161 161 161 161 163 163 163 155 148 147 134 133 72 72 65 56
35 27 27 18 15 12 12 11 11 10 10 9 9 9 8 8 8
8 8 7 7 7 7 7 7 7 6 6 7 7 7 7 7 7
7 6 6 6 6 6 6 6 6 6 6 6 6 6 6 6 6
6 6 6 6 6 6 5 5 5 5 5 5 6 6 7 7 8
9 9 10 19 27 55 76 142 186 216 231 231 231 231 230 229 228
228 228 227 227 227 227 227 227 226 226 225 225 225 225 225 225 95
74 74 134 196 240 240 240 240 217 217 216 216 214 215 202 202 196
183 133 133 159 194 195 194 195 195 195 219 219 211 139 138 138 137
137 137 137 137 137 137 136 136 136 135 135 135 135 255 255 255 255
255 255 255 255 255 255 255 255 255 255 255 255 255 255 255 255 255
255 255 255 255 255 255 255 255 255 255 255 255 255 255 255 255 255
255 255 255 255 255 255 255 255 255 255 255 255 255 255 255 255 255
255 255 255 255 255 255 255 255 255 255 255 255 255 255 255 255 255
255 255 255 255 255 255 255 255 255 255 255 255 255 255 255 255 255
255 255 255 255 255 255 255 255 255 255 255 255 255 255 255 255 255
255 255 255 255 255 255 255 255 255 255 255 255 255 255 255 255 255
255 255 255 255 255 255 255 255 255 255 255 255 255 255 255 255 255
255 255 255 255 255 255 255 255 255 255 255 255 255 255 255 255 255
255 255 255 255 255 255 255 255 255 255 255 255 255 255 255 255 255
255 255 255 255 255 255 255 255 255 255 255 255 255 255 255 255 255
255 255 255 255 255 255 255 255 255 255 255 255 255 255 255 255 255
255 255 255 255 255 255 255 255 101 101 101 86 87 87 97 111 119
133 133 134 134 134 134 134 134 134 135 135 135 135 135 135 136 136
136 136 136 136 135 135 135 134 134 134 134 134 134 134 134 133 132
131 131 129 129 128 126 95 69 74 74 73 73 72 73 73 61 60
60 60 60 60 61 60 59 59 34 34 28 24 24 24 24 27 32
47 72 109 142 148 150 150 156 156 158 160 161 161 161 162 162 162
161 163 163 163 155 155 150 150 150 140 130 95 95 74 45 27 18
16 12 12 12 11 10 10 9 9 9 8 8 8 8 7 7 7
7 7 7 7 7 7 7 7 7 7 7 7 7 7 7 7 7
7 7 7 7 7 7 7 7 7 7 7 7 7 7 7 7 7
6 6 6 5 5 5 5 5 6 6 6 7 8 8 9 10 11
20 20 44 82 164 195 195 231 231 231 230 229 229 228 228 227 227
227 227 227 226 226 226 225 225 225 225 225 225 185 102 102 121 216
240 240 240 240 240 198 184 216 216 216 202 212 196 183 133 133 139
158 194 194 196 195 195 187 187 187 137 137 137 137 137 137 137 137
137 137 137 136 136 135 135 135 135 255 255 255 255 255 255 255 255
255 255 255 255 255 255 255 255 255 255 255 255 255 255 255 255 255
255 255 255 255 255 255 255 255 255 255 255 255 255 255 255 255 255
255 255 255 255 255 255 255 255 255 255 255 255 255 255 255 255 255
255 255 255 255 255 255 255 255 255 255 255 255 255 255 255 255 255
255 255 255 255 255 255 255 255 255 255 255 255 255 255 255 255 255
255 255 255 255 255 255 255 255 255 255 255 255 255 255 255 255 255
255 255 255 255 255 255 255 255 255 255 255 255 255 255 255 255 255
255 255 255 255 255 255 255 255 255 255 255 255 255 255 255 255 255
255 255 255 255 255 255 255 255 255 255 255 255 255 255 255 255 255
255 255 255 255 255 255 255 255 255 255 255 255 255 255 255 255 255
255 255 255 255 255 255 255 255 255 255 255 255 255 255 255 255 255
255 255 255 255 255 255 255 255 255 255 255 255 255 255 255 255 255
255 255 255 255 101 101 86 86 86 98 113 133 133 133 134 134 134
134 134 135 135 135 135 135 135 135 135 135 135 136 136 136 136 136
135 135 135 134 134 134 134 134 134 134 134 133 132 132 131 129 129
128 101 85 69 72 72 73 71 72 56 57 57 58 59 59 59 59
59 59 59 59 52 36 27 24 24 23 23 27 32 47 71 97 142
148 151 151 155 156 159 160 160 161 161 162 162 162 162 163 163 163
155 155 150 150 150 150 148 121 108 108 70 27 18 16 13 12 12
11 11 10 10 9 9 9 8 8 8 8 7 7 7 7 7 7
7 7 7 7 7 7 7 7 7 7 7 7 7 7 7 8 8
8 9 9 9 9 9 8 8 8 8 8 8 7 7 7 6 6
6 6 6 6 6 6 6 7 7 8 9 9 10 16 19 44 57
139 195 195 231 231 231 230 230 230 230 230 227 227 227 227 227 226
226 226 225 225 225 225 225 225 225 144 121 121 216 240 240 240 240
240 198 169 216 216 216 212 212 211 183 158 139 139 161 161 161 196
201 201 156 156 156 137 137 137 137 137 137 137 137 137 137 137 136
136 135 135 135 135 255 255 255 255 255 255 255 255 255 255 255 255
255 255 255 255 255 255 255 255 255 255 255 255 255 255 255 255 255
255 255 255 255 255 255 255 255 255 255 255 255 255 255 255 255 255
255 255 255 255 255 255 255 255 255 255 255 255 255 255 255 255 255
255 255 255 255 255 255 255 255 255 255 255 255 255 255 255 255 255
255 255 255 255 255 255 255 255 255 255 255 255 255 255 255 255 255
255 255 255 255 255 255 255 255 255 255 255 255 255 255 255 255 255
255 255 255 255 255 255 255 255 255 255 255 255 255 255 255 255 255
255 255 255 255 255 255 255 255 255 255 255 255 255 255 255 255 255
255 255 255 255 255 255 255 255 255 255 255 255 255 255 255 255 255
255 255 255 255 255 255 255 255 255 255 255 255 255 255 255 255 255
255 255 255 255 255 255 255 255 255 255 255 255 255 255 255 255 255
255 255 255 255 255 255 255 255 255 255 255 255 255 255 255 255 255
96 96 86 86 86 124 133 133 133 133 134 135 135 135 135 135 135
135 135 135 135 135 135 135 136 136 136 136 136 136 135 135 135 134
134 134 134 134 134 134 134 133 133 132 131 130 129 129 87 86 68
67 67 52 52 52 52 53 57 57 58 58 58 57 56 56 54 53
52 37 27 24 24 23 23 30 33 41 71 97 142 148 150 150 155
157 158 159 160 161 161 161 162 162 162 162 162 162 162 161 160 160
160 160 148 144 131 131 112 75 42 40 13 13 12 12 11 11 10
10 9 9 8 8 8 8 8 8 8 8 8 8 7 7 7 7
7 7 7 7 7 7 7 8 8 8 8 8 9 9 10 10 10
9 10 9 9 9 9 9 9 8 8 7 7 7 6 6 6 6
6 6 6 7 7 8 8 9 10 16 19 19 57 87 178 195 195
231 231 231 230 230 230 230 227 227 227 227 227 226 226 226 226 225
225 225 225 225 225 197 124 124 216 240 240 240 240 229 212 169 216
216 216 212 212 211 211 211 165 139 161 161 161 153 201 201 141 140
140 137 136 136 136 136 136 136 137 137 137 137 136 136 135 135 135
135 255 255 255 255 255 255 255 255 255 255 255 255 255 255 255 255
255 255 255 255 255 255 255 255 255 255 255 255 255 255 255 255 255
255 255 255 255 255 255 255 255 255 255 255 255 255 255 255 255 255
255 255 255 255 255 255 255 255 255 255 255 255 255 255 255 255 255
255 255 255 255 255 255 255 255 255 255 255 255 255 255 255 255 255
255 255 255 255 255 255 255 255 255 255 255 255 255 255 255 255 255
255 255 255 255 255 255 255 255 255 255 255 255 255 255 255 255 255
255 255 255 255 255 255 255 255 255 255 255 255 255 255 255 255 255
255 255 255 255 255 255 255 255 255 255 255 255 255 255 255 255 255
255 255 255 255 255 255 255 255 255 255 255 255 255 255 255 255 255
255 255 255 255 255 255 255 255 255 255 255 255 255 255 255 255 255
255 255 255 255 255 255 255 255 255 255 255 255 255 255 255 255 255
255 255 255 255 255 255 255 255 255 255 255 255 255 96 96 87 87
111 125 133 133 133 134 134 135 135 135 135 135 135 135 135 135 135
135 135 136 136 136 136 136 136 136 135 135 135 134 134 134 134 134
134 134 134 133 133 132 132 132 126 116 87 86 56 56 56 52 52
52 52 53 56 57 57 56 56 56 56 56 50 50 51 37 26 26
26 26 27 30 34 41 70 97 146 149 149 149 155 157 157 159 160
160 161 161 161 162 162 162 162 161 161 161 160 160 160 160 161 161
156 131 118 103 103 58 25 21 13 13 12 12 10 10 10 9 9
8 8 8 8 8 8 8 8 8 8 8 8 8 8 8 8 8
8 8 8 8 8 9 9 9 9 10 11 11 11 12 12 12 13
13 12 11 10 10 10 9 8 8 7 7 6 6 6 6 6 6
7 7 8 9 9 13 13 13 30 68 106 195 195 220 231 231 231
231 231 231 227 227 227 227 227 226 226 226 226 226 226 226 226 226
226 225 188 155 216 240 239 239 239 229 212 169 201 201 218 218 218
211 211 211 189 148 162 163 163 140 201 201 141 140 137 137 136 136
136 136 136 136 136 137 137 137 136 136 136 135 135 134 255 255 255
255 255 255 255 255 255 255 255 255 255 255 255 255 255 255 255 255
255 255 255 255 255 255 255 255 255 255 255 255 255 255 255 255 255
255 255 255 255 255 255 255 255 255 255 255 255 255 255 255 255 255
255 255 255 255 255 255 255 255 255 255 255 255 255 255 255 255 255
255 255 255 255 255 255 255 255 255 255 255 255 255 255 255 255 255
255 255 255 255 255 255 255 255 255 255 255 255 255 255 255 255 255
255 255 255 255 255 255 255 255 255 255 255 255 255 255 255 255 255
255 255 255 255 255 255 255 255 255 255 255 255 255 255 255 255 255
255 255 255 255 255 255 255 255 255 255 255 255 255 255 255 255 255
255 255 255 255 255 255 255 255 255 255 255 255 255 255 255 255 255
255 255 255 255 255 255 255 255 255 255 255 255 255 255 255 255 255
255 255 255 255 255 255 255 255 255 255 255 255 255 255 255 255 255
255 255 255 255 255 255 255 255 255 96 96 96 120 120 126 133 133
133 134 134 135 135 135 135 135 135 135 136 136 136 136 136 136 136
136 136 136 136 136 135 135 135 135 134 134 134 134 134 134 134 133
133 133 132 132 126 116 90 72 56 54 52 52 51 51 51 54 55
54 39 39 39 39 40 48 47 46 41 38 26 26 26 27 27 30
34 41 70 97 146 147 148 148 155 155 157 159 160 160 160 160 160
160 160 160 161 161 160 159 159 159 160 160 160 161 156 132 132 132
124 124 83 48 33 18 18 11 11 10 10 10 9 9 8 8 8
8 8 9 9 9 9 9 9 8 8 8 8 8 8 8 8 9
9 10 11 12 12 12 12 12 15 14 15 18 13 13 13 14 14
13 12 10 9 9 8 8 7 7 7 6 6 7 7 7 8 9
9 10 12 13 20 46 69 158 209 209 211 221 231 231 231 231 227
227 227 227 226 226 226 226 226 226 226 226 226 226 226 225 206 206
216 238 239 239 239 229 212 182 182 172 218 218 218 211 212 211 211
170 162 163 163 140 140 139 139 139 138 136 136 136 135 135 135 136
136 136 136 137 136 136 136 135 135 134 255 255 255 255 255 255 255
255 255 255 255 255 255 255 255 255 255 255 255 255 255 255 255 255
255 255 255 255 255 255 255 255 255 255 255 255 255 255 255 255 255
255 255 255 255 255 255 255 255 255 255 255 255 255 255 255 255 255
255 255 255 255 255 255 255 255 255 255 255 255 255 255 255 255 255
255 255 255 255 255 255 255 255 255 255 255 255 255 255 255 255 255
255 255 255 255 255 255 255 255 255 255 255 255 255 255 255 255 255
255 255 255 255 255 255 255 255 255 255 255 255 255 255 255 255 255
255 255 255 255 255 255 255 255 255 255 255 255 255 255 255 255 255
255 255 255 255 255 255 255 255 255 255 255 255 255 255 255 255 255
255 255 255 255 255 255 255 255 255 255 255 255 255 255 255 255 255
255 255 255 255 255 255 255 255 255 255 255 255 255 255 255 255 255
255 255 255 255 255 255 255 255 255 255 255 255 255 255 255 255 255
255 255 255 255 255 96 96 125 126 126 126 133 133 134 134 134 135
135 135 135 135 135 136 136 136 136 136 136 136 136 136 136 136 136
136 135 135 135 135 134 134 134 134 134 134 134 133 133 133 133 132
117 101 90 71 56 55 53 45 45 44 44 44 40 39 39 39 39
39 39 43 43 44 41 40 27 27 27 27 29 30 35 41 46 102
144 145 145 147 151 151 157 156 156 156 160 159 159 159 159 159 158
158 159 159 159 159 159 160 160 160 156 154 150 133 133 124 116 87
41 18 18 18 18 10 10 10 10 9 9 9 9 9 9 9 9
9 9 9 9 9 9 9 9 8 8 8 9 9 9 10 11 12
12 12 13 13 15 16 16 19 19 19 18 16 17 16 12 11 10
10 9 8 8 7 7 7 7 7 7 7 8 9 9 10 11 13
20 30 60 89 199 199 199 221 231 231 231 231 228 227 227 227 226
226 226 225 225 226 226 226 226 226 226 225 225 225 213 222 233 233
228 229 211 189 161 158 218 218 218 212 212 212 214 214 176 151 151
140 140 140 138 137 137 136 135 135 135 135 135 135 136 136 136 136
136 136 136 135 135 134 255 255 255 255 255 255 255 255 255 255 255
255 255 255 255 255 255 255 255 255 255 255 255 255 255 255 255 255
255 255 255 255 255 255 255 255 255 255 255 255 255 255 255 255 255
255 255 255 255 255 255 255 255 255 255 255 255 255 255 255 255 255
255 255 255 255 255 255 255 255 255 255 255 255 255 255 255 255 255
255 255 255 255 255 255 255 255 255 255 255 255 255 255 255 255 255
255 255 255 255 255 255 255 255 255 255 255 255 255 255 255 255 255
255 255 255 255 255 255 255 255 255 255 255 255 255 255 255 255 255
255 255 255 255 255 255 255 255 255 255 255 255 255 255 255 255 255
255 255 255 255 255 255 255 255 255 255 255 255 255 255 255 255 255
255 255 255 255 255 255 255 255 255 255 255 255 255 255 255 255 255
255 255 255 255 255 255 255 255 255 255 255 255 255 255 255 255 255
255 255 255 255 255 255 255 255 255 255 255 255 255 255 255 255 255
255 96 120 131 131 131 130 133 133 134 134 135 135 135 135 135 136
136 136 136 136 136 136 136 136 136 136 136 136 135 136 135 135 135
135 135 134 134 134 134 134 134 133 133 133 133 127 114 100 90 68
55 55 53 45 45 44 44 40 40 40 39 39 39 39 39 42 43
43 41 40 27 27 27 30 30 30 35 42 46 102 144 144 145 146
147 148 150 154 156 156 157 158 158 158 158 158 158 158 158 158 158
158 159 160 160 158 156 154 150 149 144 139 124 119 91 68 47 43
22 22 12 11 10 10 10 9 9 9 10 10 10 10 10 10 10
10 10 11 12 13 13 13 13 13 16 16 17 18 18 18 18 18
18 18 18 19 19 20 20 19 18 16 14 13 11 10 10 9 9
8 8 7 7 7 7 7 8 8 9 10 11 13 20 30 32 66
145 175 174 203 226 231 231 231 228 227 227 222 222 225 225 225 225
226 226 226 226 226 226 225 225 225 199 211 224 185 185 202 202 189
178 158 158 189 219 214 213 213 214 214 182 140 140 139 139 138 137
137 136 136 135 135 134 134 135 135 135 136 136 136 136 136 136 137
137 137 255 255 255 255 255 255 255 255 255 255 255 255 255 255 255
255 255 255 255 255 255 255 255 255 255 255 255 255 255 255 255 255
255 255 255 255 255 255 255 255 255 255 255 255 255 255 255 255 255
255 255 255 255 255 255 255 255 255 255 255 255 255 255 255 255 255
255 255 255 255 255 255 255 255 255 255 255 255 255 255 255 255 255
255 255 255 255 255 255 255 255 255 255 255 255 255 255 255 255 255
255 255 255 255 255 255 255 255 255 255 255 255 255 255 255 255 255
255 255 255 255 255 255 255 255 255 255 255 255 255 255 255 255 255
255 255 255 255 255 255 255 255 255 255 255 255 255 255 255 255 255
255 255 255 255 255 255 255 255 255 255 255 255 255 255 255 255 255
255 255 255 255 255 255 255 255 255 255 255 255 255 255 255 255 255
255 255 255 255 255 255 255 255 255 255 255 255 255 255 255 255 255
255 255 255 255 255 255 255 255 255 255 255 255 255 255 107 131 131
131 132 133 133 134 134 134 135 135 135 136 136 136 136 136 136 136
136 136 136 136 135 135 135 135 135 135 135 135 135 135 135 134 134
134 134 134 134 134 133 133 133 127 114 100 80 68 55 55 55 44
44 44 44 32 32 31 31 32 38 38 39 40 41 42 41 42 38
38 37 31 31 31 35 42 47 102 142 142 141 140 140 145 145 153
153 153 158 158 158 157 157 157 157 157 157 157 157 158 158 159 159
157 157 155 149 149 144 139 124 119 117 85 75 75 22 21 14 12
11 11 10 10 10 10 10 10 10 10 10 11 11 11 11 12 13
14 16 18 19 24 24 24 23 22 22 25 25 26 26 26 26 26
26 26 25 19 18 18 18 14 14 13 12 11 10 9 8 8 8
8 8 8 8 9 9 10 11 12 19 19 28 57 97 129 173 173
226 231 231 230 229 227 227 220 221 225 225 225 225 225 224 226 226
226 225 225 225 225 199 176 158 151 159 159 188 189 189 181 144 171
219 214 214 214 214 214 181 140 140 139 138 138 137 136 136 135 135
134 134 134 134 135 135 136 136 136 137 137 137 137 137 137 255 255
255 255 255 255 255 255 255 255 255 255 255 255 255 255 255 255 255
255 255 255 255 255 255 255 255 255 255 255 255 255 255 255 255 255
255 255 255 255 255 255 255 255 255 255 255 255 255 255 255 255 255
255 255 255 255 255 255 255 255 255 255 255 255 255 255 255 255 255
255 255 255 255 255 255 255 255 255 255 255 255 255 255 255 255 255
255 255 255 255 255 255 255 255 255 255 255 255 255 255 255 255 255
255 255 255 255 255 255 255 255 255 255 255 255 255 255 255 255 255
255 255 255 255 255 255 255 255 255 255 255 255 255 255 255 255 255
255 255 255 255 255 255 255 255 255 255 255 255 255 255 255 255 255
255 255 255 255 255 255 255 255 255 255 255 255 255 255 255 255 255
255 255 255 255 255 255 255 255 255 255 255 255 255 255 255 255 255
255 255 255 255 255 255 255 255 255 255 255 255 255 255 255 255 255
255 255 255 255 255 255 255 255 255 255 131 131 131 132 132 133 134
134 134 135 135 135 136 136 136 136 136 136 136 136 136 136 136 135
135 135 135 135 135 135 135 135 135 135 135 134 134 134 134 134 134
134 133 133 133 133 100 100 62 62 55 55 55 44 38 38 32 31
31 31 31 32 33 35 38 39 40 41 42 42 45 46 46 31 31
31 35 42 48 102 133 128 128 127 140 140 129 129 129 145 145 154
155 156 156 155 156 156 156 156 157 157 158 158 158 158 156 156 149
149 144 139 124 118 118 109 91 88 82 17 15 12 12 11 10 10
10 10 11 11 11 11 11 11 11 11 12 13 13 14 16 19 19
24 24 25 26 26 27 27 27 26 27 27 27 27 26 26 25 24
23 22 20 20 17 14 13 11 10 9 9 8 8 8 8 8 8
9 9 10 11 12 15 16 16 31 65 94 173 173 210 231 231 230
228 228 227 220 219 224 224 220 220 220 218 218 226 226 225 225 225
203 203 149 134 134 153 159 187 189 190 190 144 150 186 214 214 214
214 211 153 140 140 139 138 138 137 136 135 135 134 134 134 134 134
134 135 135 136 136 137 137 137 137 137 137 255 255 255 255 255 255
255 255 255 255 255 255 255 255 255 255 255 255 255 255 255 255 255
255 255 255 255 255 255 255 255 255 255 255 255 255 255 255 255 255
255 255 255 255 255 255 255 255 255 255 255 255 255 255 255 255 255
255 255 255 255 255 255 255 255 255 255 255 255 255 255 255 255 255
255 255 255 255 255 255 255 255 255 255 255 255 255 255 255 255 255
255 255 255 255 255 255 255 255 255 255 255 255 255 255 255 255 255
255 255 255 255 255 255 255 255 255 255 255 255 255 255 255 255 255
255 255 255 255 255 255 255 255 255 255 255 255 255 255 255 255 255
255 255 255 255 255 255 255 255 255 255 255 255 255 255 255 255 255
255 255 255 255 255 255 255 255 255 255 255 255 255 255 255 255 255
255 255 255 255 255 255 255 255 255 255 255 255 255 255 255 255 255
255 255 255 255 255 255 255 255 255 255 255 255 255 255 255 255 255
255 255 255 255 255 255 135 135 134 133 133 134 134 135 135 135 136
136 136 136 136 136 136 136 136 136 136 136 135 135 135 135 135 135
135 135 135 135 135 135 135 134 134 134 134 134 134 134 133 133 133
133 100 93 62 54 54 55 55 53 38 38 26 27 27 30 31 31
32 34 35 38 41 41 42 42 45 46 46 46 42 42 35 42 48
99 133 104 104 122 122 117 117 117 118 130 139 139 150 150 154 155
155 155 156 155 156 156 157 157 157 157 154 153 149 143 134 134 124
118 115 111 91 88 67 17 16 13 13 13 12 12 11 11 11 11
11 11 16 17 17 18 19 20 20 20 20 19 24 24 24 25 26
27 27 27 27 27 27 27 27 27 27 27 26 25 23 22 20 20
17 16 16 15 15 15 15 11 10 9 9 9 9 9 10 10 12
12 15 15 16 22 42 77 105 172 172 231 231 230 230 230 230 217
217 212 223 219 218 217 216 217 226 225 225 225 225 201 136 134 121
134 152 159 185 190 190 190 161 150 162 212 214 214 214 152 152 144
141 139 138 138 137 136 135 135 134 134 134 134 134 134 135 135 136
136 137 137 137 137 137 137 255 255 255 255 255 255 255 255 255 255
255 255 255 255 255 255 255 255 255 255 255 255 255 255 255 255 255
255 255 255 255 255 255 255 255 255 255 255 255 255 255 255 255 255
255 255 255 255 255 255 255 255 255 255 255 255 255 255 255 255 255
255 255 255 255 255 255 255 255 255 255 255 255 255 255 255 255 255
255 255 255 255 255 255 255 255 255 255 255 255 255 255 255 255 255
255 255 255 255 255 255 255 255 255 255 255 255 255 255 255 255 255
255 255 255 255 255 255 255 255 255 255 255 255 255 255 255 255 255
255 255 255 255 255 255 255 255 255 255 255 255 255 255 255 255 255
255 255 255 255 255 255 255 255 255 255 255 255 255 255 255 255 255
255 255 255 255 255 255 255 255 255 255 255 255 255 255 255 255 255
255 255 255 255 255 255 255 255 255 255 255 255 255 255 255 255 255
255 255 255 255 255 255 255 255 255 255 255 255 255 255 255 255 255
255 255 135 135 135 135 135 135 135 135 135 136 136 136 136 136 136
136 136 136 136 136 136 135 135 135 135 134 134 134 135 135 135 135
135 135 135 135 134 134 134 134 134 133 133 133 133 133 81 55 54
54 54 54 55 52 38 26 26 27 27 30 30 31 31 32 32 32
41 41 41 48 48 45 46 46 43 42 42 42 49 99 100 82 82
100 108 108 108 96 96 96 109 125 140 140 140 151 151 151 154 154
155 156 156 157 157 157 155 152 145 143 127 127 124 113 105 105 91
60 31 17 17 16 16 17 17 17 17 17 18 18 18 19 21 22
23 23 24 24 30 30 28 24 24 24 25 25 27 28 28 28 27
27 27 27 28 28 28 28 27 26 28 29 20 19 18 18 17 16
16 22 22 11 11 10 10 10 10 10 10 11 12 13 15 16 16
21 21 48 65 172 172 208 231 230 230 230 230 193 209 209 209 209
208 208 215 215 215 225 225 225 224 201 117 117 121 133 144 159 182
182 185 185 170 159 162 189 209 209 156 145 144 144 141 139 139 138
137 136 135 135 134 134 134 134 134 134 135 135 136 136 137 137 137
137 137 137 255 255 255 255 255 255 255 255 255 255 255 255 255 255
255 255 255 255 255 255 255 255 255 255 255 255 255 255 255 255 255
255 255 255 255 255 255 255 255 255 255 255 255 255 255 255 255 255
255 255 255 255 255 255 255 255 255 255 255 255 255 255 255 255 255
255 255 255 255 255 255 255 255 255 255 255 255 255 255 255 255 255
255 255 255 255 255 255 255 255 255 255 255 255 255 255 255 255 255
255 255 255 255 255 255 255 255 255 255 255 255 255 255 255 255 255
255 255 255 255 255 255 255 255 255 255 255 255 255 255 255 255 255
255 255 255 255 255 255 255 255 255 255 255 255 255 255 255 255 255
255 255 255 255 255 255 255 255 255 255 255 255 255 255 255 255 255
255 255 255 255 255 255 255 255 255 255 255 255 255 255 255 255 255
255 255 255 255 255 255 255 255 255 255 255 255 255 255 255 255 255
255 255 255 255 255 255 255 255 255 255 255 255 255 255 255 136 135
135 135 135 135 135 135 136 136 136 136 136 136 136 136 136 136 136
136 135 135 135 134 134 134 134 134 134 135 135 135 135 135 135 135
135 134 134 134 134 133 133 133 133 133 81 55 53 53 53 53 53
52 38 26 26 26 27 29 30 30 31 31 28 28 28 41 41 42
44 45 45 45 43 43 43 43 49 68 68 68 68 68 68 64 64
64 72 72 88 114 131 131 132 132 132 145 153 154 155 155 156 156
156 156 155 152 143 143 127 127 113 82 82 72 72 25 18 17 17
17 16 17 21 21 21 21 32 43 43 43 65 65 65 63 59 59
58 58 58 58 37 27 28 28 29 29 29 28 28 28 28 28 28
29 29 30 31 31 30 31 20 20 19 19 19 24 24 24 23 22
19 12 11 10 10 10 11 11 12 14 14 17 17 20 20 48 65
123 172 172 226 230 230 230 230 193 152 190 193 193 208 208 212 212
212 212 224 224 224 222 117 117 121 133 141 158 164 172 183 183 175
173 172 172 171 171 145 145 144 143 141 140 139 138 137 136 136 135
134 134 134 134 134 135 135 135 136 136 137 137 137 137 137 137 255
255 255 255 255 255 255 255 255 255 255 255 255 255 255 255 255 255
255 255 255 255 255 255 255 255 255 255 255 255 255 255 255 255 255
255 255 255 255 255 255 255 255 255 255 255 255 255 255 255 255 255
255 255 255 255 255 255 255 255 255 255 255 255 255 255 255 255 255
255 255 255 255 255 255 255 255 255 255 255 255 255 255 255 255 255
255 255 255 255 255 255 255 255 255 255 255 255 255 255 255 255 255
255 255 255 255 255 255 255 255 255 255 255 255 255 255 255 255 255
255 255 255 255 255 255 255 255 255 255 255 255 255 255 255 255 255
255 255 255 255 255 255 255 255 255 255 255 255 255 255 255 255 255
255 255 255 255 255 255 255 255 255 255 255 255 255 255 255 255 255
255 255 255 255 255 255 255 255 255 255 255 255 255 255 255 255 255
255 255 255 255 255 255 255 255 255 255 255 255 255 255 255 255 255
255 255 255 255 255 255 255 255 255 255 255 136 135 135 135 135 135
135 136 136 136 136 136 136 136 136 136 136 136 136 135 135 135 134
134 134 134 134 134 134 135 135 135 135 135 135 135 135 135 134 134
134 133 133 133 132 128 81 53 53 53 53 53 53 44 38 26 26
27 28 29 29 30 30 30 28 28 27 41 41 42 44 44 45 45
43 43 43 43 47 64 56 40 31 31 47 47 47 47 47 47 47
51 100 111 118 126 132 145 153 153 155 156 156 157 157 156 155 151
143 124 122 112 95 77 47 47 19 19 18 18 17 17 17 17 21
31 31 57 57 72 72 72 68 74 74 74 74 74 69 67 67 67
67 47 32 32 32 31 30 28 28 28 28 28 29 29 30 31 31
32 32 31 31 31 31 25 25 25 24 24 24 22 19 12 11 11
11 11 11 12 13 14 16 17 18 19 20 33 57 69 125 172 181
222 222 222 222 195 152 152 191 191 197 197 197 195 195 195 209 224
223 223 158 107 121 130 141 141 164 172 175 175 175 175 173 173 163
160 145 145 144 143 142 140 139 138 137 137 136 135 135 134 134 134
134 135 135 136 136 137 137 137 137 137 137 137 255 255 255 255 255
255 255 255 255 255 255 255 255 255 255 255 255 255 255 255 255 255
255 255 255 255 255 255 255 255 255 255 255 255 255 255 255 255 255
255 255 255 255 255 255 255 255 255 255 255 255 255 255 255 255 255
255 255 255 255 255 255 255 255 255 255 255 255 255 255 255 255 255
255 255 255 255 255 255 255 255 255 255 255 255 255 255 255 255 255
255 255 255 255 255 255 255 255 255 255 255 255 255 255 255 255 255
255 255 255 255 255 255 255 255 255 255 255 255 255 255 255 255 255
255 255 255 255 255 255 255 255 255 255 255 255 255 255 255 255 255
255 255 255 255 255 255 255 255 255 255 255 255 255 255 255 255 255
255 255 255 255 255 255 255 255 255 255 255 255 255 255 255 255 255
255 255 255 255 255 255 255 255 255 255 255 255 255 255 255 255 255
255 255 255 255 255 255 255 255 255 255 255 255 255 255 255 255 255
255 255 255 255 255 255 255 135 135 135 135 135 135 136 136 136 136
137 137 136 136 136 136 136 136 135 135 135 134 134 134 134 133 133
134 134 134 135 135 135 136 136 135 135 135 135 134 134 133 133 132
132 127 97 53 52 52 52 52 52 38 38 27 27 27 28 29 29
24 24 23 23 24 24 29 41 41 40 45 45 45 44 44 44 44
47 47 40 40 29 29 28 28 28 28 28 28 29 45 63 81 101
103 125 134 140 140 155 156 156 157 157 158 154 148 142 121 114 101
82 33 33 30 19 19 19 18 23 26 26 26 53 56 71 75 75
77 78 78 79 79 80 80 79 79 79 70 70 67 67 61 38 32
32 31 30 28 28 28 28 28 29 30 30 32 32 32 33 32 32
31 31 26 26 25 25 24 24 24 19 19 17 15 15 14 15 15
16 16 17 17 18 19 20 20 23 65 65 127 171 205 221 221 222
201 152 152 189 189 189 189 190 193 193 193 209 212 213 222 200 107
125 130 142 142 142 142 162 171 175 177 178 173 163 160 145 145 143
142 142 141 140 139 138 137 136 136 135 135 134 134 135 135 136 136
136 137 137 137 137 137 137 137 255 255 255 255 255 255 255 255 255
255 255 255 255 255 255 255 255 255 255 255 255 255 255 255 255 255
255 255 255 255 255 255 255 255 255 255 255 255 255 255 255 255 255
255 255 255 255 255 255 255 255 255 255 255 255 255 255 255 255 255
255 255 255 255 255 255 255 255 255 255 255 255 255 255 255 255 255
255 255 255 255 255 255 255 255 255 255 255 255 255 255 255 255 255
255 255 255 255 255 255 255 255 255 255 255 255 255 255 255 255 255
255 255 255 255 255 255 255 255 255 255 255 255 255 255 255 255 255
255 255 255 255 255 255 255 255 255 255 255 255 255 255 255 255 255
255 255 255 255 255 255 255 255 255 255 255 255 255 255 255 255 255
255 255 255 255 255 255 255 255 255 255 255 255 255 255 255 255 255
255 255 255 255 255 255 255 255 255 255 255 255 255 255 255 255 255
255 255 255 255 255 255 255 255 255 255 255 255 255 255 255 255 255
255 255 255 135 135 135 135 135 135 136 136 136 137 137 137 136 136
136 136 136 135 135 135 135 134 134 133 133 133 133 133 134 134 135
135 136 136 136 136 136 135 135 134 134 134 133 131 131 127 97 51
52 52 52 43 38 36 35 34 33 33 31 30 29 24 24 23 23
24 24 25 26 35 35 45 45 45 45 45 45 45 47 47 40 40
29 29 28 28 28 28 28 29 29 35 43 72 72 72 82 124 132
137 156 157 157 158 159 159 154 149 142 121 114 101 33 33 32 31
19 19 19 19 26 26 26 55 56 70 71 75 76 76 76 76 76
76 81 81 79 79 79 70 69 67 66 64 64 57 49 36 36 28
28 28 28 29 30 30 30 32 33 33 33 33 32 31 31 26 26
26 25 25 25 24 24 23 22 21 20 19 18 18 17 17 17 18
18 19 20 20 23 41 65 82 163 173 213 213 213 212 144 144 164
189 189 189 189 193 193 193 194 199 207 207 200 178 168 142 142 142
142 142 157 171 171 178 178 178 179 179 178 145 143 142 142 141 140
139 138 138 137 136 136 135 135 135 135 135 136 136 137 137 137 137
137 137 137 136 255 255 255 255 255 255 255 255 255 255 255 255 255
255 255 255 255 255 255 255 255 255 255 255 255 255 255 255 255 255
255 255 255 255 255 255 255 255 255 255 255 255 255 255 255 255 255
255 255 255 255 255 255 255 255 255 255 255 255 255 255 255 255 255
255 255 255 255 255 255 255 255 255 255 255 255 255 255 255 255 255
255 255 255 255 255 255 255 255 255 255 255 255 255 255 255 255 255
255 255 255 255 255 255 255 255 255 255 255 255 255 255 255 255 255
255 255 255 255 255 255 255 255 255 255 255 255 255 255 255 255 255
255 255 255 255 255 255 255 255 255 255 255 255 255 255 255 255 255
255 255 255 255 255 255 255 255 255 255 255 255 255 255 255 255 255
255 255 255 255 255 255 255 255 255 255 255 255 255 255 255 255 255
255 255 255 255 255 255 255 255 255 255 255 255 255 255 255 255 255
255 255 255 255 255 255 255 255 255 255 255 255 255 255 255 255 135
135 135 135 135 135 136 136 136 137 137 137 136 136 136 136 136 135
135 135 134 134 133 133 133 133 133 133 133 134 135 135 136 136 136
136 136 136 136 134 134 134 133 131 131 129 104 51 51 51 51 43
35 35 35 34 34 33 33 30 29 20 21 22 23 23 24 25 26
35 34 45 45 45 45 45 45 45 46 47 48 49 49 28 28 28
28 28 28 29 29 34 36 36 52 72 73 116 120 136 156 157 157
158 160 160 157 149 142 121 95 75 33 33 32 31 31 31 31 39
39 48 48 55 56 70 71 71 72 72 72 73 73 73 81 81 79
78 79 70 68 67 66 64 64 59 48 40 36 35 34 32 31 30
30 30 31 33 33 34 34 34 32 30 30 27 27 26 26 26 25
24 24 25 25 26 27 28 28 28 28 25 17 18 18 18 18 18
20 25 37 70 112 133 190 178 212 212 144 144 161 161 172 180 189
193 193 194 194 199 207 207 207 190 190 180 172 142 142 142 153 156
156 170 178 193 193 193 182 148 143 142 142 141 140 140 139 138 137
137 136 135 135 135 135 135 136 137 137 137 137 137 137 137 137 137
255 255 255 255 255 255 255 255 255 255 255 255 255 255 255 255 255
255 255 255 255 255 255 255 255 255 255 255 255 255 255 255 255 255
255 255 255 255 255 255 255 255 255 255 255 255 255 255 255 255 255
255 255 255 255 255 255 255 255 255 255 255 255 255 255 255 255 255
255 255 255 255 255 255 255 255 255 255 255 255 255 255 255 255 255
255 255 255 255 255 255 255 255 255 255 255 255 255 255 255 255 255
255 255 255 255 255 255 255 255 255 255 255 255 255 255 255 255 255
255 255 255 255 255 255 255 255 255 255 255 255 255 255 255 255 255
255 255 255 255 255 255 255 255 255 255 255 255 255 255 255 255 255
255 255 255 255 255 255 255 255 255 255 255 255 255 255 255 255 255
255 255 255 255 255 255 255 255 255 255 255 255 255 255 255 255 255
255 255 255 255 255 255 255 255 255 255 255 255 255 255 255 255 255
255 255 255 255 255 255 255 255 255 255 255 255 135 135 135 135 135
136 136 136 137 137 137 137 136 136 136 136 135 135 135 135 134 134
133 133 133 133 133 133 133 134 135 135 136 136 136 136 136 136 136
135 134 134 133 131 130 130 104 52 51 50 50 44 35 35 34 34
34 33 33 18 19 19 20 22 22 23 23 26 27 34 34 41 40
46 46 48 49 49 53 54 54 55 55 55 53 35 28 28 28 29
29 34 36 36 36 53 73 90 109 136 157 157 157 162 162 162 162
146 142 112 88 75 33 33 32 32 32 40 45 45 46 48 48 55
56 59 67 67 69 69 60 61 61 61 61 76 78 78 78 70 67
67 66 64 63 59 57 40 37 37 37 37 36 34 34 35 34 34
34 34 34 34 33 30 29 28 27 27 27 26 27 27 27 40 40
40 49 49 45 34 28 25 17 17 17 17 16 16 17 25 32 47
68 111 190 168 190 211 185 122 133 156 156 180 179 193 193 194 194
209 209 209 210 210 211 191 177 177 142 141 140 140 155 170 176 193
194 194 194 164 152 148 142 141 141 140 139 139 138 137 137 136 136
136 136 136 137 137 137 138 138 138 137 137 137 137 255 255 255 255
255 255 255 255 255 255 255 255 255 255 255 255 255 255 255 255 255
255 255 255 255 255 255 255 255 255 255 255 255 255 255 255 255 255
255 255 255 255 255 255 255 255 255 255 255 255 255 255 255 255 255
255 255 255 255 255 255 255 255 255 255 255 255 255 255 255 255 255
255 255 255 255 255 255 255 255 255 255 255 255 255 255 255 255 255
255 255 255 255 255 255 255 255 255 255 255 255 255 255 255 255 255
255 255 255 255 255 255 255 255 255 255 255 255 255 255 255 255 255
255 255 255 255 255 255 255 255 255 255 255 255 255 255 255 255 255
255 255 255 255 255 255 255 255 255 255 255 255 255 255 255 255 255
255 255 255 255 255 255 255 255 255 255 255 255 255 255 255 255 255
255 255 255 255 255 255 255 255 255 255 255 255 255 255 255 255 255
255 255 255 255 255 255 255 255 255 255 255 255 255 255 255 255 255
255 255 255 255 255 255 255 255 135 135 135 135 136 136 136 137 137
137 137 137 136 136 136 136 135 135 135 135 134 134 133 133 133 132
132 132 133 133 134 135 136 136 136 136 136 136 136 135 135 134 133
131 130 130 114 52 50 50 50 44 34 34 34 33 33 33 28 18
16 16 15 22 22 23 23 25 28 30 31 41 41 52 52 52 50
50 71 95 95 75 75 75 75 75 52 52 51 51 36 36 36 36
41 53 57 72 108 136 157 157 158 164 163 163 163 146 145 112 88
89 56 56 55 53 53 53 53 46 46 38 36 36 37 38 38 48
60 60 60 60 56 59 59 60 60 60 60 60 67 67 66 62 61
59 59 58 55 54 53 38 38 36 36 35 35 35 35 35 35 35
34 29 29 28 27 27 27 27 31 42 42 51 51 51 51 51 50
37 37 24 17 17 17 16 16 16 17 25 29 33 67 79 174 168
168 211 207 122 122 149 149 152 156 172 178 189 206 209 209 210 210
211 211 212 205 187 148 141 140 140 140 167 176 193 194 195 195 196
165 165 142 141 141 141 140 139 138 138 137 136 136 136 136 136 137
137 138 138 138 138 137 137 137 137 255 255 255 255 255 255 255 255
255 255 255 255 255 255 255 255 255 255 255 255 255 255 255 255 255
255 255 255 255 255 255 255 255 255 255 255 255 255 255 255 255 255
255 255 255 255 255 255 255 255 255 255 255 255 255 255 255 255 255
255 255 255 255 255 255 255 255 255 255 255 255 255 255 255 255 255
255 255 255 255 255 255 255 255 255 255 255 255 255 255 255 255 255
255 255 255 255 255 255 255 255 255 255 255 255 255 255 255 255 255
255 255 255 255 255 255 255 255 255 255 255 255 255 255 255 255 255
255 255 255 255 255 255 255 255 255 255 255 255 255 255 255 255 255
255 255 255 255 255 255 255 255 255 255 255 255 255 255 255 255 255
255 255 255 255 255 255 255 255 255 255 255 255 255 255 255 255 255
255 255 255 255 255 255 255 255 255 255 255 255 255 255 255 255 255
255 255 255 255 255 255 255 255 255 255 255 255 255 255 255 255 255
255 255 255 255 135 135 136 136 136 136 136 137 137 137 137 137 137
136 136 136 136 135 135 135 135 133 133 133 132 132 132 132 133 133
133 135 136 136 136 137 137 136 136 136 135 134 134 131 131 130 114
53 51 50 50 45 34 34 33 33 32 28 16 15 15 15 15 20
22 22 23 24 28 28 31 41 41 53 53 53 54 54 76 113 113
113 92 92 81 81 75 75 65 62 57 56 56 55 54 54 60 72
88 121 156 156 159 164 164 164 162 145 145 112 89 89 57 57 57
56 56 55 55 54 46 27 27 21 21 21 21 22 35 35 35 35
35 50 58 58 58 59 59 60 60 60 60 61 61 59 58 58 57
56 52 50 50 36 36 36 35 35 35 35 35 35 35 30 29 28
27 27 27 27 34 42 42 51 51 52 51 51 49 38 36 24 17
16 16 15 15 15 16 25 29 32 50 52 149 149 139 181 214 130
122 122 132 132 138 150 150 168 181 208 209 210 210 211 212 212 205
205 195 176 140 128 139 148 166 172 190 195 196 196 188 178 163 142
141 141 140 139 139 138 137 137 137 136 136 137 137 137 138 138 138
138 138 137 137 137 255 255 255 255 255 255 255 255 255 255 255 255
255 255 255 255 255 255 255 255 255 255 255 255 255 255 255 255 255
255 255 255 255 255 255 255 255 255 255 255 255 255 255 255 255 255
255 255 255 255 255 255 255 255 255 255 255 255 255 255 255 255 255
255 255 255 255 255 255 255 255 255 255 255 255 255 255 255 255 255
255 255 255 255 255 255 255 255 255 255 255 255 255 255 255 255 255
255 255 255 255 255 255 255 255 255 255 255 255 255 255 255 255 255
255 255 255 255 255 255 255 255 255 255 255 255 255 255 255 255 255
255 255 255 255 255 255 255 255 255 255 255 255 255 255 255 255 255
255 255 255 255 255 255 255 255 255 255 255 255 255 255 255 255 255
255 255 255 255 255 255 255 255 255 255 255 255 255 255 255 255 255
255 255 255 255 255 255 255 255 255 255 255 255 255 255 255 255 255
255 255 255 255 255 255 255 255 255 255 255 255 255 255 255 255 255
136 136 136 136 136 137 137 137 137 137 137 137 137 136 136 136 136
136 136 135 135 134 133 133 133 132 132 132 133 133 133 135 135 136
136 136 137 136 136 136 135 135 134 132 131 123 115 53 51 50 50
45 34 34 27 15 15 14 14 14 14 14 14 13 22 22 23 26
27 27 28 41 41 53 53 54 54 54 74 113 113 113 94 94 89
81 75 75 65 64 64 65 65 72 71 71 71 72 88 121 156 156
160 164 164 164 160 145 145 120 89 89 69 69 69 69 57 57 57
53 24 21 21 21 21 21 21 22 23 24 25 27 28 31 31 31
58 59 59 59 60 60 60 60 60 59 59 58 58 59 60 56 56
52 37 37 38 37 36 36 36 36 36 30 28 28 27 27 27 27
34 42 42 50 51 53 54 54 49 38 36 24 16 16 15 15 15
15 15 15 15 28 29 52 57 131 139 154 214 195 122 122 122 132
132 132 149 149 149 208 209 210 210 211 212 213 214 215 216 191 165
128 128 148 148 156 164 196 196 196 197 197 190 172 142 142 140 140
139 138 138 137 137 137 137 137 137 137 138 138 138 138 138 137 137
137 255 255 255 255 255 255 255 255 255 255 255 255 255 255 255 255
255 255 255 255 255 255 255 255 255 255 255 255 255 255 255 255 255
255 255 255 255 255 255 255 255 255 255 255 255 255 255 255 255 255
255 255 255 255 255 255 255 255 255 255 255 255 255 255 255 255 255
255 255 255 255 255 255 255 255 255 255 255 255 255 255 255 255 255
255 255 255 255 255 255 255 255 255 255 255 255 255 255 255 255 255
255 255 255 255 255 255 255 255 255 255 255 255 255 255 255 255 255
255 255 255 255 255 255 255 255 255 255 255 255 255 255 255 255 255
255 255 255 255 255 255 255 255 255 255 255 255 255 255 255 255 255
255 255 255 255 255 255 255 255 255 255 255 255 255 255 255 255 255
255 255 255 255 255 255 255 255 255 255 255 255 255 255 255 255 255
255 255 255 255 255 255 255 255 255 255 255 255 255 255 255 255 255
255 255 255 255 255 255 255 255 255 255 255 255 255 136 136 136 137
137 137 137 137 137 137 137 137 137 137 136 136 136 136 136 135 135
134 134 133 133 133 133 133 133 133 134 135 135 136 136 136 137 137
136 136 136 135 135 132 132 123 117 65 51 50 50 50 42 34 17
15 15 14 14 14 13 13 12 12 11 11 11 11 24 27 27 37
37 47 53 54 54 55 74 112 113 113 94 94 89 81 60 60 64
64 64 65 65 72 77 88 88 88 88 120 155 155 160 164 164 164
148 145 145 120 100 90 89 70 70 70 61 61 61 43 24 21 21
21 21 21 21 22 23 25 26 27 28 28 23 23 23 41 56 56
56 56 56 57 58 58 59 59 59 60 61 61 60 52 40 38 38
39 39 39 38 37 37 31 31 27 27 27 27 27 35 42 42 50
56 56 55 54 49 39 20 16 16 15 15 15 14 15 15 15 15
29 29 46 57 89 135 144 211 211 127 115 122 122 122 126 128 138
138 189 189 204 204 212 212 213 218 218 219 219 209 142 128 128 133
139 164 196 196 197 197 198 198 189 147 142 140 140 139 139 138 138
137 137 137 137 137 137 137 138 138 138 138 137 137 137 255 255 255
255 255 255 255 255 255 255 255 255 255 255 255 255 255 255 255 255
255 255 255 255 255 255 255 255 255 255 255 255 255 255 255 255 255
255 255 255 255 255 255 255 255 255 255 255 255 255 255 255 255 255
255 255 255 255 255 255 255 255 255 255 255 255 255 255 255 255 255
255 255 255 255 255 255 255 255 255 255 255 255 255 255 255 255 255
255 255 255 255 255 255 255 255 255 255 255 255 255 255 255 255 255
255 255 255 255 255 255 255 255 255 255 255 255 255 255 255 255 255
255 255 255 255 255 255 255 255 255 255 255 255 255 255 255 255 255
255 255 255 255 255 255 255 255 255 255 255 255 255 255 255 255 255
255 255 255 255 255 255 255 255 255 255 255 255 255 255 255 255 255
255 255 255 255 255 255 255 255 255 255 255 255 255 255 255 255 255
255 255 255 255 255 255 255 255 255 255 255 255 255 255 255 255 255
255 255 255 255 255 255 255 255 255 137 137 137 137 137 137 137 137
137 137 137 137 137 137 136 136 136 136 136 135 135 135 134 133 133
133 133 133 133 133 134 135 135 136 136 137 137 137 136 136 136 135
135 134 134 134 118 67 51 51 50 50 42 34 17 16 15 14 14
13 13 12 12 11 11 11 11 11 12 12 21 21 34 47 49 54
55 55 71 112 112 106 81 81 61 51 51 53 64 64 64 65 65
72 88 88 88 89 89 120 155 155 161 162 163 163 145 145 126 116
100 91 89 70 70 70 64 64 62 43 24 24 21 21 21 21 24
24 25 25 26 26 28 28 23 23 23 23 23 23 23 23 55 57
58 58 59 60 61 61 61 62 63 63 64 60 41 39 39 39 39
38 37 31 31 26 26 26 26 26 35 42 42 49 56 56 55 49
49 41 19 17 16 15 15 15 14 14 15 15 16 20 20 22 35
66 90 133 133 191 189 115 102 103 103 109 109 109 112 154 169 169
189 195 195 195 219 219 223 223 223 175 128 128 129 129 152 152 195
197 198 198 198 198 187 153 140 140 140 139 139 138 138 137 137 137
137 137 137 137 138 138 138 137 137 137 255 255 255 255 255 255 255
255 255 255 255 255 255 255 255 255 255 255 255 255 255 255 255 255
255 255 255 255 255 255 255 255 255 255 255 255 255 255 255 255 255
255 255 255 255 255 255 255 255 255 255 255 255 255 255 255 255 255
255 255 255 255 255 255 255 255 255 255 255 255 255 255 255 255 255
255 255 255 255 255 255 255 255 255 255 255 255 255 255 255 255 255
255 255 255 255 255 255 255 255 255 255 255 255 255 255 255 255 255
255 255 255 255 255 255 255 255 255 255 255 255 255 255 255 255 255
255 255 255 255 255 255 255 255 255 255 255 255 255 255 255 255 255
255 255 255 255 255 255 255 255 255 255 255 255 255 255 255 255 255
255 255 255 255 255 255 255 255 255 255 255 255 255 255 255 255 255
255 255 255 255 255 255 255 255 255 255 255 255 255 255 255 255 255
255 255 255 255 255 255 255 255 255 255 255 255 255 255 255 255 255
255 255 255 255 255 138 138 138 138 138 137 137 137 137 137 137 137
137 136 136 136 136 136 136 136 135 135 134 134 134 133 133 134 134
135 135 135 136 136 136 136 137 137 136 136 136 136 135 135 134 134
118 100 52 52 53 53 43 34 17 16 15 14 14 13 13 12 12
11 11 11 11 11 12 12 14 15 30 30 43 49 54 61 67 103
103 86 71 51 51 48 47 47 64 64 64 65 65 87 91 91 90
89 89 119 154 155 161 161 162 162 145 145 120 116 99 93 89 70
70 70 64 64 63 42 42 42 31 25 37 37 53 57 115 42 42
42 62 68 68 23 23 23 23 23 23 23 52 52 58 59 60 61
61 62 62 67 76 76 65 65 57 40 40 39 39 39 37 32 32
25 26 26 26 26 29 43 46 49 56 56 48 49 49 26 19 17
16 15 15 15 14 14 15 15 16 19 21 21 22 22 53 106 133
144 189 175 101 100 99 98 98 98 106 122 136 147 154 192 192 192
219 219 223 223 223 218 171 128 129 129 129 147 179 192 198 199 200
200 200 182 140 140 140 139 139 138 138 137 137 137 137 137 137 137
138 138 138 138 138 137 255 255 255 255 255 255 255 255 255 255 255
255 255 255 255 255 255 255 255 255 255 255 255 255 255 255 255 255
255 255 255 255 255 255 255 255 255 255 255 255 255 255 255 255 255
255 255 255 255 255 255 255 255 255 255 255 255 255 255 255 255 255
255 255 255 255 255 255 255 255 255 255 255 255 255 255 255 255 255
255 255 255 255 255 255 255 255 255 255 255 255 255 255 255 255 255
255 255 255 255 255 255 255 255 255 255 255 255 255 255 255 255 255
255 255 255 255 255 255 255 255 255 255 255 255 255 255 255 255 255
255 255 255 255 255 255 255 255 255 255 255 255 255 255 255 255 255
255 255 255 255 255 255 255 255 255 255 255 255 255 255 255 255 255
255 255 255 255 255 255 255 255 255 255 255 255 255 255 255 255 255
255 255 255 255 255 255 255 255 255 255 255 255 255 255 255 255 255
255 255 255 255 255 255 255 255 255 255 255 255 255 255 255 255 255
255 138 138 138 138 138 137 137 137 137 137 137 137 136 136 136 136
136 136 136 136 135 135 135 134 134 134 134 135 135 135 136 136 136
136 136 136 137 137 136 136 136 136 135 135 134 134 133 100 71 53
53 53 43 37 17 17 15 15 14 13 13 13 12 12 11 11 11
11 12 12 14 14 14 30 34 49 51 61 61 82 82 72 63 21
21 24 24 25 25 41 52 58 65 87 93 107 108 89 89 118 154
154 161 161 161 155 136 137 120 116 99 94 89 84 71 71 65 65
65 42 42 42 40 40 41 41 77 77 161 89 89 42 72 120 121
65 32 23 23 23 23 23 38 38 38 43 43 62 67 67 67 67
76 76 67 67 57 53 53 53 52 52 37 32 32 24 23 23 23
23 29 43 46 48 48 48 48 48 49 21 20 20 19 18 15 15
14 14 15 15 16 19 20 21 21 21 37 79 113 141 155 175 155
91 91 90 90 90 90 91 113 134 154 166 181 192 219 219 223 223
223 219 217 172 137 129 129 147 179 192 198 200 200 207 207 207 161
140 140 140 139 139 138 138 137 137 137 137 137 137 138 138 138 138
138 138 255 255 255 255 255 255 255 255 255 255 255 255 255 255 255
255 255 255 255 255 255 255 255 255 255 255 255 255 255 255 255 255
255 255 255 255 255 255 255 255 255 255 255 255 255 255 255 255 255
255 255 255 255 255 255 255 255 255 255 255 255 255 255 255 255 255
255 255 255 255 255 255 255 255 255 255 255 255 255 255 255 255 255
255 255 255 255 255 255 255 255 255 255 255 255 255 255 255 255 255
255 255 255 255 255 255 255 255 255 255 255 255 255 255 255 255 255
255 255 255 255 255 255 255 255 255 255 255 255 255 255 255 255 255
255 255 255 255 255 255 255 255 255 255 255 255 255 255 255 255 255
255 255 255 255 255 255 255 255 255 255 255 255 255 255 255 255 255
255 255 255 255 255 255 255 255 255 255 255 255 255 255 255 255 255
255 255 255 255 255 255 255 255 255 255 255 255 255 255 255 255 255
255 255 255 255 255 255 255 255 255 255 255 255 255 255 138 138 138
138 138 137 137 137 137 137 136 136 136 136 136 136 136 136 136 136
136 135 135 135 135 135 135 135 135 136 136 136 136 136 137 137 137
137 136 136 136 136 136 135 135 134 133 115 100 70 70 58 44 44
18 18 18 18 17 16 15 14 13 12 12 11 11 11 12 12 13
14 14 18 24 47 51 51 51 82 82 62 21 21 21 22 23 24
25 26 40 58 61 81 93 108 108 101 98 117 153 153 153 153 153
149 136 136 120 105 99 95 89 84 75 71 66 66 65 66 66 57
56 56 56 56 78 87 130 89 117 72 72 122 122 122 87 58 23
23 23 23 38 38 38 42 43 62 68 67 67 74 76 76 77 77
78 69 53 53 52 52 45 32 32 23 23 23 23 22 29 44 46
47 46 47 47 47 30 22 21 20 20 18 15 15 15 14 15 15
16 18 19 20 21 21 21 47 79 137 155 155 173 111 91 90 90
90 90 90 99 116 128 154 167 185 219 220 223 223 223 219 217 205
157 129 129 142 142 163 198 200 201 207 207 207 207 156 140 140 139
139 139 138 138 137 137 137 137 138 138 138 138 138 138 138 255 255
255 255 255 255 255 255 255 255 255 255 255 255 255 255 255 255 255
255 255 255 255 255 255 255 255 255 255 255 255 255 255 255 255 255
255 255 255 255 255 255 255 255 255 255 255 255 255 255 255 255 255
255 255 255 255 255 255 255 255 255 255 255 255 255 255 255 255 255
255 255 255 255 255 255 255 255 255 255 255 255 255 255 255 255 255
255 255 255 255 255 255 255 255 255 255 255 255 255 255 255 255 255
255 255 255 255 255 255 255 255 255 255 255 255 255 255 255 255 255
255 255 255 255 255 255 255 255 255 255 255 255 255 255 255 255 255
255 255 255 255 255 255 255 255 255 255 255 255 255 255 255 255 255
255 255 255 255 255 255 255 255 255 255 255 255 255 255 255 255 255
255 255 255 255 255 255 255 255 255 255 255 255 255 255 255 255 255
255 255 255 255 255 255 255 255 255 255 255 255 255 255 255 255 255
255 255 255 255 255 255 255 255 255 255 138 138 138 138 138 137 137
137 136 136 136 136 136 136 136 136 136 136 136 136 136 136 135 135
135 135 135 135 136 136 136 137 137 137 137 137 137 137 136 136 136
136 136 135 135 134 133 115 100 72 70 69 60 60 20 19 20 18
17 16 15 14 13 13 12 12 12 12 12 12 13 13 14 17 22
40 40 44 44 53 79 42 20 21 21 22 23 25 39 39 40 58
61 81 93 96 109 111 114 117 153 153 152 153 153 136 136 124 120
105 98 96 89 89 84 84 66 66 66 66 66 57 57 62 89 60
78 78 78 78 117 90 90 122 123 123 91 79 58 23 23 24 39
39 40 41 67 72 72 73 76 76 76 89 87 78 78 70 53 53
52 52 46 32 32 23 23 23 22 22 29 44 45 45 45 46 33
30 30 22 23 22 21 18 15 15 14 14 15 15 16 17 19 19
20 20 21 28 51 101 140 140 173 173 105 90 90 90 105 117 116
116 128 137 150 185 191 220 222 222 222 220 220 220 189 141 132 132
137 163 175 178 198 208 208 209 209 187 143 140 140 140 139 139 138
138 138 138 138 138 138 138 138 138 138 139 255 255 255 255 255 255
255 255 255 255 255 255 255 255 255 255 255 255 255 255 255 255 255
255 255 255 255 255 255 255 255 255 255 255 255 255 255 255 255 255
255 255 255 255 255 255 255 255 255 255 255 255 255 255 255 255 255
255 255 255 255 255 255 255 255 255 255 255 255 255 255 255 255 255
255 255 255 255 255 255 255 255 255 255 255 255 255 255 255 255 255
255 255 255 255 255 255 255 255 255 255 255 255 255 255 255 255 255
255 255 255 255 255 255 255 255 255 255 255 255 255 255 255 255 255
255 255 255 255 255 255 255 255 255 255 255 255 255 255 255 255 255
255 255 255 255 255 255 255 255 255 255 255 255 255 255 255 255 255
255 255 255 255 255 255 255 255 255 255 255 255 255 255 255 255 255
255 255 255 255 255 255 255 255 255 255 255 255 255 255 255 255 255
255 255 255 255 255 255 255 255 255 255 255 255 255 255 255 255 255
255 255 255 255 255 255 138 138 138 138 137 137 136 136 136 136 136
136 136 136 136 136 136 136 136 136 136 136 136 135 135 135 136 136
136 137 137 137 137 137 137 137 137 136 136 136 136 136 136 135 135
134 133 133 104 76 70 70 70 70 57 25 24 24 23 16 15 15
14 13 13 12 12 12 12 12 12 12 12 17 17 17 22 22 22
53 72 42 20 20 20 22 29 59 59 114 61 61 61 96 96 96
105 111 115 116 152 152 152 151 136 136 136 124 117 105 98 96 89
89 89 84 82 80 80 75 67 57 57 62 101 76 78 78 78 78
96 90 90 122 123 123 95 61 58 39 39 39 39 39 69 79 79
79 84 91 91 90 90 89 88 86 78 70 53 53 52 52 46 36
32 23 23 22 22 22 29 43 42 44 44 45 31 31 30 29 23
22 22 21 15 14 14 14 14 15 15 16 18 18 19 20 20 20
39 39 107 115 156 173 170 109 105 105 105 117 167 149 149 149 150
185 191 220 222 221 221 220 220 220 199 182 145 137 137 137 158 178
198 208 209 209 210 210 151 140 140 140 139 139 139 138 138 138 138
138 138 138 138 139 139 139 255 255 255 255 255 255 255 255 255 255
255 255 255 255 255 255 255 255 255 255 255 255 255 255 255 255 255
255 255 255 255 255 255 255 255 255 255 255 255 255 255 255 255 255
255 255 255 255 255 255 255 255 255 255 255 255 255 255 255 255 255
255 255 255 255 255 255 255 255 255 255 255 255 255 255 255 255 255
255 255 255 255 255 255 255 255 255 255 255 255 255 255 255 255 255
255 255 255 255 255 255 255 255 255 255 255 255 255 255 255 255 255
255 255 255 255 255 255 255 255 255 255 255 255 255 255 255 255 255
255 255 255 255 255 255 255 255 255 255 255 255 255 255 255 255 255
255 255 255 255 255 255 255 255 255 255 255 255 255 255 255 255 255
255 255 255 255 255 255 255 255 255 255 255 255 255 255 255 255 255
255 255 255 255 255 255 255 255 255 255 255 255 255 255 255 255 255
255 255 255 255 255 255 255 255 255 255 255 255 255 255 255 255 255
255 255 138 137 137 137 137 136 136 136 136 136 136 136 136 137 137
137 137 137 137 136 136 136 136 136 136 136 136 136 137 137 137 138
138 137 137 137 137 136 136 136 136 136 136 135 135 134 133 133 104
84 84 73 73 74 57 25 26 26 26 26 22 15 14 14 13 13
12 12 12 12 12 12 12 13 14 17 18 19 21 47 52 42 20
20 20 32 32 86 86 147 97 97 71 115 115 106 106 106 117 116
151 151 151 151 136 136 136 116 105 97 96 96 90 89 89 84 82
82 82 82 67 57 57 86 111 105 78 78 79 78 96 96 136 136
123 123 95 61 58 43 45 45 45 62 79 79 79 93 93 101 101
102 102 102 88 86 79 73 73 54 55 56 46 36 31 23 22 22
22 23 28 40 41 43 43 32 31 31 30 30 28 22 22 21 15
14 14 14 14 14 15 16 17 17 18 19 19 19 22 26 45 82
128 157 170 127 106 106 119 119 170 188 188 166 150 178 178 196 221
221 221 220 220 220 220 216 175 161 137 137 154 167 198 198 210 210
211 211 211 150 141 141 140 139 139 139 138 138 138 138 138 139 139
139 139 139 255 255 255 255 255 255 255 255 255 255 255 255 255 255
255 255 255 255 255 255 255 255 255 255 255 255 255 255 255 255 255
255 255 255 255 255 255 255 255 255 255 255 255 255 255 255 255 255
255 255 255 255 255 255 255 255 255 255 255 255 255 255 255 255 255
255 255 255 255 255 255 255 255 255 255 255 255 255 255 255 255 255
255 255 255 255 255 255 255 255 255 255 255 255 255 255 255 255 255
255 255 255 255 255 255 255 255 255 255 255 255 255 255 255 255 255
255 255 255 255 255 255 255 255 255 255 255 255 255 255 255 255 255
255 255 255 255 255 255 255 255 255 255 255 255 255 255 255 255 255
255 255 255 255 255 255 255 255 255 255 255 255 255 255 255 255 255
255 255 255 255 255 255 255 255 255 255 255 255 255 255 255 255 255
255 255 255 255 255 255 255 255 255 255 255 255 255 255 255 255 255
255 255 255 255 255 255 255 255 255 255 255 255 255 255 255 137 137
137 136 136 136 136 136 136 136 137 137 137 137 137 137 137 137 137
137 137 136 136 136 136 136 136 137 137 137 138 138 138 138 137 137
137 136 136 136 136 136 135 135 135 134 134 133 116 84 84 79 76
75 75 48 48 48 47 46 43 15 15 14 14 13 13 12 12 12
12 12 12 12 12 17 17 18 22 46 52 42 33 33 33 33 33
86 86 107 97 136 82 147 147 117 112 112 117 135 150 150 150 146
136 136 136 116 97 97 96 96 91 97 97 99 99 119 119 119 76
61 61 86 135 135 79 79 79 85 96 117 136 136 123 123 75 62
54 46 45 46 50 62 88 93 93 93 93 101 101 103 103 102 92
86 79 73 73 62 57 57 46 37 31 23 22 22 23 23 27 31
40 42 41 29 31 31 30 30 29 21 19 18 15 15 14 13 13
13 13 14 16 17 17 18 18 19 22 22 27 72 115 125 148 148
116 116 120 121 170 188 193 193 151 157 177 193 195 195 220 220 220
220 220 216 191 175 137 137 139 167 180 198 211 211 211 212 212 204
149 141 140 140 139 139 139 139 139 139 139 139 139 139 139 139 255
255 255 255 255 255 255 255 255 255 255 255 255 255 255 255 255 255
255 255 255 255 255 255 255 255 255 255 255 255 255 255 255 255 255
255 255 255 255 255 255 255 255 255 255 255 255 255 255 255 255 255
255 255 255 255 255 255 255 255 255 255 255 255 255 255 255 255 255
255 255 255 255 255 255 255 255 255 255 255 255 255 255 255 255 255
255 255 255 255 255 255 255 255 255 255 255 255 255 255 255 255 255
255 255 255 255 255 255 255 255 255 255 255 255 255 255 255 255 255
255 255 255 255 255 255 255 255 255 255 255 255 255 255 255 255 255
255 255 255 255 255 255 255 255 255 255 255 255 255 255 255 255 255
255 255 255 255 255 255 255 255 255 255 255 255 255 255 255 255 255
255 255 255 255 255 255 255 255 255 255 255 255 255 255 255 255 255
255 255 255 255 255 255 255 255 255 255 255 255 255 255 255 255 255
255 255 255 255 255 255 255 255 255 255 255 137 136 136 136 136 136
136 136 136 136 137 137 137 137 137 137 137 137 137 137 137 137 136
136 136 136 137 137 137 138 138 138 138 138 137 137 137 136 136 136
136 136 136 135 135 134 134 133 133 98 95 78 76 76 76 76 51
51 52 52 52 22 15 14 14 14 13 12 12 12 11 11 12 12
12 14 17 17 23 34 42 42 33 33 33 65 65 81 81 82 83
136 159 162 162 147 136 132 122 135 149 149 149 146 132 125 115 110
98 97 97 97 97 97 98 99 99 119 119 119 76 76 76 93 135
135 81 80 80 85 97 117 136 136 106 94 66 62 54 54 54 57
69 83 88 93 104 104 105 106 105 104 104 103 92 86 86 73 73
62 58 58 47 38 26 23 22 22 23 23 26 31 39 38 28 28
31 31 31 30 30 21 18 17 16 15 14 13 13 13 13 14 15
16 16 17 17 16 16 16 16 43 56 125 129 129 128 124 123 122
136 173 193 193 151 152 177 193 194 195 218 220 220 220 220 217 217
211 208 136 136 167 167 198 211 212 212 212 213 213 175 141 140 140
140 140 139 139 139 139 139 139 139 139 139 139 255 255 255 255 255
255 255 255 255 255 255 255 255 255 255 255 255 255 255 255 255 255
255 255 255 255 255 255 255 255 255 255 255 255 255 255 255 255 255
255 255 255 255 255 255 255 255 255 255 255 255 255 255 255 255 255
255 255 255 255 255 255 255 255 255 255 255 255 255 255 255 255 255
255 255 255 255 255 255 255 255 255 255 255 255 255 255 255 255 255
255 255 255 255 255 255 255 255 255 255 255 255 255 255 255 255 255
255 255 255 255 255 255 255 255 255 255 255 255 255 255 255 255 255
255 255 255 255 255 255 255 255 255 255 255 255 255 255 255 255 255
255 255 255 255 255 255 255 255 255 255 255 255 255 255 255 255 255
255 255 255 255 255 255 255 255 255 255 255 255 255 255 255 255 255
255 255 255 255 255 255 255 255 255 255 255 255 255 255 255 255 255
255 255 255 255 255 255 255 255 255 255 255 255 255 255 255 255 255
255 255 255 255 255 255 255 134 135 135 135 135 135 135 136 136 136
137 137 137 137 137 137 137 137 137 137 137 137 137 137 136 137 137
137 137 138 138 139 138 138 138 137 137 136 136 136 136 136 136 135
135 134 134 133 133 102 95 78 77 76 76 76 75 60 60 61 61
56 47 34 14 14 14 13 12 12 11 11 11 12 12 14 16 17
24 34 34 34 34 34 60 70 78 78 78 82 83 133 159 203 203
192 136 132 132 137 149 148 148 140 120 119 103 100 98 97 97 97
98 98 98 100 103 119 119 119 78 86 96 101 101 101 81 81 80
99 98 116 116 114 94 94 66 66 60 60 69 69 69 88 88 104
104 107 107 107 107 106 106 103 92 87 87 87 74 72 58 58 47
38 26 23 22 22 22 23 24 24 25 25 26 27 31 31 31 31
31 21 18 16 15 15 14 13 13 13 13 14 14 15 15 15 15
16 16 16 16 21 56 94 116 116 127 127 123 122 136 162 170 207
187 149 158 171 194 194 218 218 219 219 219 219 218 218 217 136 135
145 167 198 209 212 212 213 213 213 213 162 141 140 140 140 140 140
140 139 139 139 140 140 139 139 255 255 255 255 255 255 255 255 255
255 255 255 255 255 255 255 255 255 255 255 255 255 255 255 255 255
255 255 255 255 255 255 255 255 255 255 255 255 255 255 255 255 255
255 255 255 255 255 255 255 255 255 255 255 255 255 255 255 255 255
255 255 255 255 255 255 255 255 255 255 255 255 255 255 255 255 255
255 255 255 255 255 255 255 255 255 255 255 255 255 255 255 255 255
255 255 255 255 255 255 255 255 255 255 255 255 255 255 255 255 255
255 255 255 255 255 255 255 255 255 255 255 255 255 255 255 255 255
255 255 255 255 255 255 255 255 255 255 255 255 255 255 255 255 255
255 255 255 255 255 255 255 255 255 255 255 255 255 255 255 255 255
255 255 255 255 255 255 255 255 255 255 255 255 255 255 255 255 255
255 255 255 255 255 255 255 255 255 255 255 255 255 255 255 255 255
255 255 255 255 255 255 255 255 255 255 255 255 255 255 255 255 255
255 255 255 134 135 135 135 135 135 135 136 136 137 137 137 137 137
137 137 137 137 137 137 137 137 137 137 137 137 137 137 138 138 139
139 138 138 138 137 137 137 136 136 136 136 136 136 135 135 134 133
133 102 102 78 77 76 76 76 75 60 60 61 62 62 62 35 15
14 15 12 12 12 11 11 11 12 12 14 15 19 24 34 34 34
34 34 60 78 78 78 78 82 84 122 160 203 203 203 136 136 137
137 146 147 146 140 120 118 103 101 98 98 98 98 98 99 99 102
107 134 134 133 113 101 101 101 101 101 81 81 82 99 99 103 103
103 94 94 87 87 81 81 81 81 101 102 102 104 105 107 108 108
107 106 106 106 98 87 87 87 82 79 59 59 47 46 25 23 22
22 22 23 24 24 24 24 25 27 31 31 31 31 31 22 19 16
15 14 14 13 13 13 13 13 14 14 14 15 15 15 16 16 16
17 35 53 69 103 127 127 126 121 121 152 156 207 207 149 158 170
170 194 218 217 219 219 219 220 218 218 219 174 135 134 160 185 191
212 212 213 213 213 214 214 141 141 141 140 140 140 140 140 140 140
140 140 140 140 255 255 255 255 255 255 255 255 255 255 255 255 255
255 255 255 255 255 255 255 255 255 255 255 255 255 255 255 255 255
255 255 255 255 255 255 255 255 255 255 255 255 255 255 255 255 255
255 255 255 255 255 255 255 255 255 255 255 255 255 255 255 255 255
255 255 255 255 255 255 255 255 255 255 255 255 255 255 255 255 255
255 255 255 255 255 255 255 255 255 255 255 255 255 255 255 255 255
255 255 255 255 255 255 255 255 255 255 255 255 255 255 255 255 255
255 255 255 255 255 255 255 255 255 255 255 255 255 255 255 255 255
255 255 255 255 255 255 255 255 255 255 255 255 255 255 255 255 255
255 255 255 255 255 255 255 255 255 255 255 255 255 255 255 255 255
255 255 255 255 255 255 255 255 255 255 255 255 255 255 255 255 255
255 255 255 255 255 255 255 255 255 255 255 255 255 255 255 255 255
255 255 255 255 255 255 255 255 255 255 255 255 255 255 255 255 134
134 135 135 135 135 135 136 136 137 137 137 138 138 138 137 137 137
137 137 137 137 137 137 137 137 137 138 138 138 139 139 139 138 138
138 137 137 137 137 136 136 136 136 136 135 135 133 133 132 112 78
77 76 76 75 75 65 64 63 62 62 62 61 34 16 15 12 12
12 11 11 11 12 12 14 15 19 25 33 34 39 39 54 65 90
90 78 78 83 85 122 165 196 196 196 135 136 142 145 146 146 146
122 121 118 103 103 102 101 100 99 100 100 100 103 107 134 139 139
118 118 106 103 103 103 99 99 99 105 107 107 107 107 107 93 93
93 92 92 95 106 109 109 110 110 109 108 108 109 110 110 110 105
100 95 88 87 87 80 59 59 57 46 24 23 21 21 21 21 20
20 21 22 22 28 30 30 30 30 30 22 19 15 15 15 14 14
13 13 13 13 13 14 14 14 15 15 15 16 16 17 26 26 69
76 103 121 121 121 120 130 155 184 201 172 158 161 170 173 198 208
219 219 219 220 221 221 221 221 170 134 133 173 191 195 212 212 213
213 214 214 168 151 141 141 141 141 140 140 140 140 140 140 140 140
255 255 255 255 255 255 255 255 255 255 255 255 255 255 255 255 255
255 255 255 255 255 255 255 255 255 255 255 255 255 255 255 255 255
255 255 255 255 255 255 255 255 255 255 255 255 255 255 255 255 255
255 255 255 255 255 255 255 255 255 255 255 255 255 255 255 255 255
255 255 255 255 255 255 255 255 255 255 255 255 255 255 255 255 255
255 255 255 255 255 255 255 255 255 255 255 255 255 255 255 255 255
255 255 255 255 255 255 255 255 255 255 255 255 255 255 255 255 255
255 255 255 255 255 255 255 255 255 255 255 255 255 255 255 255 255
255 255 255 255 255 255 255 255 255 255 255 255 255 255 255 255 255
255 255 255 255 255 255 255 255 255 255 255 255 255 255 255 255 255
255 255 255 255 255 255 255 255 255 255 255 255 255 255 255 255 255
255 255 255 255 255 255 255 255 255 255 255 255 255 255 255 255 255
255 255 255 255 255 255 255 255 255 255 255 255 135 135 135 135 135
135 135 136 136 137 137 137 138 138 138 137 137 137 137 137 137 137
137 137 137 137 138 138 138 139 139 139 139 139 138 138 138 137 137
137 137 137 136 136 136 136 135 135 133 132 112 78 77 76 75 75
74 73 72 63 62 62 61 61 46 16 16 12 12 12 11 11 11
12 12 14 15 20 25 33 34 39 69 69 70 90 90 84 84 84
85 122 132 152 142 142 135 135 142 145 145 145 141 122 121 117 103
103 103 102 102 102 101 101 101 105 107 130 139 139 133 118 106 106
106 106 106 106 106 113 114 114 114 113 113 106 106 106 106 107 107
107 111 111 110 110 109 109 109 110 110 111 110 105 100 95 88 87
87 80 67 59 57 53 23 23 22 17 17 17 18 18 19 21 22
28 29 30 30 30 30 22 19 15 15 15 14 14 13 13 13 13
13 13 14 14 14 15 15 16 16 17 25 26 27 71 103 121 121
120 120 117 155 165 198 198 158 151 169 172 198 198 216 216 218 221
222 224 225 226 220 153 132 132 174 195 212 212 212 214 214 214 215
172 145 141 141 141 141 140 140 140 140 140 140 140 255 255 255 255
255 255 255 255 255 255 255 255 255 255 255 255 255 255 255 255 255
255 255 255 255 255 255 255 255 255 255 255 255 255 255 255 255 255
255 255 255 255 255 255 255 255 255 255 255 255 255 255 255 255 255
255 255 255 255 255 255 255 255 255 255 255 255 255 255 255 255 255
255 255 255 255 255 255 255 255 255 255 255 255 255 255 255 255 255
255 255 255 255 255 255 255 255 255 255 255 255 255 255 255 255 255
255 255 255 255 255 255 255 255 255 255 255 255 255 255 255 255 255
255 255 255 255 255 255 255 255 255 255 255 255 255 255 255 255 255
255 255 255 255 255 255 255 255 255 255 255 255 255 255 255 255 255
255 255 255 255 255 255 255 255 255 255 255 255 255 255 255 255 255
255 255 255 255 255 255 255 255 255 255 255 255 255 255 255 255 255
255 255 255 255 255 255 255 255 255 255 255 255 255 255 255 255 255
255 255 255 255 255 255 255 255 135 135 135 135 135 135 135 136 136
137 137 138 138 138 138 138 137 137 137 137 137 137 137 137 138 138
138 138 139 139 139 139 139 139 139 139 138 138 137 137 137 137 137
137 136 136 136 135 133 133 132 106 81 75 75 74 74 74 72 71
71 62 61 60 59 43 30 12 12 12 12 11 11 12 12 15 15
20 25 28 34 52 69 69 70 74 84 84 84 84 99 121 124 124
125 126 128 135 145 145 145 145 141 122 122 112 112 103 103 103 103
102 102 101 101 107 107 127 138 138 137 120 111 111 112 112 113 114
115 115 115 115 115 115 115 109 109 109 109 109 110 110 116 117 117
117 114 114 113 112 111 111 111 105 101 95 93 92 85 81 67 60
56 53 46 24 24 17 17 17 17 18 19 20 22 28 28 28 29
29 29 22 22 15 15 15 15 14 14 14 13 13 13 13 13 13
14 14 15 16 16 18 25 26 27 71 103 121 121 120 108 108 145
165 196 198 196 162 165 165 175 192 192 211 217 222 222 225 226 226
220 189 132 132 158 173 211 211 210 210 214 215 215 215 170 142 142
141 141 141 140 140 140 140 140 140 255 255 255 255 255 255 255 255
255 255 255 255 255 255 255 255 255 255 255 255 255 255 255 255 255
255 255 255 255 255 255 255 255 255 255 255 255 255 255 255 255 255
255 255 255 255 255 255 255 255 255 255 255 255 255 255 255 255 255
255 255 255 255 255 255 255 255 255 255 255 255 255 255 255 255 255
255 255 255 255 255 255 255 255 255 255 255 255 255 255 255 255 255
255 255 255 255 255 255 255 255 255 255 255 255 255 255 255 255 255
255 255 255 255 255 255 255 255 255 255 255 255 255 255 255 255 255
255 255 255 255 255 255 255 255 255 255 255 255 255 255 255 255 255
255 255 255 255 255 255 255 255 255 255 255 255 255 255 255 255 255
255 255 255 255 255 255 255 255 255 255 255 255 255 255 255 255 255
255 255 255 255 255 255 255 255 255 255 255 255 255 255 255 255 255
255 255 255 255 255 255 255 255 255 255 255 255 255 255 255 255 255
255 255 255 255 135 135 136 136 136 136 136 136 137 137 137 138 138
138 138 138 138 137 137 137 138 138 138 138 138 138 138 139 139 139
139 139 139 139 139 139 138 138 138 137 137 137 137 137 137 136 136
136 133 132 132 106 81 75 74 74 74 74 71 65 65 63 58 59
58 57 30 12 12 12 12 11 11 12 12 16 16 20 24 24 34
64 71 71 71 73 85 94 94 115 118 121 124 124 125 126 127 135
145 152 152 150 140 122 122 112 112 106 105 104 103 103 102 109 109
108 108 110 131 138 137 128 126 121 121 121 121 116 116 115 115 115
116 116 116 116 116 116 115 115 115 115 118 118 118 118 118 119 119
119 112 112 112 104 102 99 93 92 85 84 67 62 56 54 46 24
25 17 17 17 17 17 18 20 22 27 27 28 28 28 28 22 21
20 19 17 15 15 14 14 13 13 13 13 13 13 14 14 15 16
16 18 25 25 27 75 121 122 122 120 108 108 123 157 175 201 201
185 165 165 166 173 192 210 216 222 222 226 226 226 227 209 131 109
123 156 203 210 210 210 215 215 215 215 212 148 142 142 141 141 140
140 140 140 140 140 255 255 255 255 255 255 255 255 255 255 255 255
255 255 255 255 255 255 255 255 255 255 255 255 255 255 255 255 255
255 255 255 255 255 255 255 255 255 255 255 255 255 255 255 255 255
255 255 255 255 255 255 255 255 255 255 255 255 255 255 255 255 255
255 255 255 255 255 255 255 255 255 255 255 255 255 255 255 255 255
255 255 255 255 255 255 255 255 255 255 255 255 255 255 255 255 255
255 255 255 255 255 255 255 255 255 255 255 255 255 255 255 255 255
255 255 255 255 255 255 255 255 255 255 255 255 255 255 255 255 255
255 255 255 255 255 255 255 255 255 255 255 255 255 255 255 255 255
255 255 255 255 255 255 255 255 255 255 255 255 255 255 255 255 255
255 255 255 255 255 255 255 255 255 255 255 255 255 255 255 255 255
255 255 255 255 255 255 255 255 255 255 255 255 255 255 255 255 255
255 255 255 255 255 255 255 255 255 255 255 255 255 255 255 255 255
137 137 137 136 136 136 137 137 137 137 137 138 138 138 138 138 138
138 138 138 138 138 138 138 138 138 139 139 139 139 140 140 140 140
140 139 139 138 138 138 138 137 137 137 137 137 136 136 136 132 132
106 96 77 74 68 69 69 70 64 64 58 58 58 57 56 55 38
12 12 12 11 12 12 12 16 16 20 24 24 34 64 106 106 91
93 103 105 110 116 118 119 120 120 121 121 128 154 153 153 153 150
140 122 122 114 113 112 112 111 112 112 110 110 109 109 109 111 118
137 137 131 126 122 122 122 122 123 123 123 123 123 123 123 123 129
129 123 122 122 121 121 121 121 122 122 123 123 120 119 113 113 112
104 103 99 93 91 90 84 67 67 61 61 46 28 26 17 17 17
17 17 17 20 23 27 27 27 27 27 27 26 26 25 20 18 15
15 14 14 13 12 12 12 13 13 13 14 15 16 16 24 25 25
33 85 124 141 140 135 108 108 123 138 171 201 202 203 181 166 166
173 192 210 215 215 219 226 227 227 227 227 190 109 109 141 191 199
199 199 215 215 215 215 216 182 142 142 141 141 140 140 140 140 140
140 255 255 255 255 255 255 255 255 255 255 255 255 255 255 255 255
255 255 255 255 255 255 255 255 255 255 255 255 255 255 255 255 255
255 255 255 255 255 255 255 255 255 255 255 255 255 255 255 255 255
255 255 255 255 255 255 255 255 255 255 255 255 255 255 255 255 255
255 255 255 255 255 255 255 255 255 255 255 255 255 255 255 255 255
255 255 255 255 255 255 255 255 255 255 255 255 255 255 255 255 255
255 255 255 255 255 255 255 255 255 255 255 255 255 255 255 255 255
255 255 255 255 255 255 255 255 255 255 255 255 255 255 255 255 255
255 255 255 255 255 255 255 255 255 255 255 255 255 255 255 255 255
255 255 255 255 255 255 255 255 255 255 255 255 255 255 255 255 255
255 255 255 255 255 255 255 255 255 255 255 255 255 255 255 255 255
255 255 255 255 255 255 255 255 255 255 255 255 255 255 255 255 255
255 255 255 255 255 255 255 255 255 255 255 255 255 138 137 137 137
137 137 137 137 137 137 138 138 138 138 138 138 138 138 138 138 138
138 138 138 139 139 139 139 140 140 140 140 140 140 140 140 139 139
138 138 138 138 137 137 137 137 137 136 136 132 132 132 96 96 73
67 64 64 64 64 64 52 51 51 52 52 52 39 16 12 12 12
12 12 12 16 16 20 21 24 37 64 107 107 107 109 112 117 117
117 118 119 120 120 120 121 129 154 156 156 156 150 137 122 116 115
114 114 114 114 113 112 113 114 111 111 110 112 118 129 132 131 131
130 130 129 133 133 137 140 140 135 135 137 136 136 136 134 130 131
131 130 130 130 129 128 128 127 121 118 114 114 112 105 104 99 90
90 90 84 68 68 62 60 46 28 27 17 17 16 16 17 17 21
23 24 26 26 26 26 26 26 25 25 19 18 15 14 14 13 13
12 12 12 13 13 14 14 15 16 21 24 32 33 33 92 141 141
140 135 124 124 124 138 146 188 201 204 205 199 167 172 191 209 209
209 218 227 227 227 227 227 220 141 109 136 184 199 199 199 215 215
215 216 216 216 164 142 141 140 140 140 139 139 140 140 255 255 255
255 255 255 255 255 255 255 255 255 255 255 255 255 255 255 255 255
255 255 255 255 255 255 255 255 255 255 255 255 255 255 255 255 255
255 255 255 255 255 255 255 255 255 255 255 255 255 255 255 255 255
255 255 255 255 255 255 255 255 255 255 255 255 255 255 255 255 255
255 255 255 255 255 255 255 255 255 255 255 255 255 255 255 255 255
255 255 255 255 255 255 255 255 255 255 255 255 255 255 255 255 255
255 255 255 255 255 255 255 255 255 255 255 255 255 255 255 255 255
255 255 255 255 255 255 255 255 255 255 255 255 255 255 255 255 255
255 255 255 255 255 255 255 255 255 255 255 255 255 255 255 255 255
255 255 255 255 255 255 255 255 255 255 255 255 255 255 255 255 255
255 255 255 255 255 255 255 255 255 255 255 255 255 255 255 255 255
255 255 255 255 255 255 255 255 255 255 255 255 255 255 255 255 255
255 255 255 255 255 255 255 255 255 138 138 138 138 138 137 137 137
137 137 138 138 138 138 138 138 138 138 138 138 138 138 139 139 139
139 139 140 140 140 140 140 140 140 140 140 139 139 139 138 138 138
138 137 137 137 137 137 136 136 136 132 116 96 73 67 64 63 62
61 61 53 50 47 47 52 52 39 33 12 12 12 12 12 12 16
16 20 21 24 42 70 112 107 107 109 118 118 118 118 119 119 120
120 120 121 141 157 157 156 156 150 130 122 118 119 119 118 118 114
114 115 115 115 114 114 114 113 118 125 132 132 136 136 135 135 135
137 141 141 140 140 139 139 139 139 139 139 138 131 131 131 130 130
130 129 128 127 122 116 115 115 113 106 99 99 90 90 89 69 68
68 62 59 46 30 30 18 16 16 16 16 16 16 18 19 22 23
23 24 25 25 25 25 24 17 15 14 14 13 13 12 12 12 13
13 14 14 15 17 25 27 32 45 57 126 149 149 140 135 135 135
135 138 146 166 196 204 205 206 167 172 191 191 209 209 218 218 227
227 227 227 225 207 132 136 184 199 199 199 199 214 215 216 216 216
169 144 139 139 139 139 139 139 140 140 255 255 255 255 255 255 255
255 255 255 255 255 255 255 255 255 255 255 255 255 255 255 255 255
255 255 255 255 255 255 255 255 255 255 255 255 255 255 255 255 255
255 255 255 255 255 255 255 255 255 255 255 255 255 255 255 255 255
255 255 255 255 255 255 255 255 255 255 255 255 255 255 255 255 255
255 255 255 255 255 255 255 255 255 255 255 255 255 255 255 255 255
255 255 255 255 255 255 255 255 255 255 255 255 255 255 255 255 255
255 255 255 255 255 255 255 255 255 255 255 255 255 255 255 255 255
255 255 255 255 255 255 255 255 255 255 255 255 255 255 255 255 255
255 255 255 255 255 255 255 255 255 255 255 255 255 255 255 255 255
255 255 255 255 255 255 255 255 255 255 255 255 255 255 255 255 255
255 255 255 255 255 255 255 255 255 255 255 255 255 255 255 255 255
255 255 255 255 255 255 255 255 255 255 255 255 255 255 255 255 255
255 255 255 255 255 139 138 138 138 138 138 138 138 138 138 138 138
138 138 138 138 138 138 138 138 138 139 139 139 139 139 140 140 140
140 140 140 140 140 140 140 139 139 139 138 138 138 138 138 137 137
137 137 137 136 136 136 128 104 72 72 64 63 61 56 55 55 49
47 39 39 39 38 36 12 12 12 13 13 13 16 17 18 21 23
42 70 123 123 119 119 118 118 119 119 119 119 120 120 120 121 141
157 157 157 156 150 130 127 122 121 122 122 122 122 120 118 116 115
115 115 115 116 117 125 133 133 137 138 138 142 142 141 141 141 140
140 140 140 140 139 139 139 138 138 136 136 135 136 136 132 132 127
123 116 115 115 113 109 97 97 90 90 89 69 68 68 63 58 47
38 31 18 16 16 16 16 16 16 18 18 19 21 22 23 25 25
25 25 24 17 15 14 13 13 13 13 13 13 13 13 14 17 17
17 25 27 32 45 78 130 149 150 140 134 135 135 135 146 146 148
196 210 210 210 173 171 182 184 193 201 218 218 223 226 226 226 225
224 177 177 199 199 199 199 199 214 216 216 217 217 208 165 138 138
139 139 139 139 140 140 255 255 255 255 255 255 255 255 255 255 255
255 255 255 255 255 255 255 255 255 255 255 255 255 255 255 255 255
255 255 255 255 255 255 255 255 255 255 255 255 255 255 255 255 255
255 255 255 255 255 255 255 255 255 255 255 255 255 255 255 255 255
255 255 255 255 255 255 255 255 255 255 255 255 255 255 255 255 255
255 255 255 255 255 255 255 255 255 255 255 255 255 255 255 255 255
255 255 255 255 255 255 255 255 255 255 255 255 255 255 255 255 255
255 255 255 255 255 255 255 255 255 255 255 255 255 255 255 255 255
255 255 255 255 255 255 255 255 255 255 255 255 255 255 255 255 255
255 255 255 255 255 255 255 255 255 255 255 255 255 255 255 255 255
255 255 255 255 255 255 255 255 255 255 255 255 255 255 255 255 255
255 255 255 255 255 255 255 255 255 255 255 255 255 255 255 255 255
255 255 255 255 255 255 255 255 255 255 255 255 255 255 255 255 255
255 139 139 139 139 138 138 138 138 138 138 138 138 138 138 138 138
138 138 138 138 139 139 139 139 139 139 140 140 140 140 140 140 140
140 140 140 139 139 139 138 138 138 138 138 138 137 137 137 137 137
136 136 134 113 87 75 65 63 61 55 55 55 48 47 39 39 38
38 36 18 13 13 13 13 14 16 16 23 23 29 42 98 129 129
124 124 123 122 121 120 120 123 123 129 135 135 141 158 158 157 156
148 130 127 122 122 122 123 123 123 123 123 123 125 128 128 128 128
131 132 133 134 137 138 138 143 147 142 150 150 151 151 152 144 144
144 140 140 139 138 137 136 138 137 137 132 132 127 124 116 116 114
113 110 96 96 91 90 75 69 69 69 64 57 47 38 32 32 16
16 16 16 16 16 18 18 19 19 22 22 25 25 25 21 21 16
15 14 14 13 13 13 13 13 14 15 15 17 17 17 25 27 32
45 102 154 154 150 140 134 134 135 135 146 128 148 181 210 210 210
177 171 171 175 184 201 218 218 223 226 226 226 225 224 223 199 199
199 199 200 200 208 216 217 217 218 218 165 138 138 138 138 139 139
139 139 255 255 255 255 255 255 255 255 255 255 255 255 255 255 255
255 255 255 255 255 255 255 255 255 255 255 255 255 255 255 255 255
255 255 255 255 255 255 255 255 255 255 255 255 255 255 255 255 255
255 255 255 255 255 255 255 255 255 255 255 255 255 255 255 255 255
255 255 255 255 255 255 255 255 255 255 255 255 255 255 255 255 255
255 255 255 255 255 255 255 255 255 255 255 255 255 255 255 255 255
255 255 255 255 255 255 255 255 255 255 255 255 255 255 255 255 255
255 255 255 255 255 255 255 255 255 255 255 255 255 255 255 255 255
255 255 255 255 255 255 255 255 255 255 255 255 255 255 255 255 255
255 255 255 255 255 255 255 255 255 255 255 255 255 255 255 255 255
255 255 255 255 255 255 255 255 255 255 255 255 255 255 255 255 255
255 255 255 255 255 255 255 255 255 255 255 255 255 255 255 255 255
255 255 255 255 255 255 255 255 255 255 255 255 255 255 139 139 139
139 139 139 138 138 138 138 138 138 138 138 138 138 138 138 138 139
139 139 139 139 139 140 140 140 140 140 140 140 140 140 140 140 140
139 139 138 138 138 138 138 138 138 138 137 137 137 137 136 133 131
106 75 75 59 59 55 54 54 48 41 40 35 35 34 34 32 26
14 14 14 15 15 16 23 23 29 52 121 129 129 125 124 124 123
121 121 122 122 129 129 135 135 141 158 159 157 156 145 130 127 123
123 123 124 124 124 123 123 123 129 129 128 128 128 134 134 135 135
137 137 145 145 147 149 150 150 151 152 152 152 149 149 148 148 140
141 141 140 139 138 137 137 132 127 125 116 116 115 115 109 96 96
91 90 75 70 69 68 64 56 47 38 33 31 25 16 16 16 16
16 16 17 18 18 21 21 25 24 25 21 21 16 15 14 14 13
13 13 13 14 15 16 16 17 22 25 25 27 57 60 135 154 154
154 137 131 122 123 123 145 129 129 181 210 210 210 183 171 171 172
184 194 217 217 223 225 225 225 225 224 223 200 200 200 200 200 200
208 215 218 218 219 219 191 137 137 137 138 138 138 138 139 255 255
255 255 255 255 255 255 255 255 255 255 255 255 255 255 255 255 255
255 255 255 255 255 255 255 255 255 255 255 255 255 255 255 255 255
255 255 255 255 255 255 255 255 255 255 255 255 255 255 255 255 255
255 255 255 255 255 255 255 255 255 255 255 255 255 255 255 255 255
255 255 255 255 255 255 255 255 255 255 255 255 255 255 255 255 255
255 255 255 255 255 255 255 255 255 255 255 255 255 255 255 255 255
255 255 255 255 255 255 255 255 255 255 255 255 255 255 255 255 255
255 255 255 255 255 255 255 255 255 255 255 255 255 255 255 255 255
255 255 255 255 255 255 255 255 255 255 255 255 255 255 255 255 255
255 255 255 255 255 255 255 255 255 255 255 255 255 255 255 255 255
255 255 255 255 255 255 255 255 255 255 255 255 255 255 255 255 255
255 255 255 255 255 255 255 255 255 255 255 255 255 255 255 255 255
255 255 255 255 255 255 255 255 255 255 139 139 139 139 139 139 139
139 138 138 138 138 138 138 138 138 138 138 139 139 139 139 139 139
139 139 140 140 140 140 140 140 140 140 140 140 140 139 139 138 138
138 138 138 138 138 138 138 138 137 137 137 132 131 116 100 75 59
58 55 54 54 48 42 35 35 34 34 33 32 26 14 14 15 15
16 16 24 24 29 52 121 129 129 128 127 125 123 123 122 122 133
133 133 149 149 149 161 161 156 156 145 130 127 127 127 126 125 125
124 124 131 132 132 131 133 136 136 136 136 135 136 136 137 145 146
148 149 150 151 151 152 152 152 151 150 151 151 141 141 141 140 140
139 138 138 131 129 125 117 116 116 115 109 95 95 91 90 78 70
69 68 65 55 48 38 35 31 27 16 16 16 16 16 16 17 17
18 21 21 21 23 20 20 20 16 15 15 14 14 14 14 14 15
15 16 17 17 23 24 25 27 57 106 153 155 155 154 137 131 122
118 101 110 129 129 178 210 210 191 191 166 164 172 171 194 212 217
223 224 225 225 225 225 225 225 210 200 200 200 200 209 214 219 219
220 220 200 137 137 137 137 138 138 138 138 255 255 255 255 255 255
255 255 255 255 255 255 255 255 255 255 255 255 255 255 255 255 255
255 255 255 255 255 255 255 255 255 255 255 255 255 255 255 255 255
255 255 255 255 255 255 255 255 255 255 255 255 255 255 255 255 255
255 255 255 255 255 255 255 255 255 255 255 255 255 255 255 255 255
255 255 255 255 255 255 255 255 255 255 255 255 255 255 255 255 255
255 255 255 255 255 255 255 255 255 255 255 255 255 255 255 255 255
255 255 255 255 255 255 255 255 255 255 255 255 255 255 255 255 255
255 255 255 255 255 255 255 255 255 255 255 255 255 255 255 255 255
255 255 255 255 255 255 255 255 255 255 255 255 255 255 255 255 255
255 255 255 255 255 255 255 255 255 255 255 255 255 255 255 255 255
255 255 255 255 255 255 255 255 255 255 255 255 255 255 255 255 255
255 255 255 255 255 255 255 255 255 255 255 255 255 255 255 255 255
255 255 255 255 255 255 138 138 138 139 139 139 139 139 139 139 139
139 139 138 138 138 139 139 139 139 139 139 139 139 139 139 140 140
140 140 140 140 140 140 140 140 140 139 139 139 139 138 138 138 138
138 138 138 138 138 137 137 132 131 125 118 82 59 57 55 51 50
48 44 35 34 33 33 32 31 27 27 15 15 16 16 16 24 24
37 85 121 135 130 130 131 132 133 135 136 137 139 139 139 148 149
154 162 162 156 146 145 137 137 127 127 128 129 128 129 131 131 133
132 132 134 135 137 141 142 143 144 145 145 146 146 148 149 150 151
152 152 153 153 153 153 152 152 147 147 142 141 140 140 139 138 131
130 130 117 117 116 116 109 95 94 91 91 77 69 69 67 65 55
49 42 36 30 28 16 16 16 16 16 16 17 17 17 20 20 20
19 19 19 18 17 16 15 14 14 14 14 14 15 15 18 20 21
23 24 24 29 57 147 168 168 159 155 137 131 122 97 97 97 129
121 174 208 208 191 191 166 162 162 171 171 212 216 223 223 224 226
226 225 225 225 210 200 200 208 207 210 220 220 222 221 220 200 137
137 137 137 137 138 138 138 255 255 255 255 255 255 255 255 255 255
255 255 255 255 255 255 255 255 255 255 255 255 255 255 255 255 255
255 255 255 255 255 255 255 255 255 255 255 255 255 255 255 255 255
255 255 255 255 255 255 255 255 255 255 255 255 255 255 255 255 255
255 255 255 255 255 255 255 255 255 255 255 255 255 255 255 255 255
255 255 255 255 255 255 255 255 255 255 255 255 255 255 255 255 255
255 255 255 255 255 255 255 255 255 255 255 255 255 255 255 255 255
255 255 255 255 255 255 255 255 255 255 255 255 255 255 255 255 255
255 255 255 255 255 255 255 255 255 255 255 255 255 255 255 255 255
255 255 255 255 255 255 255 255 255 255 255 255 255 255 255 255 255
255 255 255 255 255 255 255 255 255 255 255 255 255 255 255 255 255
255 255 255 255 255 255 255 255 255 255 255 255 255 255 255 255 255
255 255 255 255 255 255 255 255 255 255 255 255 255 255 255 255 255
255 255 138 138 138 138 139 139 139 139 139 139 139 139 139 139 139
139 139 139 139 139 139 139 139 139 139 139 140 140 140 140 140 140
140 140 140 140 140 139 139 139 139 139 139 139 139 139 138 138 138
138 137 137 132 131 130 129 103 58 57 56 51 47 47 46 45 34
32 32 31 31 27 27 16 16 16 16 17 25 25 40 86 136 136
130 130 131 132 138 138 138 138 144 146 148 148 148 163 162 162 162
146 144 138 137 131 131 130 130 130 131 131 132 133 138 138 138 138
138 142 142 143 144 146 147 148 148 149 150 150 151 152 153 153 154
154 153 153 152 147 148 142 142 141 140 139 139 135 134 134 131 130
117 116 116 97 93 91 91 78 69 68 66 65 56 49 42 37 30
28 27 17 17 17 17 16 16 17 17 19 19 19 19 18 18 17
16 16 15 15 14 14 15 15 15 16 18 21 22 23 24 40 54
96 155 168 168 165 155 143 133 109 97 88 88 121 121 157 194 194
187 187 181 152 152 153 170 212 212 223 223 224 226 226 227 227 227
227 200 200 208 208 211 220 220 223 223 219 188 137 137 137 137 138
138 138 138 255 255 255 255 255 255 255 255 255 255 255 255 255 255
255 255 255 255 255 255 255 255 255 255 255 255 255 255 255 255 255
255 255 255 255 255 255 255 255 255 255 255 255 255 255 255 255 255
255 255 255 255 255 255 255 255 255 255 255 255 255 255 255 255 255
255 255 255 255 255 255 255 255 255 255 255 255 255 255 255 255 255
255 255 255 255 255 255 255 255 255 255 255 255 255 255 255 255 255
255 255 255 255 255 255 255 255 255 255 255 255 255 255 255 255 255
255 255 255 255 255 255 255 255 255 255 255 255 255 255 255 255 255
255 255 255 255 255 255 255 255 255 255 255 255 255 255 255 255 255
255 255 255 255 255 255 255 255 255 255 255 255 255 255 255 255 255
255 255 255 255 255 255 255 255 255 255 255 255 255 255 255 255 255
255 255 255 255 255 255 255 255 255 255 255 255 255 255 255 255 255
255 255 255 255 255 255 255 255 255 255 255 255 255 255 255 138 138
138 138 139 139 139 139 139 139 139 139 139 139 139 139 139 139 139
139 139 139 139 139 139 139 140 140 140 140 140 140 140 140 140 140
140 139 139 139 139 139 139 139 139 139 139 139 138 138 137 137 133
132 131 128 119 71 56 56 51 47 47 46 47 34 32 31 31 30
27 27 17 17 17 17 17 25 25 40 111 136 137 137 137 137 137
138 138 138 138 144 146 147 147 153 163 163 162 162 152 144 144 142
136 133 131 131 131 131 132 132 138 138 138 144 144 145 146 147 147
147 147 148 148 149 149 150 151 151 152 154 154 154 154 154 154 153
153 149 143 143 142 141 140 138 136 135 133 131 130 131 117 117 97
95 91 81 79 68 68 65 65 56 48 48 37 29 28 27 19 18
17 17 16 16 16 16 16 16 16 17 17 17 17 16 16 15 15
15 15 15 15 16 16 19 22 22 23 25 48 54 122 177 171 169
165 156 144 132 109 102 88 88 90 121 125 185 186 187 187 186 141
141 153 156 195 196 205 221 221 227 227 227 228 228 228 210 209 209
214 213 220 224 224 224 225 156 137 137 137 137 138 138 138 138 255
255 255 255 255 255 255 255 255 255 255 255 255 255 255 255 255 255
255 255 255 255 255 255 255 255 255 255 255 255 255 255 255 255 255
255 255 255 255 255 255 255 255 255 255 255 255 255 255 255 255 255
255 255 255 255 255 255 255 255 255 255 255 255 255 255 255 255 255
255 255 255 255 255 255 255 255 255 255 255 255 255 255 255 255 255
255 255 255 255 255 255 255 255 255 255 255 255 255 255 255 255 255
255 255 255 255 255 255 255 255 255 255 255 255 255 255 255 255 255
255 255 255 255 255 255 255 255 255 255 255 255 255 255 255 255 255
255 255 255 255 255 255 255 255 255 255 255 255 255 255 255 255 255
255 255 255 255 255 255 255 255 255 255 255 255 255 255 255 255 255
255 255 255 255 255 255 255 255 255 255 255 255 255 255 255 255 255
255 255 255 255 255 255 255 255 255 255 255 255 255 255 255 255 255
255 255 255 255 255 255 255 255 255 255 255 137 137 138 138 138 139
139 139 140 140 140 140 139 139 140 140 140 140 139 139 139 139 139
139 139 139 140 140 140 140 140 140 140 140 140 140 140 140 140 139
140 140 140 139 139 139 139 139 138 138 137 136 134 132 131 127 123
103 63 56 53 53 47 47 47 34 31 31 30 29 27 27 17 17
17 17 17 27 27 48 137 137 137 138 140 139 138 138 139 143 144
145 146 147 147 153 165 164 162 162 154 144 144 144 136 133 132 132
131 131 133 134 137 139 140 144 144 145 147 148 149 150 150 150 150
150 150 151 151 152 152 154 154 155 155 155 155 155 154 150 144 144
143 142 142 138 137 136 133 133 132 132 117 117 97 95 91 81 80
67 67 65 65 56 48 48 38 28 28 27 26 25 17 17 16 16
15 15 15 16 16 16 17 16 16 16 16 15 15 15 15 15 16
17 17 20 22 22 23 26 58 65 149 186 171 169 167 156 145 123
110 102 88 87 87 121 125 185 185 191 187 186 141 141 154 156 167
185 192 212 219 227 227 228 228 228 228 227 220 215 215 214 224 225
225 225 225 156 137 138 138 138 138 138 138 138 255 255 255 255 255
255 255 255 255 255 255 255 255 255 255 255 255 255 255 255 255 255
255 255 255 255 255 255 255 255 255 255 255 255 255 255 255 255 255
255 255 255 255 255 255 255 255 255 255 255 255 255 255 255 255 255
255 255 255 255 255 255 255 255 255 255 255 255 255 255 255 255 255
255 255 255 255 255 255 255 255 255 255 255 255 255 255 255 255 255
255 255 255 255 255 255 255 255 255 255 255 255 255 255 255 255 255
255 255 255 255 255 255 255 255 255 255 255 255 255 255 255 255 255
255 255 255 255 255 255 255 255 255 255 255 255 255 255 255 255 255
255 255 255 255 255 255 255 255 255 255 255 255 255 255 255 255 255
255 255 255 255 255 255 255 255 255 255 255 255 255 255 255 255 255
255 255 255 255 255 255 255 255 255 255 255 255 255 255 255 255 255
255 255 255 255 255 255 255 255 255 255 255 255 255 255 255 255 255
255 255 255 255 255 255 255 137 137 137 138 138 139 139 139 140 140
140 140 140 140 140 140 140 140 139 139 139 139 139 139 139 139 139
140 140 140 140 140 140 140 140 140 140 140 140 140 140 140 140 140
140 140 139 139 139 138 138 136 135 134 131 126 123 103 63 56 56
53 53 48 48 42 42 42 31 28 27 27 18 18 18 18 22 27
27 67 140 142 142 142 142 143 143 144 144 144 144 145 146 147 147
153 168 168 162 162 160 151 144 144 144 133 132 132 133 133 137 140
141 144 144 145 146 147 147 150 150 150 151 151 151 151 151 151 152
152 153 154 155 156 156 155 155 155 155 150 145 144 144 143 142 138
138 136 135 134 133 132 118 118 111 95 90 82 80 65 65 65 65
57 48 48 38 28 28 26 25 25 17 16 16 15 15 15 15 15
15 15 15 16 16 16 15 15 15 15 16 16 17 17 18 20 22
23 23 26 58 65 186 186 185 169 167 164 146 123 110 102 88 87
87 88 110 147 174 191 191 186 141 141 154 157 157 185 192 212 220
227 227 228 228 228 228 228 220 216 215 216 217 225 225 225 225 156
138 138 138 138 138 138 138 138 255 255 255 255 255 255 255 255 255
255 255 255 255 255 255 255 255 255 255 255 255 255 255 255 255 255
255 255 255 255 255 255 255 255 255 255 255 255 255 255 255 255 255
255 255 255 255 255 255 255 255 255 255 255 255 255 255 255 255 255
255 255 255 255 255 255 255 255 255 255 255 255 255 255 255 255 255
255 255 255 255 255 255 255 255 255 255 255 255 255 255 255 255 255
255 255 255 255 255 255 255 255 255 255 255 255 255 255 255 255 255
255 255 255 255 255 255 255 255 255 255 255 255 255 255 255 255 255
255 255 255 255 255 255 255 255 255 255 255 255 255 255 255 255 255
255 255 255 255 255 255 255 255 255 255 255 255 255 255 255 255 255
255 255 255 255 255 255 255 255 255 255 255 255 255 255 255 255 255
255 255 255 255 255 255 255 255 255 255 255 255 255 255 255 255 255
255 255 255 255 255 255 255 255 255 255 255 255 255 255 255 255 255
255 255 255 137 137 137 137 138 139 139 139 140 140 140 140 140 140
140 140 140 140 139 139 139 139 139 139 139 139 139 140 140 140 140
140 140 140 140 140 140 140 140 140 140 140 140 140 140 140 140 139
139 138 138 137 136 134 131 125 124 121 82 56 56 54 52 48 48
47 42 43 31 27 27 27 18 18 18 18 23 31 42 77 140 143
143 143 143 143 144 144 144 145 145 146 146 147 147 158 169 169 169
169 159 151 144 144 145 133 132 132 133 137 137 140 142 143 144 145
145 147 148 151 152 153 152 152 151 151 151 151 152 152 153 154 156
156 156 156 156 155 155 154 146 145 144 143 142 140 138 137 136 135
135 134 119 118 111 98 90 83 80 65 65 64 64 57 51 51 39
29 27 26 25 25 17 16 15 15 14 14 14 14 14 15 15 15
15 15 15 16 16 16 16 17 17 18 19 20 23 23 24 47 58
98 188 188 184 169 168 164 148 135 110 102 86 86 86 87 93 113
165 191 191 177 142 142 181 191 191 192 192 212 220 227 228 228 228
228 228 228 221 217 217 217 217 225 225 226 226 156 138 138 138 138
138 138 138 138 255 255 255 255 255 255 255 255 255 255 255 255 255
255 255 255 255 255 255 255 255 255 255 255 255 255 255 255 255 255
255 255 255 255 255 255 255 255 255 255 255 255 255 255 255 255 255
255 255 255 255 255 255 255 255 255 255 255 255 255 255 255 255 255
255 255 255 255 255 255 255 255 255 255 255 255 255 255 255 255 255
255 255 255 255 255 255 255 255 255 255 255 255 255 255 255 255 255
255 255 255 255 255 255 255 255 255 255 255 255 255 255 255 255 255
255 255 255 255 255 255 255 255 255 255 255 255 255 255 255 255 255
255 255 255 255 255 255 255 255 255 255 255 255 255 255 255 255 255
255 255 255 255 255 255 255 255 255 255 255 255 255 255 255 255 255
255 255 255 255 255 255 255 255 255 255 255 255 255 255 255 255 255
255 255 255 255 255 255 255 255 255 255 255 255 255 255 255 255 255
255 255 255 255 255 255 255 255 255 255 255 255 255 255 255 255 136
136 137 137 138 138 139 139 139 140 140 140 140 140 140 140 140 140
139 139 139 139 139 139 139 139 139 140 140 140 140 140 140 140 140
140 140 140 140 140 140 140 140 140 140 140 140 140 139 138 138 137
137 134 131 125 126 126 125 100 57 57 58 58 54 47 45 43 39
27 27 22 18 18 18 18 23 31 42 77 140 143 144 143 144 144
144 145 145 145 145 146 146 147 155 158 170 170 169 169 159 157 157
150 149 134 132 132 132 137 137 141 142 142 144 144 144 159 159 159
157 156 155 154 155 155 156 156 157 157 157 156 157 157 157 157 156
156 155 154 148 145 144 143 142 140 138 137 136 135 135 135 119 119
114 98 98 84 85 65 65 64 61 58 51 51 39 29 27 26 24
23 19 16 15 14 14 14 14 14 14 14 14 14 15 15 15 16
16 16 17 17 18 19 20 20 23 23 24 47 79 138 199 191 181
181 175 173 149 135 110 102 90 86 86 86 93 116 130 186 185 177
143 142 184 203 203 205 205 215 220 223 223 224 228 228 229 228 221
221 218 218 218 226 226 226 226 156 138 138 138 139 139 139 139 139
255 255 255 255 255 255 255 255 255 255 255 255 255 255 255 255 255
255 255 255 255 255 255 255 255 255 255 255 255 255 255 255 255 255
255 255 255 255 255 255 255 255 255 255 255 255 255 255 255 255 255
255 255 255 255 255 255 255 255 255 255 255 255 255 255 255 255 255
255 255 255 255 255 255 255 255 255 255 255 255 255 255 255 255 255
255 255 255 255 255 255 255 255 255 255 255 255 255 255 255 255 255
255 255 255 255 255 255 255 255 255 255 255 255 255 255 255 255 255
255 255 255 255 255 255 255 255 255 255 255 255 255 255 255 255 255
255 255 255 255 255 255 255 255 255 255 255 255 255 255 255 255 255
255 255 255 255 255 255 255 255 255 255 255 255 255 255 255 255 255
255 255 255 255 255 255 255 255 255 255 255 255 255 255 255 255 255
255 255 255 255 255 255 255 255 255 255 255 255 255 255 255 255 255
255 255 255 255 255 255 255 255 255 255 255 255 136 136 137 137 137
138 139 139 139 139 140 139 139 139 139 139 139 139 139 139 139 139
139 139 139 139 139 139 140 140 140 140 140 140 140 140 140 140 140
140 140 140 140 140 140 140 140 140 140 138 138 138 137 134 131 130
130 129 129 110 57 58 58 58 54 52 45 44 39 27 27 22 19
19 19 19 30 31 43 110 144 144 144 145 144 145 145 145 145 145
145 147 147 147 155 158 170 170 160 159 159 158 157 154 149 135 131
128 126 126 127 127 142 142 143 143 144 159 159 159 158 157 158 158
159 159 160 160 160 157 157 157 157 158 158 158 157 156 154 154 149
145 144 143 142 141 138 137 136 135 135 135 119 119 114 113 98 85
85 68 65 64 59 58 57 51 39 29 26 25 24 23 21 16 14
14 14 13 13 13 13 13 14 14 15 15 16 16 16 16 17 18
19 19 20 21 23 23 47 69 92 183 200 191 181 181 175 173 150
137 131 114 97 86 86 86 93 116 127 168 185 181 143 144 184 211
211 215 215 220 222 223 223 224 227 228 229 230 230 222 218 218 218
226 226 226 226 156 139 139 139 139 139 139 139 139 255 255 255 255
255 255 255 255 255 255 255 255 255 255 255 255 255 255 255 255 255
255 255 255 255 255 255 255 255 255 255 255 255 255 255 255 255 255
255 255 255 255 255 255 255 255 255 255 255 255 255 255 255 255 255
255 255 255 255 255 255 255 255 255 255 255 255 255 255 255 255 255
255 255 255 255 255 255 255 255 255 255 255 255 255 255 255 255 255
255 255 255 255 255 255 255 255 255 255 255 255 255 255 255 255 255
255 255 255 255 255 255 255 255 255 255 255 255 255 255 255 255 255
255 255 255 255 255 255 255 255 255 255 255 255 255 255 255 255 255
255 255 255 255 255 255 255 255 255 255 255 255 255 255 255 255 255
255 255 255 255 255 255 255 255 255 255 255 255 255 255 255 255 255
255 255 255 255 255 255 255 255 255 255 255 255 255 255 255 255 255
255 255 255 255 255 255 255 255 255 255 255 255 255 255 255 255 255
255 255 255 255 255 255 255 255 136 136 136 137 137 138 139 139 139
139 139 139 139 139 139 139 139 139 139 139 139 139 139 139 139 139
139 139 140 140 140 140 140 140 140 140 140 140 140 140 140 140 140
141 141 141 140 140 140 139 138 138 138 138 137 137 136 136 135 135
80 58 58 58 58 51 46 45 39 28 24 22 21 20 20 20 30
31 43 126 145 145 145 145 145 145 145 146 146 146 147 147 147 156
158 158 178 178 158 158 158 158 159 159 149 135 131 128 126 126 127
127 128 139 142 143 143 159 159 159 160 160 167 167 159 159 160 161
160 160 161 161 161 160 159 159 158 158 153 152 149 147 143 143 142
141 138 137 136 135 134 134 119 119 114 113 99 85 85 68 68 65
58 58 57 44 39 29 27 26 25 23 21 17 14 14 14 13 13
13 13 13 13 14 15 15 16 16 17 17 18 18 19 20 21 21
23 24 47 69 92 200 200 192 181 181 175 173 151 138 138 114 97
92 86 86 85 116 127 148 184 181 144 144 189 210 212 214 216 220
222 222 224 224 227 227 230 230 230 223 224 226 226 227 226 226 226
185 156 139 139 139 139 139 139 139 255 255 255 255 255 255 255 255
255 255 255 255 255 255 255 255 255 255 255 255 255 255 255 255 255
255 255 255 255 255 255 255 255 255 255 255 255 255 255 255 255 255
255 255 255 255 255 255 255 255 255 255 255 255 255 255 255 255 255
255 255 255 255 255 255 255 255 255 255 255 255 255 255 255 255 255
255 255 255 255 255 255 255 255 255 255 255 255 255 255 255 255 255
255 255 255 255 255 255 255 255 255 255 255 255 255 255 255 255 255
255 255 255 255 255 255 255 255 255 255 255 255 255 255 255 255 255
255 255 255 255 255 255 255 255 255 255 255 255 255 255 255 255 255
255 255 255 255 255 255 255 255 255 255 255 255 255 255 255 255 255
255 255 255 255 255 255 255 255 255 255 255 255 255 255 255 255 255
255 255 255 255 255 255 255 255 255 255 255 255 255 255 255 255 255
255 255 255 255 255 255 255 255 255 255 255 255 255 255 255 255 255
255 255 255 255 136 136 137 137 137 138 138 139 139 139 139 139 139
139 139 139 139 139 139 139 139 139 139 139 139 139 139 139 139 139
139 139 139 139 139 139 139 140 140 140 140 140 140 141 141 141 141
141 141 139 139 139 139 139 139 139 136 136 135 135 116 73 59 59
58 50 47 46 39 28 23 22 22 21 21 20 30 41 73 142 145
145 145 145 145 145 146 146 146 147 148 148 147 156 167 173 178 178
158 158 169 163 160 159 149 145 131 127 127 127 127 128 128 132 142
141 143 142 156 159 165 164 169 171 170 170 168 167 167 167 167 162
161 161 160 160 159 159 153 151 149 148 143 142 142 140 139 138 135
135 134 131 125 119 114 113 99 91 85 69 67 66 58 58 57 44
39 29 28 26 25 22 21 18 15 14 14 13 13 13 13 13 13
14 15 15 16 16 17 18 18 19 20 21 21 22 23 32 58 73
162 200 200 192 181 181 175 169 159 149 139 125 120 105 93 76 76
114 148 148 183 181 168 170 203 211 212 214 220 221 222 223 224 225
227 228 230 230 230 229 229 226 227 227 227 226 219 203 183 147 139
139 139 139 139 139 255 255 255 255 255 255 255 255 255 255 255 255
255 255 255 255 255 255 255 255 255 255 255 255 255 255 255 255 255
255 255 255 255 255 255 255 255 255 255 255 255 255 255 255 255 255
255 255 255 255 255 255 255 255 255 255 255 255 255 255 255 255 255
255 255 255 255 255 255 255 255 255 255 255 255 255 255 255 255 255
255 255 255 255 255 255 255 255 255 255 255 255 255 255 255 255 255
255 255 255 255 255 255 255 255 255 255 255 255 255 255 255 255 255
255 255 255 255 255 255 255 255 255 255 255 255 255 255 255 255 255
255 255 255 255 255 255 255 255 255 255 255 255 255 255 255 255 255
255 255 255 255 255 255 255 255 255 255 255 255 255 255 255 255 255
255 255 255 255 255 255 255 255 255 255 255 255 255 255 255 255 255
255 255 255 255 255 255 255 255 255 255 255 255 255 255 255 255 255
255 255 255 255 255 255 255 255 255 255 255 255 255 255 255 255 255
136 136 137 137 137 138 138 139 139 139 139 139 139 139 139 139 139
139 139 140 140 139 139 139 139 139 139 139 139 139 139 139 139 139
139 139 139 139 140 140 140 140 140 141 141 141 141 141 141 140 140
139 140 140 140 140 140 140 140 140 140 107 63 63 63 49 48 47
34 28 24 22 22 22 21 21 33 41 73 143 144 145 145 145 146
146 146 146 147 148 148 148 164 173 173 173 178 178 158 158 169 169
169 165 165 159 133 132 132 131 130 129 129 129 130 141 142 142 156
157 166 167 168 171 171 170 171 167 167 167 167 163 162 162 161 161
160 159 150 150 149 148 143 143 142 140 139 138 134 134 133 132 125
122 113 108 99 97 85 69 68 66 58 58 57 45 39 38 38 26
26 22 21 19 15 14 14 13 13 13 13 13 13 14 14 15 16
17 17 18 19 19 20 21 22 22 23 46 58 98 200 201 193 193
186 180 175 160 160 160 139 125 120 105 95 69 69 97 148 148 181
181 181 212 212 212 212 214 220 222 223 224 224 226 227 228 229 230
230 230 230 230 229 229 228 225 219 203 185 155 139 139 139 139 139
139 255 255 255 255 255 255 255 255 255 255 255 255 255 255 255 255
255 255 255 255 255 255 255 255 255 255 255 255 255 255 255 255 255
255 255 255 255 255 255 255 255 255 255 255 255 255 255 255 255 255
255 255 255 255 255 255 255 255 255 255 255 255 255 255 255 255 255
255 255 255 255 255 255 255 255 255 255 255 255 255 255 255 255 255
255 255 255 255 255 255 255 255 255 255 255 255 255 255 255 255 255
255 255 255 255 255 255 255 255 255 255 255 255 255 255 255 255 255
255 255 255 255 255 255 255 255 255 255 255 255 255 255 255 255 255
255 255 255 255 255 255 255 255 255 255 255 255 255 255 255 255 255
255 255 255 255 255 255 255 255 255 255 255 255 255 255 255 255 255
255 255 255 255 255 255 255 255 255 255 255 255 255 255 255 255 255
255 255 255 255 255 255 255 255 255 255 255 255 255 255 255 255 255
255 255 255 255 255 255 255 255 255 255 255 255 255 137 137 137 137
137 138 138 139 139 139 139 139 139 139 139 139 139 139 140 140 140
140 140 140 140 140 140 140 140 139 139 139 139 139 139 139 139 139
139 140 140 140 140 141 141 141 141 141 141 140 140 140 140 140 141
141 141 141 141 140 141 115 80 80 63 49 48 47 34 29 25 23
23 23 23 24 34 38 73 143 144 145 145 146 146 146 147 147 148
148 149 149 164 172 173 177 179 179 173 173 173 173 169 169 165 159
133 133 131 131 130 129 129 129 130 135 142 142 151 157 167 167 168
172 172 180 180 183 171 167 167 164 164 163 162 161 161 159 151 149
148 148 143 143 139 137 136 135 134 133 132 132 126 122 107 104 100
97 85 70 69 66 59 57 57 45 38 38 38 39 26 23 23 18
16 15 14 13 13 13 13 13 13 14 14 15 16 17 17 18 19
20 21 21 22 23 23 57 58 135 202 201 193 193 186 180 163 160
160 160 140 125 120 105 95 69 69 91 162 178 178 208 208 212 213
213 213 214 220 223 224 224 225 227 228 228 229 230 230 230 230 230
230 229 229 224 215 203 198 183 140 139 139 139 139 139 255 255 255
255 255 255 255 255 255 255 255 255 255 255 255 255 255 255 255 255
255 255 255 255 255 255 255 255 255 255 255 255 255 255 255 255 255
255 255 255 255 255 255 255 255 255 255 255 255 255 255 255 255 255
255 255 255 255 255 255 255 255 255 255 255 255 255 255 255 255 255
255 255 255 255 255 255 255 255 255 255 255 255 255 255 255 255 255
255 255 255 255 255 255 255 255 255 255 255 255 255 255 255 255 255
255 255 255 255 255 255 255 255 255 255 255 255 255 255 255 255 255
255 255 255 255 255 255 255 255 255 255 255 255 255 255 255 255 255
255 255 255 255 255 255 255 255 255 255 255 255 255 255 255 255 255
255 255 255 255 255 255 255 255 255 255 255 255 255 255 255 255 255
255 255 255 255 255 255 255 255 255 255 255 255 255 255 255 255 255
255 255 255 255 255 255 255 255 255 255 255 255 255 255 255 255 255
255 255 255 255 255 255 255 255 255 137 138 138 138 138 138 138 138
139 139 139 139 139 139 139 139 139 139 140 140 140 140 140 140 140
140 140 140 140 140 139 139 139 139 139 139 139 139 139 140 140 140
140 141 141 141 141 141 141 141 141 141 141 141 141 141 141 141 141
141 141 141 124 99 63 49 49 47 30 29 25 25 24 23 23 25
34 38 73 144 144 145 145 146 146 147 147 147 148 149 149 149 166
171 173 180 180 180 174 173 173 173 172 172 165 158 156 143 143 136
130 129 129 129 130 130 136 140 151 152 155 168 168 172 179 180 180
183 177 177 177 164 164 163 162 162 161 158 151 147 147 146 145 144
139 137 135 135 134 133 132 132 131 119 107 103 100 85 85 70 70
65 65 57 57 44 44 44 39 39 39 23 24 18 17 16 15 14
13 13 13 13 13 14 14 15 16 17 18 18 19 20 21 21 22
23 37 57 64 203 203 193 193 190 186 177 163 160 160 160 140 120
120 106 106 69 69 107 168 194 194 220 220 221 222 222 223 223 224
224 225 225 226 227 228 229 229 230 231 231 231 231 230 230 230 223
215 215 216 201 140 139 139 139 139 139 255 255 255 255 255 255 255
255 255 255 255 255 255 255 255 255 255 255 255 255 255 255 255 255
255 255 255 255 255 255 255 255 255 255 255 255 255 255 255 255 255
255 255 255 255 255 255 255 255 255 255 255 255 255 255 255 255 255
255 255 255 255 255 255 255 255 255 255 255 255 255 255 255 255 255
255 255 255 255 255 255 255 255 255 255 255 255 255 255 255 255 255
255 255 255 255 255 255 255 255 255 255 255 255 255 255 255 255 255
255 255 255 255 255 255 255 255 255 255 255 255 255 255 255 255 255
255 255 255 255 255 255 255 255 255 255 255 255 255 255 255 255 255
255 255 255 255 255 255 255 255 255 255 255 255 255 255 255 255 255
255 255 255 255 255 255 255 255 255 255 255 255 255 255 255 255 255
255 255 255 255 255 255 255 255 255 255 255 255 255 255 255 255 255
255 255 255 255 255 255 255 255 255 255 255 255 255 255 255 255 255
255 255 255 255 255 138 138 138 138 138 138 138 139 140 140 140 139
139 139 139 139 139 140 140 140 140 140 141 141 141 141 141 141 140
140 140 139 139 139 139 139 139 139 139 140 140 140 140 141 141 141
141 141 141 141 141 141 142 142 142 142 142 142 142 141 141 141 124
124 92 53 49 47 29 28 27 26 24 24 24 26 35 38 87 144
144 145 146 146 147 147 148 149 149 149 150 150 167 170 173 180 180
180 174 173 173 173 172 172 165 157 156 152 152 145 130 130 129 129
130 130 130 141 141 141 147 152 166 166 179 179 179 183 177 177 177
165 165 163 163 162 161 158 150 146 146 145 145 144 135 136 135 134
134 133 132 131 131 118 107 102 100 85 85 71 71 65 65 57 57
51 44 43 40 40 40 25 24 18 17 16 15 13 13 13 13 13
13 13 14 15 16 17 18 19 20 20 21 21 32 43 43 57 125
203 203 193 193 189 178 177 163 160 156 142 141 128 120 106 107 107
120 146 219 219 219 220 220 222 222 223 224 224 225 225 225 226 227
228 229 229 230 230 231 231 231 231 230 230 230 223 215 216 216 216
189 139 139 139 139 139 255 255 255 255 255 255 255 255 255 255 255
255 255 255 255 255 255 255 255 255 255 255 255 255 255 255 255 255
255 255 255 255 255 255 255 255 255 255 255 255 255 255 255 255 255
255 255 255 255 255 255 255 255 255 255 255 255 255 255 255 255 255
255 255 255 255 255 255 255 255 255 255 255 255 255 255 255 255 255
255 255 255 255 255 255 255 255 255 255 255 255 255 255 255 255 255
255 255 255 255 255 255 255 255 255 255 255 255 255 255 255 255 255
255 255 255 255 255 255 255 255 255 255 255 255 255 255 255 255 255
255 255 255 255 255 255 255 255 255 255 255 255 255 255 255 255 255
255 255 255 255 255 255 255 255 255 255 255 255 255 255 255 255 255
255 255 255 255 255 255 255 255 255 255 255 255 255 255 255 255 255
255 255 255 255 255 255 255 255 255 255 255 255 255 255 255 255 255
255 255 255 255 255 255 255 255 255 255 255 255 255 255 255 255 255
255 139 138 138 138 138 138 139 139 140 140 140 140 140 140 140 140
140 140 140 140 141 141 141 141 142 142 142 141 141 141 140 140 139
139 139 139 139 139 139 139 140 140 140 141 141 141 141 141 141 141
141 143 143 143 143 143 142 142 142 142 141 141 136 129 128 99 49
49 49 28 27 27 27 27 27 27 35 39 104 144 144 145 148 148
149 150 149 150 150 150 150 150 168 169 173 173 178 178 159 159 158
158 157 157 156 156 155 155 155 145 145 145 134 129 129 124 118 118
119 141 147 152 158 166 178 177 177 177 177 167 167 165 165 163 163
161 161 159 150 145 145 145 142 142 135 129 128 126 125 125 125 125
117 117 108 101 101 85 85 71 71 65 65 61 56 54 44 42 41
41 40 27 27 19 18 18 18 13 13 13 13 13 13 13 14 15
15 17 18 19 20 21 21 32 32 43 51 89 187 190 190 178 178
168 168 168 156 156 156 142 141 128 126 133 142 142 165 188 219 219
220 220 221 222 223 223 224 225 225 226 227 227 228 229 230 230 231
232 232 232 231 231 230 228 223 222 219 218 217 216 191 139 139 139
139 139 255 255 255 255 255 255 255 255 255 255 255 255 255 255 255
255 255 255 255 255 255 255 255 255 255 255 255 255 255 255 255 255
255 255 255 255 255 255 255 255 255 255 255 255 255 255 255 255 255
255 255 255 255 255 255 255 255 255 255 255 255 255 255 255 255 255
255 255 255 255 255 255 255 255 255 255 255 255 255 255 255 255 255
255 255 255 255 255 255 255 255 255 255 255 255 255 255 255 255 255
255 255 255 255 255 255 255 255 255 255 255 255 255 255 255 255 255
255 255 255 255 255 255 255 255 255 255 255 255 255 255 255 255 255
255 255 255 255 255 255 255 255 255 255 255 255 255 255 255 255 255
255 255 255 255 255 255 255 255 255 255 255 255 255 255 255 255 255
255 255 255 255 255 255 255 255 255 255 255 255 255 255 255 255 255
255 255 255 255 255 255 255 255 255 255 255 255 255 255 255 255 255
255 255 255 255 255 255 255 255 255 255 255 255 255 255 139 139 139
139 139 139 139 140 140 140 140 140 140 140 140 140 140 140 140 141
141 141 142 142 142 142 142 142 141 141 140 140 140 139 139 139 139
139 139 139 140 140 140 140 141 141 141 141 141 141 141 143 143 143
143 143 143 143 142 142 142 141 141 128 128 128 106 57 57 30 28
27 27 27 27 28 35 39 109 144 144 145 148 149 150 150 150 150
150 150 150 150 153 153 153 153 154 154 140 140 140 140 140 145 145
145 154 154 155 146 146 146 134 129 122 117 118 118 118 141 142 142
143 144 145 153 153 157 157 157 157 157 158 159 159 160 160 159 148
145 144 144 135 135 129 129 128 126 126 124 116 116 116 116 108 96
96 85 84 72 72 65 65 62 56 54 45 42 41 41 41 33 27
27 27 22 19 14 13 13 13 13 13 13 14 14 15 16 18 19
20 21 21 32 32 46 71 169 186 187 188 178 173 168 168 162 155
156 155 142 142 142 142 170 176 196 196 216 219 220 220 221 221 223
223 224 225 225 226 227 228 228 229 230 230 231 231 232 232 232 231
230 230 228 223 222 219 219 219 219 219 144 140 140 139 139 255 255
255 255 255 255 255 255 255 255 255 255 255 255 255 255 255 255 255
255 255 255 255 255 255 255 255 255 255 255 255 255 255 255 255 255
255 255 255 255 255 255 255 255 255 255 255 255 255 255 255 255 255
255 255 255 255 255 255 255 255 255 255 255 255 255 255 255 255 255
255 255 255 255 255 255 255 255 255 255 255 255 255 255 255 255 255
255 255 255 255 255 255 255 255 255 255 255 255 255 255 255 255 255
255 255 255 255 255 255 255 255 255 255 255 255 255 255 255 255 255
255 255 255 255 255 255 255 255 255 255 255 255 255 255 255 255 255
255 255 255 255 255 255 255 255 255 255 255 255 255 255 255 255 255
255 255 255 255 255 255 255 255 255 255 255 255 255 255 255 255 255
255 255 255 255 255 255 255 255 255 255 255 255 255 255 255 255 255
255 255 255 255 255 255 255 255 255 255 255 255 255 255 255 255 255
255 255 255 255 255 255 255 255 255 255 139 139 139 139 139 139 140
140 140 140 140 140 140 140 140 140 140 140 141 141 141 142 142 142
142 143 142 142 142 141 141 141 140 140 139 138 138 139 139 139 139
140 140 140 140 140 141 141 141 141 141 143 143 143 143 143 143 143
143 142 142 142 141 128 128 128 121 87 67 30 28 28 28 28 28
28 45 50 125 144 144 145 148 149 150 151 153 155 156 156 157 137
137 146 146 146 146 145 125 121 118 118 118 136 136 136 152 151 149
148 147 147 135 128 122 117 117 117 117 139 139 140 140 140 145 153
153 155 155 155 156 157 157 148 148 147 146 145 145 145 144 144 135
135 129 129 128 126 126 122 116 116 115 114 108 96 96 84 84 80
72 66 65 60 55 55 51 50 50 41 41 42 38 38 33 28 29
14 14 14 13 13 13 14 14 14 15 16 18 19 20 21 32 32
34 52 110 176 185 185 184 177 162 162 162 162 155 155 155 144 144
151 193 217 217 217 217 216 220 220 221 221 222 223 224 227 227 228
228 228 229 230 230 231 231 232 232 232 231 231 231 230 229 228 222
221 220 219 219 219 219 164 140 140 140 140 255 255 255 255 255 255
255 255 255 255 255 255 255 255 255 255 255 255 255 255 255 255 255
255 255 255 255 255 255 255 255 255 255 255 255 255 255 255 255 255
255 255 255 255 255 255 255 255 255 255 255 255 255 255 255 255 255
255 255 255 255 255 255 255 255 255 255 255 255 255 255 255 255 255
255 255 255 255 255 255 255 255 255 255 255 255 255 255 255 255 255
255 255 255 255 255 255 255 255 255 255 255 255 255 255 255 255 255
255 255 255 255 255 255 255 255 255 255 255 255 255 255 255 255 255
255 255 255 255 255 255 255 255 255 255 255 255 255 255 255 255 255
255 255 255 255 255 255 255 255 255 255 255 255 255 255 255 255 255
255 255 255 255 255 255 255 255 255 255 255 255 255 255 255 255 255
255 255 255 255 255 255 255 255 255 255 255 255 255 255 255 255 255
255 255 255 255 255 255 255 255 255 255 255 255 255 255 255 255 255
255 255 255 255 255 255 139 139 139 139 139 140 140 140 141 141 141
141 141 141 141 141 141 141 141 142 142 142 142 143 143 143 143 143
142 142 142 141 141 140 139 138 138 138 139 139 139 140 140 140 140
140 140 141 141 141 142 142 143 143 143 143 143 143 143 143 143 142
141 140 133 132 132 129 101 33 28 28 28 28 28 30 46 51 125
143 143 147 148 149 150 152 155 155 156 156 157 137 137 136 136 134
134 125 125 121 116 108 108 108 134 135 150 150 149 148 147 147 135
126 121 116 116 116 116 126 127 140 140 140 140 141 142 141 141 142
142 143 144 144 144 145 145 145 144 144 135 135 135 134 130 128 127
122 121 120 116 115 114 114 108 96 96 84 82 80 73 66 65 61
55 54 51 50 50 49 45 42 39 40 33 32 29 15 15 14 14
14 14 14 14 15 15 16 17 19 23 28 32 32 74 95 146 186
172 169 163 158 158 156 156 151 151 152 153 156 172 214 215 217 217
218 219 220 220 220 221 222 223 223 226 227 228 228 229 229 230 230
231 231 232 232 232 232 232 231 231 227 228 227 222 221 220 220 219
219 219 164 140 140 140 140 255 255 255 255 255 255 255 255 255 255
255 255 255 255 255 255 255 255 255 255 255 255 255 255 255 255 255
255 255 255 255 255 255 255 255 255 255 255 255 255 255 255 255 255
255 255 255 255 255 255 255 255 255 255 255 255 255 255 255 255 255
255 255 255 255 255 255 255 255 255 255 255 255 255 255 255 255 255
255 255 255 255 255 255 255 255 255 255 255 255 255 255 255 255 255
255 255 255 255 255 255 255 255 255 255 255 255 255 255 255 255 255
255 255 255 255 255 255 255 255 255 255 255 255 255 255 255 255 255
255 255 255 255 255 255 255 255 255 255 255 255 255 255 255 255 255
255 255 255 255 255 255 255 255 255 255 255 255 255 255 255 255 255
255 255 255 255 255 255 255 255 255 255 255 255 255 255 255 255 255
255 255 255 255 255 255 255 255 255 255 255 255 255 255 255 255 255
255 255 255 255 255 255 255 255 255 255 255 255 255 255 255 255 255
255 255 139 139 139 140 140 140 141 141 141 141 141 141 141 141 141
141 141 142 142 142 142 142 143 143 143 143 143 143 143 142 142 141
141 140 140 137 137 139 139 139 139 139 140 140 140 140 140 140 141
141 142 142 142 143 143 143 143 143 143 143 143 143 141 140 138 132
132 130 109 99 32 28 28 28 28 33 46 51 127 143 142 147 147
148 151 153 154 155 156 156 156 137 120 120 127 127 126 123 123 120
119 107 107 107 107 106 124 124 135 135 139 139 136 126 121 116 116
116 116 126 126 129 129 130 134 135 141 141 141 142 142 142 139 144
144 143 141 140 139 139 135 135 124 124 123 123 123 123 118 118 113
113 113 113 108 100 96 84 80 80 74 67 65 63 54 53 52 51
50 49 45 45 45 40 34 35 29 28 17 14 14 14 15 14 15
15 16 16 17 18 24 32 32 64 102 124 161 170 170 169 163 158
157 157 156 151 151 152 164 201 202 215 216 217 218 219 220 220 221
222 222 223 225 225 227 228 229 229 230 230 230 231 232 232 232 233
233 232 232 231 230 227 227 226 222 221 220 220 220 219 219 164 141
141 141 141 255 255 255 255 255 255 255 255 255 255 255 255 255 255
255 255 255 255 255 255 255 255 255 255 255 255 255 255 255 255 255
255 255 255 255 255 255 255 255 255 255 255 255 255 255 255 255 255
255 255 255 255 255 255 255 255 255 255 255 255 255 255 255 255 255
255 255 255 255 255 255 255 255 255 255 255 255 255 255 255 255 255
255 255 255 255 255 255 255 255 255 255 255 255 255 255 255 255 255
255 255 255 255 255 255 255 255 255 255 255 255 255 255 255 255 255
255 255 255 255 255 255 255 255 255 255 255 255 255 255 255 255 255
255 255 255 255 255 255 255 255 255 255 255 255 255 255 255 255 255
255 255 255 255 255 255 255 255 255 255 255 255 255 255 255 255 255
255 255 255 255 255 255 255 255 255 255 255 255 255 255 255 255 255
255 255 255 255 255 255 255 255 255 255 255 255 255 255 255 255 255
255 255 255 255 255 255 255 255 255 255 255 255 255 255 255 139 139
140 140 140 141 141 141 142 142 142 142 141 141 142 142 142 142 142
142 143 143 143 143 143 143 143 143 143 142 142 141 141 140 140 140
139 139 139 139 139 139 139 140 140 140 140 140 141 141 141 142 142
142 143 143 143 143 143 143 143 143 142 139 138 132 132 131 119 110
77 44 28 28 28 33 46 51 128 143 142 146 146 148 152 153 154
155 155 145 145 137 118 118 116 115 114 123 123 119 119 94 80 80
100 100 100 114 114 131 131 131 131 113 113 113 112 116 116 126 126
126 128 130 134 135 136 140 140 139 138 137 137 136 140 140 140 140
139 139 135 135 124 124 123 119 119 118 118 117 112 112 112 112 102
101 88 83 79 78 74 68 64 63 53 53 52 51 51 49 46 46
45 44 41 36 37 28 28 25 14 15 15 16 16 16 16 17 17
18 24 32 41 64 105 161 161 161 162 164 164 158 158 167 167 167
167 167 194 201 216 216 216 218 219 220 220 221 222 222 223 224 225
226 227 229 230 230 231 231 231 232 232 232 233 233 233 233 233 230
230 227 227 225 223 221 220 220 220 219 184 148 145 144 142 142 255
255 255 255 255 255 255 255 255 255 255 255 255 255 255 255 255 255
255 255 255 255 255 255 255 255 255 255 255 255 255 255 255 255 255
255 255 255 255 255 255 255 255 255 255 255 255 255 255 255 255 255
255 255 255 255 255 255 255 255 255 255 255 255 255 255 255 255 255
255 255 255 255 255 255 255 255 255 255 255 255 255 255 255 255 255
255 255 255 255 255 255 255 255 255 255 255 255 255 255 255 255 255
255 255 255 255 255 255 255 255 255 255 255 255 255 255 255 255 255
255 255 255 255 255 255 255 255 255 255 255 255 255 255 255 255 255
255 255 255 255 255 255 255 255 255 255 255 255 255 255 255 255 255
255 255 255 255 255 255 255 255 255 255 255 255 255 255 255 255 255
255 255 255 255 255 255 255 255 255 255 255 255 255 255 255 255 255
255 255 255 255 255 255 255 255 255 255 255 255 255 255 255 255 255
255 255 255 255 255 255 255 255 255 255 255 139 139 140 141 141 141
142 142 142 142 142 142 142 142 142 142 142 143 143 143 143 143 143
143 143 143 143 143 143 142 142 141 141 140 140 140 139 139 139 139
139 139 139 139 139 140 140 140 140 141 141 141 142 142 142 142 143
143 143 143 143 143 143 139 139 139 132 131 131 110 95 86 28 28
37 37 49 62 128 143 144 145 146 147 153 154 154 154 154 145 144
136 119 109 109 110 111 119 119 119 119 94 75 75 75 76 76 102
106 118 118 118 118 113 112 112 111 116 126 126 126 127 127 130 130
130 130 131 131 132 133 135 136 136 139 139 139 139 139 128 128 126
125 123 120 119 119 118 117 116 111 111 107 102 101 101 87 83 78
78 74 68 68 67 65 65 60 59 59 49 48 47 45 44 42 37
37 28 28 25 22 20 17 17 17 17 17 17 17 18 25 57 57
102 161 161 161 161 162 164 164 165 165 166 169 177 191 209 209 211
216 216 219 219 219 221 221 222 222 223 223 225 226 226 232 232 231
231 231 232 232 232 232 232 233 233 233 233 233 229 229 228 228 223
223 220 220 220 219 219 183 148 145 144 144 145 255 255 255 255 255
255 255 255 255 255 255 255 255 255 255 255 255 255 255 255 255 255
255 255 255 255 255 255 255 255 255 255 255 255 255 255 255 255 255
255 255 255 255 255 255 255 255 255 255 255 255 255 255 255 255 255
255 255 255 255 255 255 255 255 255 255 255 255 255 255 255 255 255
255 255 255 255 255 255 255 255 255 255 255 255 255 255 255 255 255
255 255 255 255 255 255 255 255 255 255 255 255 255 255 255 255 255
255 255 255 255 255 255 255 255 255 255 255 255 255 255 255 255 255
255 255 255 255 255 255 255 255 255 255 255 255 255 255 255 255 255
255 255 255 255 255 255 255 255 255 255 255 255 255 255 255 255 255
255 255 255 255 255 255 255 255 255 255 255 255 255 255 255 255 255
255 255 255 255 255 255 255 255 255 255 255 255 255 255 255 255 255
255 255 255 255 255 255 255 255 255 255 255 255 255 255 255 255 255
255 255 255 255 255 255 255 139 139 141 141 141 142 142 142 143 143
143 143 143 143 143 143 143 143 143 143 143 143 143 143 143 143 143
143 143 142 141 141 141 140 140 140 140 139 139 139 139 139 139 139
139 139 139 140 140 140 141 141 141 142 142 142 142 143 144 144 144
143 143 140 139 139 138 138 137 130 121 101 101 39 37 37 49 67
128 143 143 145 145 145 153 154 154 154 145 145 144 135 119 108 109
109 109 109 119 118 118 94 75 75 75 76 76 76 76 84 84 102
103 103 111 111 111 127 127 127 127 127 127 130 130 130 130 131 131
131 132 132 132 132 133 135 135 135 135 127 127 126 124 122 118 118
118 117 117 116 109 109 102 102 100 100 87 83 79 77 75 69 68
68 65 64 63 59 59 50 49 49 49 49 44 44 45 32 29 24
22 20 19 18 18 17 17 17 17 18 25 57 67 130 161 161 161
162 162 164 164 165 165 167 170 198 210 210 210 211 211 221 220 220
220 222 226 226 226 225 230 232 232 232 232 232 232 232 232 232 232
232 232 232 232 233 233 233 233 229 229 228 228 223 219 219 219 219
219 219 160 145 145 144 144 145 255 255 255 255 255 255 255 255 255
255 255 255 255 255 255 255 255 255 255 255 255 255 255 255 255 255
255 255 255 255 255 255 255 255 255 255 255 255 255 255 255 255 255
255 255 255 255 255 255 255 255 255 255 255 255 255 255 255 255 255
255 255 255 255 255 255 255 255 255 255 255 255 255 255 255 255 255
255 255 255 255 255 255 255 255 255 255 255 255 255 255 255 255 255
255 255 255 255 255 255 255 255 255 255 255 255 255 255 255 255 255
255 255 255 255 255 255 255 255 255 255 255 255 255 255 255 255 255
255 255 255 255 255 255 255 255 255 255 255 255 255 255 255 255 255
255 255 255 255 255 255 255 255 255 255 255 255 255 255 255 255 255
255 255 255 255 255 255 255 255 255 255 255 255 255 255 255 255 255
255 255 255 255 255 255 255 255 255 255 255 255 255 255 255 255 255
255 255 255 255 255 255 255 255 255 255 255 255 255 255 255 255 255
255 255 255 141 141 141 142 142 142 143 143 143 143 143 143 143 143
143 143 143 143 143 143 143 143 143 143 143 143 143 143 143 143 141
141 140 140 140 140 140 140 140 139 139 139 139 139 139 139 139 139
139 140 140 141 141 141 142 142 142 142 144 144 144 143 143 141 140
139 139 138 138 137 127 118 118 111 44 53 54 69 128 143 143 142
142 141 140 134 154 154 145 144 143 134 119 107 103 103 104 104 104
116 116 100 93 75 76 76 76 76 76 84 84 101 103 103 110 111
129 129 128 127 127 127 127 136 136 130 130 130 131 131 131 131 131
132 132 135 135 127 127 127 126 125 124 120 118 118 117 117 116 115
108 108 101 101 95 95 86 83 80 76 74 74 70 69 65 64 63
63 61 50 50 50 50 49 48 48 46 33 30 24 22 21 20 19
19 18 18 17 17 18 37 67 129 161 161 161 161 162 163 164 164
165 165 167 201 212 213 214 215 216 216 222 222 223 222 223 226 227
227 229 231 231 232 232 233 233 232 232 232 232 232 232 232 232 232
232 233 233 228 228 228 228 227 222 219 219 219 218 218 187 145 145
145 144 144 144 255 255 255 255 255 255 255 255 255 255 255 255 255
255 255 255 255 255 255 255 255 255 255 255 255 255 255 255 255 255
255 255 255 255 255 255 255 255 255 255 255 255 255 255 255 255 255
255 255 255 255 255 255 255 255 255 255 255 255 255 255 255 255 255
255 255 255 255 255 255 255 255 255 255 255 255 255 255 255 255 255
255 255 255 255 255 255 255 255 255 255 255 255 255 255 255 255 255
255 255 255 255 255 255 255 255 255 255 255 255 255 255 255 255 255
255 255 255 255 255 255 255 255 255 255 255 255 255 255 255 255 255
255 255 255 255 255 255 255 255 255 255 255 255 255 255 255 255 255
255 255 255 255 255 255 255 255 255 255 255 255 255 255 255 255 255
255 255 255 255 255 255 255 255 255 255 255 255 255 255 255 255 255
255 255 255 255 255 255 255 255 255 255 255 255 255 255 255 255 255
255 255 255 255 255 255 255 255 255 255 255 255 255 255 255 255 142
142 142 142 142 143 143 143 143 143 143 143 143 143 143 143 143 143
143 143 143 143 143 142 142 142 142 142 143 143 141 140 140 140 140
140 140 140 140 140 139 139 139 139 139 139 139 139 139 139 140 140
140 141 141 142 142 142 143 144 144 143 143 142 141 140 139 138 138
137 137 136 136 136 106 54 54 69 128 142 142 142 142 140 134 134
151 151 145 144 142 133 119 107 103 103 104 104 104 105 105 101 100
100 99 105 105 99 99 84 84 102 102 103 110 130 131 131 132 133
135 135 136 136 136 130 130 130 130 130 130 130 130 130 131 129 128
124 125 126 125 124 123 119 118 118 117 116 116 115 107 107 100 99
95 95 85 83 80 77 74 73 71 70 69 65 64 64 63 51 51
51 50 49 49 48 46 33 30 31 32 32 21 19 19 19 18 18
18 48 78 119 163 173 173 168 167 167 166 165 165 165 165 196 212
212 214 215 216 216 217 223 223 223 223 224 227 227 228 229 231 231
232 232 233 233 233 233 232 232 232 232 231 231 231 232 232 233 228
228 227 227 227 215 215 218 218 218 218 187 144 144 144 144 144 144
255 255 255 255 255 255 255 255 255 255 255 255 255 255 255 255 255
255 255 255 255 255 255 255 255 255 255 255 255 255 255 255 255 255
255 255 255 255 255 255 255 255 255 255 255 255 255 255 255 255 255
255 255 255 255 255 255 255 255 255 255 255 255 255 255 255 255 255
255 255 255 255 255 255 255 255 255 255 255 255 255 255 255 255 255
255 255 255 255 255 255 255 255 255 255 255 255 255 255 255 255 255
255 255 255 255 255 255 255 255 255 255 255 255 255 255 255 255 255
255 255 255 255 255 255 255 255 255 255 255 255 255 255 255 255 255
255 255 255 255 255 255 255 255 255 255 255 255 255 255 255 255 255
255 255 255 255 255 255 255 255 255 255 255 255 255 255 255 255 255
255 255 255 255 255 255 255 255 255 255 255 255 255 255 255 255 255
255 255 255 255 255 255 255 255 255 255 255 255 255 255 255 255 255
255 255 255 255 255 255 255 255 255 255 255 255 142 142 142 142 143
143 143 143 143 143 143 143 143 143 143 143 143 143 143 143 143 143
142 142 142 142 142 142 142 142 141 140 140 140 140 140 140 140 140
140 139 139 139 139 138 138 138 139 139 139 139 140 140 140 141 141
142 142 143 143 143 143 143 142 141 141 140 139 139 139 139 139 138
138 135 75 54 65 112 142 142 142 142 140 134 134 144 144 144 144
141 132 119 110 110 104 104 104 105 105 102 101 101 108 127 128 117
118 118 119 120 120 121 128 130 131 132 132 132 135 135 135 136 136
136 130 130 130 130 130 129 129 129 129 127 127 127 123 121 120 120
119 119 119 118 118 110 108 107 107 107 107 98 97 96 95 84 84
81 78 74 73 72 71 70 67 66 64 64 64 54 52 51 51 50
49 47 47 41 32 32 32 26 20 20 20 23 28 44 48 106 170
175 174 173 168 168 167 167 165 165 175 190 206 213 213 214 215 216
217 218 223 224 224 225 226 227 228 228 230 231 232 232 233 233 233
233 233 232 232 232 231 231 231 230 229 228 227 227 227 227 227 217
215 215 217 217 217 217 158 144 144 144 144 144 144 255 255 255 255
255 255 255 255 255 255 255 255 255 255 255 255 255 255 255 255 255
255 255 255 255 255 255 255 255 255 255 255 255 255 255 255 255 255
255 255 255 255 255 255 255 255 255 255 255 255 255 255 255 255 255
255 255 255 255 255 255 255 255 255 255 255 255 255 255 255 255 255
255 255 255 255 255 255 255 255 255 255 255 255 255 255 255 255 255
255 255 255 255 255 255 255 255 255 255 255 255 255 255 255 255 255
255 255 255 255 255 255 255 255 255 255 255 255 255 255 255 255 255
255 255 255 255 255 255 255 255 255 255 255 255 255 255 255 255 255
255 255 255 255 255 255 255 255 255 255 255 255 255 255 255 255 255
255 255 255 255 255 255 255 255 255 255 255 255 255 255 255 255 255
255 255 255 255 255 255 255 255 255 255 255 255 255 255 255 255 255
255 255 255 255 255 255 255 255 255 255 255 255 255 255 255 255 255
255 255 255 255 255 255 255 255 142 142 142 143 143 143 143 143 143
143 143 143 143 144 144 144 144 143 143 143 143 142 142 142 142 142
142 142 142 141 141 141 141 141 141 141 141 140 140 140 139 139 139
139 138 138 138 138 139 139 139 139 140 140 141 141 141 142 143 143
143 143 142 142 142 141 140 140 140 139 139 139 138 138 137 110 65
65 112 142 142 142 142 139 134 134 143 143 143 143 140 132 131 131
130 130 113 106 106 107 103 102 102 109 128 128 132 133 133 134 135
135 136 136 136 135 133 132 132 148 149 150 150 150 150 132 131 130
129 129 129 128 128 128 126 126 125 121 121 120 119 118 118 112 112
111 110 109 107 106 106 105 98 96 95 95 84 84 81 78 75 74
73 72 70 68 66 65 64 64 54 53 52 51 51 50 47 47 41
41 41 32 26 26 26 25 24 28 67 67 147 177 176 175 174 168
168 167 167 166 166 175 199 206 213 214 215 215 216 217 220 223 224
225 226 226 227 228 229 230 231 232 232 233 233 233 233 232 232 232
231 231 230 230 229 229 228 227 225 225 224 217 217 215 215 216 216
216 199 154 144 144 143 143 143 143 255 255 255 255 255 255 255 255
255 255 255 255 255 255 255 255 255 255 255 255 255 255 255 255 255
255 255 255 255 255 255 255 255 255 255 255 255 255 255 255 255 255
255 255 255 255 255 255 255 255 255 255 255 255 255 255 255 255 255
255 255 255 255 255 255 255 255 255 255 255 255 255 255 255 255 255
255 255 255 255 255 255 255 255 255 255 255 255 255 255 255 255 255
255 255 255 255 255 255 255 255 255 255 255 255 255 255 255 255 255
255 255 255 255 255 255 255 255 255 255 255 255 255 255 255 255 255
255 255 255 255 255 255 255 255 255 255 255 255 255 255 255 255 255
255 255 255 255 255 255 255 255 255 255 255 255 255 255 255 255 255
255 255 255 255 255 255 255 255 255 255 255 255 255 255 255 255 255
255 255 255 255 255 255 255 255 255 255 255 255 255 255 255 255 255
255 255 255 255 255 255 255 255 255 255 255 255 255 255 255 255 255
255 255 255 255 142 142 143 143 143 143 143 143 143 143 144 144 144
144 144 144 144 143 143 143 142 142 142 141 141 141 141 141 141 141
141 141 141 141 141 141 141 141 141 140 139 139 139 139 138 138 138
138 139 139 139 139 140 140 140 141 141 142 142 143 143 143 142 142
142 141 141 140 140 140 139 139 139 138 137 117 106 106 112 142 142
142 142 142 142 142 142 142 141 141 139 132 131 131 131 132 132 118
118 107 108 108 109 109 128 128 132 133 140 140 140 140 140 138 138
138 145 146 147 147 150 150 150 150 149 147 132 131 128 127 126 126
125 124 125 125 124 121 121 119 116 116 114 113 112 111 110 109 105
105 105 99 98 95 95 94 84 84 82 78 75 75 74 73 72 72
66 65 64 64 64 53 53 52 51 49 48 47 43 41 41 33 28
26 26 26 26 46 74 131 178 178 177 174 174 168 168 167 167 166
174 183 199 213 214 214 215 215 220 221 221 223 225 225 226 227 228
229 229 230 231 232 232 232 232 232 232 232 232 231 231 230 230 229
229 228 227 226 224 224 223 216 216 214 214 216 216 216 156 154 147
144 143 143 143 143 255 255 255 255 255 255 255 255 255 255 255 255
255 255 255 255 255 255 255 255 255 255 255 255 255 255 255 255 255
255 255 255 255 255 255 255 255 255 255 255 255 255 255 255 255 255
255 255 255 255 255 255 255 255 255 255 255 255 255 255 255 255 255
255 255 255 255 255 255 255 255 255 255 255 255 255 255 255 255 255
255 255 255 255 255 255 255 255 255 255 255 255 255 255 255 255 255
255 255 255 255 255 255 255 255 255 255 255 255 255 255 255 255 255
255 255 255 255 255 255 255 255 255 255 255 255 255 255 255 255 255
255 255 255 255 255 255 255 255 255 255 255 255 255 255 255 255 255
255 255 255 255 255 255 255 255 255 255 255 255 255 255 255 255 255
255 255 255 255 255 255 255 255 255 255 255 255 255 255 255 255 255
255 255 255 255 255 255 255 255 255 255 255 255 255 255 255 255 255
255 255 255 255 255 255 255 255 255 255 255 255 255 255 255 255 255
142 142 142 142 143 143 143 143 143 143 144 144 144 144 144 144 144
143 143 143 142 142 142 141 141 141 141 141 141 141 141 141 142 142
142 142 142 141 141 141 140 140 139 139 139 139 138 139 139 139 139
139 140 140 140 141 141 141 142 142 142 142 142 142 142 142 141 141
141 140 140 139 139 138 138 117 117 117 127 139 142 142 142 141 142
142 142 141 141 140 139 132 132 131 131 132 132 129 123 120 111 110
110 109 128 129 132 133 141 142 146 147 147 147 147 147 147 147 147
147 150 150 150 149 149 148 132 132 125 126 125 126 124 124 124 123
123 122 121 120 115 115 114 113 112 109 109 108 105 101 100 99 97
95 94 93 84 84 83 78 77 76 75 73 73 73 65 65 65 64
64 53 53 53 52 51 48 47 44 42 41 34 34 26 26 26 26
46 92 162 180 180 179 175 174 168 168 167 167 167 193 204 205 213
214 214 215 215 220 222 223 223 225 226 226 227 228 229 229 230 231
231 232 232 232 232 232 232 231 231 230 230 229 229 228 227 227 226
223 223 222 216 215 214 214 215 215 215 156 154 144 144 142 143 143
143 255 255 255 255 255 255 255 255 255 255 255 255 255 255 255 255
255 255 255 255 255 255 255 255 255 255 255 255 255 255 255 255 255
255 255 255 255 255 255 255 255 255 255 255 255 255 255 255 255 255
255 255 255 255 255 255 255 255 255 255 255 255 255 255 255 255 255
255 255 255 255 255 255 255 255 255 255 255 255 255 255 255 255 255
255 255 255 255 255 255 255 255 255 255 255 255 255 255 255 255 255
255 255 255 255 255 255 255 255 255 255 255 255 255 255 255 255 255
255 255 255 255 255 255 255 255 255 255 255 255 255 255 255 255 255
255 255 255 255 255 255 255 255 255 255 255 255 255 255 255 255 255
255 255 255 255 255 255 255 255 255 255 255 255 255 255 255 255 255
255 255 255 255 255 255 255 255 255 255 255 255 255 255 255 255 255
255 255 255 255 255 255 255 255 255 255 255 255 255 255 255 255 255
255 255 255 255 255 255 255 255 255 255 255 255 255 142 142 142 142
142 143 143 143 143 143 144 144 144 144 144 144 144 143 143 143 142
142 142 141 141 141 141 141 141 141 142 142 142 142 142 142 142 142
142 141 141 140 140 139 139 139 139 139 139 139 139 140 140 140 140
140 141 141 141 142 142 142 142 142 142 142 142 141 141 141 140 139
139 139 138 130 127 127 127 130 130 142 142 141 141 141 141 141 141
135 134 133 133 132 132 132 132 130 123 120 111 112 112 116 129 129
132 146 146 146 146 147 148 149 149 149 148 148 148 147 150 150 150
149 148 147 135 132 125 125 124 122 123 123 123 123 123 122 121 114
114 114 113 113 112 110 109 107 105 101 100 99 98 94 93 93 84
84 83 78 78 77 76 75 74 74 73 65 65 64 63 63 60 54
51 51 48 47 45 42 41 35 34 34 34 49 54 54 152 162 182
182 178 176 169 169 168 167 167 177 193 206 206 213 214 214 215 216
221 223 223 224 225 227 227 228 228 229 229 230 230 231 231 231 231
231 231 231 231 230 230 229 229 228 227 227 226 226 222 222 222 213
214 214 214 215 215 215 145 145 144 144 142 143 143 143 255 255 255
255 255 255 255 255 255 255 255 255 255 255 255 255 255 255 255 255
255 255 255 255 255 255 255 255 255 255 255 255 255 255 255 255 255
255 255 255 255 255 255 255 255 255 255 255 255 255 255 255 255 255
255 255 255 255 255 255 255 255 255 255 255 255 255 255 255 255 255
255 255 255 255 255 255 255 255 255 255 255 255 255 255 255 255 255
255 255 255 255 255 255 255 255 255 255 255 255 255 255 255 255 255
255 255 255 255 255 255 255 255 255 255 255 255 255 255 255 255 255
255 255 255 255 255 255 255 255 255 255 255 255 255 255 255 255 255
255 255 255 255 255 255 255 255 255 255 255 255 255 255 255 255 255
255 255 255 255 255 255 255 255 255 255 255 255 255 255 255 255 255
255 255 255 255 255 255 255 255 255 255 255 255 255 255 255 255 255
255 255 255 255 255 255 255 255 255 255 255 255 255 255 255 255 255
255 255 255 255 255 255 255 255 255 142 142 142 142 142 142 142 143
143 143 144 144 144 144 144 144 144 143 143 143 142 142 142 141 141
141 141 141 141 141 142 142 142 142 143 143 143 142 142 142 141 141
140 140 140 139 139 139 139 140 140 140 140 140 140 140 141 141 141
141 141 141 142 142 142 142 142 142 141 141 140 140 140 139 139 134
128 128 130 130 130 138 140 140 139 136 136 136 135 135 134 133 133
135 135 135 132 130 123 120 116 116 116 116 128 131 131 146 146 147
147 148 149 149 150 150 149 149 149 149 150 150 150 150 145 145 135
132 124 124 123 122 122 122 122 122 122 122 122 114 114 114 113 113
112 109 108 107 105 101 100 99 98 93 93 92 85 83 83 79 79
78 77 76 75 74 74 74 67 64 63 62 61 55 51 51 49 47
45 42 41 36 34 34 34 49 63 103 183 183 183 182 177 176 169
169 169 168 177 177 193 206 206 214 214 215 215 216 221 224 225 225
226 226 227 228 228 229 229 230 230 230 230 231 231 231 231 231 231
230 229 229 228 228 227 226 226 226 218 218 212 213 213 209 209 209
209 193 145 145 144 144 143 143 143 143 255 255 255 255 255 255 255
255 255 255 255 255 255 255 255 255 255 255 255 255 255 255 255 255
255 255 255 255 255 255 255 255 255 255 255 255 255 255 255 255 255
255 255 255 255 255 255 255 255 255 255 255 255 255 255 255 255 255
255 255 255 255 255 255 255 255 255 255 255 255 255 255 255 255 255
255 255 255 255 255 255 255 255 255 255 255 255 255 255 255 255 255
255 255 255 255 255 255 255 255 255 255 255 255 255 255 255 255 255
255 255 255 255 255 255 255 255 255 255 255 255 255 255 255 255 255
255 255 255 255 255 255 255 255 255 255 255 255 255 255 255 255 255
255 255 255 255 255 255 255 255 255 255 255 255 255 255 255 255 255
255 255 255 255 255 255 255 255 255 255 255 255 255 255 255 255 255
255 255 255 255 255 255 255 255 255 255 255 255 255 255 255 255 255
255 255 255 255 255 255 255 255 255 255 255 255 255 255 255 255 255
255 255 255 255 255 141 141 141 141 141 142 142 143 143 143 143 144
144 144 144 144 144 144 143 143 142 142 142 141 141 141 141 141 141
142 142 142 143 143 143 143 143 143 143 142 142 141 141 140 140 140
140 140 140 140 140 140 140 140 140 141 141 141 141 141 141 141 141
142 142 142 142 142 142 142 141 140 140 140 140 139 139 138 138 130
130 130 139 139 139 135 135 134 134 134 134 133 133 135 135 135 134
130 130 130 123 121 121 120 128 131 131 148 148 147 147 150 150 150
151 150 150 149 149 150 151 151 151 147 142 134 133 126 124 123 123
122 121 121 122 122 122 122 122 121 121 121 121 113 112 109 108 107
106 105 100 99 92 93 92 88 85 83 82 81 80 81 81 81 81
81 74 74 69 69 63 62 61 57 53 52 49 48 46 42 41 37
35 34 34 49 103 184 184 184 184 182 177 177 170 170 169 169 177
177 207 207 207 214 214 215 215 217 225 225 225 225 226 226 227 227
228 228 229 229 229 230 230 230 230 231 231 230 230 230 229 228 228
227 226 226 225 225 218 218 212 211 210 209 208 208 189 148 144 144
144 144 144 144 143 143 255 255 255 255 255 255 255 255 255 255 255
255 255 255 255 255 255 255 255 255 255 255 255 255 255 255 255 255
255 255 255 255 255 255 255 255 255 255 255 255 255 255 255 255 255
255 255 255 255 255 255 255 255 255 255 255 255 255 255 255 255 255
255 255 255 255 255 255 255 255 255 255 255 255 255 255 255 255 255
255 255 255 255 255 255 255 255 255 255 255 255 255 255 255 255 255
255 255 255 255 255 255 255 255 255 255 255 255 255 255 255 255 255
255 255 255 255 255 255 255 255 255 255 255 255 255 255 255 255 255
255 255 255 255 255 255 255 255 255 255 255 255 255 255 255 255 255
255 255 255 255 255 255 255 255 255 255 255 255 255 255 255 255 255
255 255 255 255 255 255 255 255 255 255 255 255 255 255 255 255 255
255 255 255 255 255 255 255 255 255 255 255 255 255 255 255 255 255
255 255 255 255 255 255 255 255 255 255 255 255 255 255 255 255 255
255 141 141 141 141 141 141 142 142 143 143 143 144 144 144 144 144
144 144 143 143 143 142 142 142 141 141 141 141 141 142 142 142 143
143 143 143 143 143 143 143 142 142 141 141 141 140 140 141 141 141
141 141 141 141 141 141 141 141 140 140 141 141 141 142 142 142 143
143 142 142 143 141 141 140 140 140 139 138 138 130 130 131 131 131
134 134 134 134 133 133 133 133 133 135 134 134 134 131 131 130 127
124 125 126 127 134 134 148 149 149 150 150 150 152 152 151 151 151
151 151 151 151 151 147 142 133 133 126 124 122 122 119 120 120 120
121 123 123 124 127 127 120 120 115 116 116 108 107 106 106 100 99
92 92 92 88 86 83 82 82 81 81 81 81 81 81 77 77 76
76 64 62 60 58 53 52 51 50 47 43 41 39 40 40 40 49
119 185 185 185 184 177 177 176 170 170 170 170 200 200 207 207 208
214 215 215 215 217 225 225 225 226 226 226 227 227 228 228 229 229
229 229 229 230 229 230 230 230 230 229 229 228 227 227 226 225 225
225 216 209 209 207 207 207 207 208 189 144 144 144 144 144 144 144
144 144 255 255 255 255 255 255 255 255 255 255 255 255 255 255 255
255 255 255 255 255 255 255 255 255 255 255 255 255 255 255 255 255
255 255 255 255 255 255 255 255 255 255 255 255 255 255 255 255 255
255 255 255 255 255 255 255 255 255 255 255 255 255 255 255 255 255
255 255 255 255 255 255 255 255 255 255 255 255 255 255 255 255 255
255 255 255 255 255 255 255 255 255 255 255 255 255 255 255 255 255
255 255 255 255 255 255 255 255 255 255 255 255 255 255 255 255 255
255 255 255 255 255 255 255 255 255 255 255 255 255 255 255 255 255
255 255 255 255 255 255 255 255 255 255 255 255 255 255 255 255 255
255 255 255 255 255 255 255 255 255 255 255 255 255 255 255 255 255
255 255 255 255 255 255 255 255 255 255 255 255 255 255 255 255 255
255 255 255 255 255 255 255 255 255 255 255 255 255 255 255 255 255
255 255 255 255 255 255 255 255 255 255 255 255 255 255 140 140 140
140 140 141 142 142 142 143 143 143 144 144 144 144 144 144 144 143
143 143 142 142 142 142 141 141 141 142 142 142 143 143 143 144 144
144 143 143 143 142 142 141 141 141 141 141 141 141 141 142 142 141
141 141 141 141 140 140 140 141 141 142 142 143 143 143 143 143 143
141 141 141 141 141 139 139 139 130 131 130 130 131 131 133 133 133
132 132 132 132 132 134 134 134 134 133 132 135 137 137 137 137 136
135 145 158 158 158 157 156 154 153 153 152 152 152 151 151 151 151
151 142 142 133 133 125 124 122 114 110 98 98 113 113 113 124 124
127 127 120 120 117 117 118 108 108 107 106 100 99 93 93 92 88
87 83 83 82 82 82 82 81 84 84 77 77 76 76 64 62 61
57 54 53 51 50 49 43 42 41 41 42 42 94 182 186 187 185
185 177 176 176 170 170 170 170 207 207 207 208 208 215 215 216 217
218 225 225 226 226 226 226 227 228 228 228 229 229 229 229 229 229
229 229 230 230 229 229 228 228 227 227 226 225 225 216 215 206 206
206 206 206 206 206 154 144 144 144 144 144 144 144 144 144 255 255
255 255 255 255 255 255 255 255 255 255 255 255 255 255 255 255 255
255 255 255 255 255 255 255 255 255 255 255 255 255 255 255 255 255
255 255 255 255 255 255 255 255 255 255 255 255 255 255 255 255 255
255 255 255 255 255 255 255 255 255 255 255 255 255 255 255 255 255
255 255 255 255 255 255 255 255 255 255 255 255 255 255 255 255 255
255 255 255 255 255 255 255 255 255 255 255 255 255 255 255 255 255
255 255 255 255 255 255 255 255 255 255 255 255 255 255 255 255 255
255 255 255 255 255 255 255 255 255 255 255 255 255 255 255 255 255
255 255 255 255 255 255 255 255 255 255 255 255 255 255 255 255 255
255 255 255 255 255 255 255 255 255 255 255 255 255 255 255 255 255
255 255 255 255 255 255 255 255 255 255 255 255 255 255 255 255 255
255 255 255 255 255 255 255 255 255 255 255 255 255 255 255 255 255
255 255 255 255 255 255 255 255 255 255 139 139 139 139 140 140 142
142 142 142 143 143 143 144 144 144 144 144 144 144 143 143 143 142
142 142 142 142 142 142 142 142 143 143 144 144 144 144 144 143 143
143 142 142 142 142 142 142 142 142 142 142 142 142 142 142 141 141
140 140 140 141 141 142 143 143 143 143 144 143 143 143 142 142 141
141 140 139 139 136 131 125 125 125 131 132 131 131 131 132 132 132
132 133 133 134 133 133 133 134 137 138 138 146 147 147 147 158 158
158 158 156 155 154 153 153 152 152 151 151 151 151 151 129 129 129
129 125 123 123 114 103 97 97 97 99 109 117 124 127 128 128 127
124 118 118 109 109 107 107 100 99 93 93 92 88 88 84 84 83
83 82 82 84 84 84 84 77 76 71 63 62 61 58 54 53 52
50 49 44 42 42 41 43 43 118 192 192 187 186 185 177 177 176
176 181 185 202 207 207 207 208 209 217 217 218 218 218 225 226 226
226 226 227 227 227 228 228 229 229 229 229 229 230 230 230 229 229
229 228 228 227 227 226 226 221 221 216 214 206 205 205 205 205 205
198 154 144 144 144 144 144 144 144 144 144 255 255 255 255 255 255
255 255 255 255 255 255 255 255 255 255 255 255 255 255 255 255 255
255 255 255 255 255 255 255 255 255 255 255 255 255 255 255 255 255
255 255 255 255 255 255 255 255 255 255 255 255 255 255 255 255 255
255 255 255 255 255 255 255 255 255 255 255 255 255 255 255 255 255
255 255 255 255 255 255 255 255 255 255 255 255 255 255 255 255 255
255 255 255 255 255 255 255 255 255 255 255 255 255 255 255 255 255
255 255 255 255 255 255 255 255 255 255 255 255 255 255 255 255 255
255 255 255 255 255 255 255 255 255 255 255 255 255 255 255 255 255
255 255 255 255 255 255 255 255 255 255 255 255 255 255 255 255 255
255 255 255 255 255 255 255 255 255 255 255 255 255 255 255 255 255
255 255 255 255 255 255 255 255 255 255 255 255 255 255 255 255 255
255 255 255 255 255 255 255 255 255 255 255 255 255 255 255 255 255
255 255 255 255 255 255 138 138 139 139 140 140 141 142 142 142 143
143 143 144 144 144 144 144 144 144 143 143 143 143 142 142 142 142
142 142 142 142 143 143 144 144 144 144 144 143 143 143 143 142 142
142 142 142 142 143 143 143 143 142 142 142 142 138 139 139 140 141
142 142 143 143 144 144 144 144 144 143 143 142 142 142 141 139 139
137 131 125 125 125 127 127 130 130 130 131 131 131 132 133 133 133
133 133 134 134 147 147 148 148 147 147 148 158 158 158 158 156 155
154 153 153 152 152 151 151 150 149 147 129 128 124 123 123 123 122
114 103 97 97 97 97 109 117 124 128 128 129 128 124 124 119 110
110 110 111 99 99 93 94 92 91 88 85 84 84 83 83 83 84
84 84 84 77 72 71 63 62 61 59 54 54 52 50 50 45 45
45 51 54 54 176 192 192 188 189 190 177 177 177 176 181 185 203
207 207 207 209 209 217 218 218 220 221 225 226 226 226 227 227 227
227 228 228 229 229 229 229 230 230 230 229 229 229 228 228 227 227
226 226 221 221 221 212 213 203 203 204 204 204 204 177 144 144 144
144 144 144 144 144 144 144 255 255 255 255 255 255 255 255 255 255
255 255 255 255 255 255 255 255 255 255 255 255 255 255 255 255 255
255 255 255 255 255 255 255 255 255 255 255 255 255 255 255 255 255
255 255 255 255 255 255 255 255 255 255 255 255 255 255 255 255 255
255 255 255 255 255 255 255 255 255 255 255 255 255 255 255 255 255
255 255 255 255 255 255 255 255 255 255 255 255 255 255 255 255 255
255 255 255 255 255 255 255 255 255 255 255 255 255 255 255 255 255
255 255 255 255 255 255 255 255 255 255 255 255 255 255 255 255 255
255 255 255 255 255 255 255 255 255 255 255 255 255 255 255 255 255
255 255 255 255 255 255 255 255 255 255 255 255 255 255 255 255 255
255 255 255 255 255 255 255 255 255 255 255 255 255 255 255 255 255
255 255 255 255 255 255 255 255 255 255 255 255 255 255 255 255 255
255 255 255 255 255 255 255 255 255 255 255 255 255 255 255 255 255
255 255 138 139 139 139 140 140 141 141 142 142 142 143 143 143 143
144 144 144 144 144 144 143 143 143 143 142 142 142 142 142 142 143
143 143 144 144 144 144 144 144 143 143 143 143 143 142 142 143 143
143 143 143 143 143 142 142 142 138 139 139 140 141 142 143 143 144
144 144 144 144 144 143 143 143 142 142 142 139 138 137 137 126 126
126 127 127 129 129 129 130 131 131 132 132 133 133 134 134 135 139
146 148 148 148 148 148 148 158 158 158 158 156 155 154 154 153 153
152 151 150 150 149 147 129 124 124 122 122 116 116 105 102 97 97
97 97 97 98 123 129 129 129 128 128 128 120 111 111 111 111 103
98 97 96 93 91 89 85 85 85 84 84 84 85 85 84 84 78
71 71 62 61 61 60 55 54 51 50 50 46 46 46 54 54 117
194 193 193 192 191 190 177 177 177 177 181 196 203 207 207 208 209
209 217 218 218 220 221 225 226 226 227 227 227 227 228 228 228 229
229 229 230 230 230 229 229 228 228 227 227 226 226 225 225 221 221
211 211 205 203 203 203 203 203 204 145 144 144 144 144 144 144 144
144 144 144 255 255 255 255 255 255 255 255 255 255 255 255 255 255
255 255 255 255 255 255 255 255 255 255 255 255 255 255 255 255 255
255 255 255 255 255 255 255 255 255 255 255 255 255 255 255 255 255
255 255 255 255 255 255 255 255 255 255 255 255 255 255 255 255 255
255 255 255 255 255 255 255 255 255 255 255 255 255 255 255 255 255
255 255 255 255 255 255 255 255 255 255 255 255 255 255 255 255 255
255 255 255 255 255 255 255 255 255 255 255 255 255 255 255 255 255
255 255 255 255 255 255 255 255 255 255 255 255 255 255 255 255 255
255 255 255 255 255 255 255 255 255 255 255 255 255 255 255 255 255
255 255 255 255 255 255 255 255 255 255 255 255 255 255 255 255 255
255 255 255 255 255 255 255 255 255 255 255 255 255 255 255 255 255
255 255 255 255 255 255 255 255 255 255 255 255 255 255 255 255 255
255 255 255 255 255 255 255 255 255 255 255 255 255 255 255 139 139
139 139 140 140 141 141 141 142 142 142 143 143 143 144 144 144 144
144 144 144 143 143 143 143 143 143 143 143 142 142 144 144 144 144
144 144 144 143 143 143 143 143 143 143 143 143 144 144 143 143 143
143 143 142 142 142 142 141 141 142 142 143 143 144 144 144 144 144
144 144 143 143 142 142 142 138 138 137 137 136 126 126 127 128 128
128 128 124 124 127 128 132 132 133 133 134 135 136 136 148 148 148
148 148 148 149 147 147 146 146 135 135 143 143 143 138 137 137 136
136 136 129 121 120 120 107 107 106 105 102 101 100 99 98 98 98
122 129 130 130 130 131 128 121 121 111 111 111 103 98 98 96 94
92 91 91 86 85 85 85 84 85 85 84 84 79 71 64 62 61
60 59 56 54 52 50 49 48 47 46 54 72 145 194 194 193 192
191 191 189 179 178 178 195 196 204 207 207 208 209 210 217 217 219
221 221 225 226 227 227 227 227 227 228 228 229 229 229 229 229 230
230 230 228 228 227 227 226 226 225 225 224 221 221 211 211 205 202
202 202 202 203 188 145 144 144 144 144 144 144 144 144 144 144 255
255 255 255 255 255 255 255 255 255 255 255 255 255 255 255 255 255
255 255 255 255 255 255 255 255 255 255 255 255 255 255 255 255 255
255 255 255 255 255 255 255 255 255 255 255 255 255 255 255 255 255
255 255 255 255 255 255 255 255 255 255 255 255 255 255 255 255 255
255 255 255 255 255 255 255 255 255 255 255 255 255 255 255 255 255
255 255 255 255 255 255 255 255 255 255 255 255 255 255 255 255 255
255 255 255 255 255 255 255 255 255 255 255 255 255 255 255 255 255
255 255 255 255 255 255 255 255 255 255 255 255 255 255 255 255 255
255 255 255 255 255 255 255 255 255 255 255 255 255 255 255 255 255
255 255 255 255 255 255 255 255 255 255 255 255 255 255 255 255 255
255 255 255 255 255 255 255 255 255 255 255 255 255 255 255 255 255
255 255 255 255 255 255 255 255 255 255 255 255 255 255 255 255 255
255 255 255 255 255 255 255 255 255 255 255 139 139 139 140 140 140
141 141 141 142 142 142 143 143 143 143 143 143 143 144 144 144 144
143 143 143 143 143 143 143 144 144 144 144 144 144 144 143 143 143
143 143 143 143 143 143 143 144 144 144 144 144 143 143 143 142 142
142 142 142 142 142 143 143 144 144 144 144 144 144 144 144 143 143
143 142 142 139 138 138 137 136 133 128 128 128 128 127 127 124 124
123 123 127 127 128 129 129 129 129 137 137 140 140 141 141 135 102
78 78 78 81 82 82 82 84 104 122 125 125 125 135 135 121 121
120 120 107 106 105 104 102 101 100 99 98 98 98 122 129 131 131
131 131 131 122 122 112 111 111 103 103 98 97 96 92 91 91 86
86 85 85 85 84 84 84 84 80 71 65 62 61 60 59 57 54
52 50 49 49 48 48 54 81 182 194 195 194 193 192 191 189 181
178 178 195 204 204 206 207 208 209 211 216 217 218 221 222 224 226
227 228 229 229 229 229 229 229 229 229 229 229 229 229 230 228 227
227 226 226 225 224 223 222 221 217 200 200 200 201 201 202 202 202
188 145 145 144 144 144 144 144 143 143 143 144 255 255 255 255 255
255 255 255 255 255 255 255 255 255 255 255 255 255 255 255 255 255
255 255 255 255 255 255 255 255 255 255 255 255 255 255 255 255 255
255 255 255 255 255 255 255 255 255 255 255 255 255 255 255 255 255
255 255 255 255 255 255 255 255 255 255 255 255 255 255 255 255 255
255 255 255 255 255 255 255 255 255 255 255 255 255 255 255 255 255
255 255 255 255 255 255 255 255 255 255 255 255 255 255 255 255 255
255 255 255 255 255 255 255 255 255 255 255 255 255 255 255 255 255
255 255 255 255 255 255 255 255 255 255 255 255 255 255 255 255 255
255 255 255 255 255 255 255 255 255 255 255 255 255 255 255 255 255
255 255 255 255 255 255 255 255 255 255 255 255 255 255 255 255 255
255 255 255 255 255 255 255 255 255 255 255 255 255 255 255 255 255
255 255 255 255 255 255 255 255 255 255 255 255 255 255 255 255 255
255 255 255 255 255 255 255 140 140 140 140 140 141 141 141 141 141
142 142 142 143 143 143 143 143 144 144 144 144 144 144 143 143 143
143 143 144 144 144 144 144 144 144 143 143 143 143 143 143 143 143
143 144 144 144 144 144 144 144 143 143 143 143 142 142 142 142 142
142 143 143 144 144 144 144 144 144 144 144 143 143 143 142 142 139
139 138 138 138 137 128 128 128 128 127 126 125 123 123 122 122 127
128 120 102 102 98 98 97 97 101 101 101 93 80 70 59 59 57
57 57 56 56 56 57 74 74 78 101 101 101 101 101 101 95 95
103 103 102 101 99 99 98 98 98 121 129 132 132 132 133 133 122
122 112 112 110 104 104 98 97 97 93 92 91 87 86 85 85 85
84 84 84 84 80 71 66 62 60 59 59 55 54 52 50 50 49
49 49 55 118 197 197 196 195 193 192 192 188 182 184 192 203 204
204 205 208 209 210 211 216 217 218 221 223 223 229 229 229 229 229
229 229 229 229 229 229 229 229 229 229 228 228 227 226 225 224 223
223 222 222 220 217 199 199 200 200 201 201 202 202 160 145 145 145
145 145 144 143 143 143 143 143 255 255 255 255 255 255 255 255 255
255 255 255 255 255 255 255 255 255 255 255 255 255 255 255 255 255
255 255 255 255 255 255 255 255 255 255 255 255 255 255 255 255 255
255 255 255 255 255 255 255 255 255 255 255 255 255 255 255 255 255
255 255 255 255 255 255 255 255 255 255 255 255 255 255 255 255 255
255 255 255 255 255 255 255 255 255 255 255 255 255 255 255 255 255
255 255 255 255 255 255 255 255 255 255 255 255 255 255 255 255 255
255 255 255 255 255 255 255 255 255 255 255 255 255 255 255 255 255
255 255 255 255 255 255 255 255 255 255 255 255 255 255 255 255 255
255 255 255 255 255 255 255 255 255 255 255 255 255 255 255 255 255
255 255 255 255 255 255 255 255 255 255 255 255 255 255 255 255 255
255 255 255 255 255 255 255 255 255 255 255 255 255 255 255 255 255
255 255 255 255 255 255 255 255 255 255 255 255 255 255 255 255 255
255 255 255 140 140 140 140 141 141 141 141 141 141 142 142 142 143
143 143 143 143 144 144 144 144 144 144 144 144 143 143 144 144 144
145 145 145 145 144 143 143 143 143 143 143 144 144 144 144 144 144
144 144 144 144 143 143 143 143 142 142 142 142 142 142 143 143 144
144 144 144 144 144 144 144 143 143 143 142 142 140 139 139 138 139
139 128 128 128 128 126 126 125 113 113 114 114 115 101 95 67 65
65 65 67 67 67 66 66 59 52 52 52 52 52 53 53 54 55
56 57 57 58 59 59 70 70 70 71 72 73 73 98 98 98 98
98 98 98 98 99 121 129 134 137 137 137 134 127 127 116 112 110
105 105 98 98 97 94 94 89 88 86 85 85 84 84 83 82 81
81 71 66 61 59 59 58 56 54 52 50 50 49 49 49 55 144
202 202 196 195 194 193 191 189 185 185 192 203 204 204 205 207 209
210 213 215 215 218 221 223 223 229 229 229 230 230 230 229 229 229
229 229 229 229 229 229 228 227 226 226 225 223 222 222 221 221 220
218 199 199 199 199 200 201 202 202 160 146 146 146 145 145 145 144
144 143 143 143 255 255 255 255 255 255 255 255 255 255 255 255 255
255 255 255 255 255 255 255 255 255 255 255 255 255 255 255 255 255
255 255 255 255 255 255 255 255 255 255 255 255 255 255 255 255 255
255 255 255 255 255 255 255 255 255 255 255 255 255 255 255 255 255
255 255 255 255 255 255 255 255 255 255 255 255 255 255 255 255 255
255 255 255 255 255 255 255 255 255 255 255 255 255 255 255 255 255
255 255 255 255 255 255 255 255 255 255 255 255 255 255 255 255 255
255 255 255 255 255 255 255 255 255 255 255 255 255 255 255 255 255
255 255 255 255 255 255 255 255 255 255 255 255 255 255 255 255 255
255 255 255 255 255 255 255 255 255 255 255 255 255 255 255 255 255
255 255 255 255 255 255 255 255 255 255 255 255 255 255 255 255 255
255 255 255 255 255 255 255 255 255 255 255 255 255 255 255 255 255
255 255 255 255 255 255 255 255 255 255 255 255 255 255 255 255 140
140 141 141 141 141 141 141 141 141 142 142 143 143 143 143 143 143
143 145 145 145 145 144 144 144 144 144 144 144 144 145 145 145 145
144 144 143 143 143 143 143 144 144 144 144 144 144 144 144 144 143
143 143 143 143 142 142 142 142 142 143 143 143 144 144 144 144 144
144 144 144 144 144 143 143 142 142 142 141 141 140 139 136 135 135
129 125 123 122 112 112 112 112 115 101 61 61 61 60 60 60 59
59 54 53 53 52 52 52 52 52 53 53 54 55 56 57 58 58
59 59 59 60 60 59 60 60 60 60 78 86 96 97 97 98 98
99 120 129 135 138 137 137 135 127 127 116 112 109 105 105 99 98
97 96 95 89 88 86 85 84 84 84 82 76 76 76 71 67 61
60 59 58 57 55 52 51 50 49 49 56 55 159 202 201 201 195
194 194 191 190 192 191 194 203 203 204 205 206 211 211 214 215 216
217 221 223 223 229 230 230 230 230 230 230 229 229 229 229 229 229
229 228 228 227 226 225 224 223 222 221 221 220 219 218 198 198 198
198 198 203 204 203 149 147 146 146 146 145 145 144 144 144 144 143
255 255 255 255 255 255 255 255 255 255 255 255 255 255 255 255 255
255 255 255 255 255 255 255 255 255 255 255 255 255 255 255 255 255
255 255 255 255 255 255 255 255 255 255 255 255 255 255 255 255 255
255 255 255 255 255 255 255 255 255 255 255 255 255 255 255 255 255
255 255 255 255 255 255 255 255 255 255 255 255 255 255 255 255 255
255 255 255 255 255 255 255 255 255 255 255 255 255 255 255 255 255
255 255 255 255 255 255 255 255 255 255 255 255 255 255 255 255 255
255 255 255 255 255 255 255 255 255 255 255 255 255 255 255 255 255
255 255 255 255 255 255 255 255 255 255 255 255 255 255 255 255 255
255 255 255 255 255 255 255 255 255 255 255 255 255 255 255 255 255
255 255 255 255 255 255 255 255 255 255 255 255 255 255 255 255 255
255 255 255 255 255 255 255 255 255 255 255 255 255 255 255 255 255
255 255 255 255 255 255 255 255 255 255 255 255 141 141 141 141 141
141 141 141 141 141 142 143 143 143 143 143 143 143 144 145 145 145
145 145 144 144 144 144 144 144 145 145 145 145 145 145 144 144 144
143 144 144 144 144 144 144 144 144 144 144 143 143 143 143 143 143
142 142 142 142 142 142 143 143 143 144 144 144 144 144 144 144 144
144 144 144 143 143 142 142 141 140 139 136 135 135 134 120 120 121
112 108 106 90 79 59 60 60 60 60 60 59 59 59 54 53 53
52 52 52 52 53 53 54 62 62 62 57 58 58 59 59 59 60
60 58 58 58 58 61 61 68 96 97 97 98 98 99 118 129 137
138 138 138 135 125 126 116 112 109 105 105 100 98 98 96 96 87
87 86 85 84 84 84 78 76 76 75 72 67 62 59 59 58 57
56 51 51 49 49 48 56 73 193 201 201 200 196 195 194 194 194
193 194 194 201 203 204 205 205 213 213 214 215 216 217 222 223 223
229 230 230 230 230 230 230 230 229 229 229 229 229 229 228 227 227
226 225 220 221 220 220 209 209 209 204 197 197 197 198 198 206 205
203 148 148 147 146 146 145 145 144 144 144 144 144 255 255 255 255
255 255 255 255 255 255 255 255 255 255 255 255 255 255 255 255 255
255 255 255 255 255 255 255 255 255 255 255 255 255 255 255 255 255
255 255 255 255 255 255 255 255 255 255 255 255 255 255 255 255 255
255 255 255 255 255 255 255 255 255 255 255 255 255 255 255 255 255
255 255 255 255 255 255 255 255 255 255 255 255 255 255 255 255 255
255 255 255 255 255 255 255 255 255 255 255 255 255 255 255 255 255
255 255 255 255 255 255 255 255 255 255 255 255 255 255 255 255 255
255 255 255 255 255 255 255 255 255 255 255 255 255 255 255 255 255
255 255 255 255 255 255 255 255 255 255 255 255 255 255 255 255 255
255 255 255 255 255 255 255 255 255 255 255 255 255 255 255 255 255
255 255 255 255 255 255 255 255 255 255 255 255 255 255 255 255 255
255 255 255 255 255 255 255 255 255 255 255 255 255 255 255 255 255
255 255 255 255 255 255 255 255 141 141 141 142 142 142 142 142 142
142 143 143 143 143 143 143 144 144 144 145 145 145 145 145 145 144
144 144 144 145 145 145 145 145 145 145 144 144 144 144 144 144 144
144 144 144 144 144 144 143 143 143 143 143 143 143 143 142 142 142
142 142 143 143 143 144 144 144 144 144 144 144 144 144 144 144 143
143 143 142 142 141 139 137 136 135 135 120 120 120 111 108 106 90
79 59 59 59 59 60 60 59 59 58 57 56 53 53 61 70 104
104 104 104 71 73 104 125 116 84 64 73 73 73 73 58 58 58
58 61 61 70 105 105 105 106 106 108 122 138 138 138 138 138 136
124 124 116 112 109 106 105 100 99 99 97 96 87 87 85 84 84
82 80 78 75 74 74 73 66 63 61 60 58 57 56 52 52 48
48 48 56 73 193 201 201 198 197 196 195 195 194 194 195 195 201
202 204 204 206 213 214 215 215 220 221 222 223 223 229 230 230 230
230 230 230 230 229 229 229 229 229 228 228 227 226 225 225 219 219
219 209 209 209 208 196 196 196 197 197 207 207 205 193 148 148 147
147 146 146 145 145 144 144 144 144 255 255 255 255 255 255 255 255
255 255 255 255 255 255 255 255 255 255 255 255 255 255 255 255 255
255 255 255 255 255 255 255 255 255 255 255 255 255 255 255 255 255
255 255 255 255 255 255 255 255 255 255 255 255 255 255 255 255 255
255 255 255 255 255 255 255 255 255 255 255 255 255 255 255 255 255
255 255 255 255 255 255 255 255 255 255 255 255 255 255 255 255 255
255 255 255 255 255 255 255 255 255 255 255 255 255 255 255 255 255
255 255 255 255 255 255 255 255 255 255 255 255 255 255 255 255 255
255 255 255 255 255 255 255 255 255 255 255 255 255 255 255 255 255
255 255 255 255 255 255 255 255 255 255 255 255 255 255 255 255 255
255 255 255 255 255 255 255 255 255 255 255 255 255 255 255 255 255
255 255 255 255 255 255 255 255 255 255 255 255 255 255 255 255 255
255 255 255 255 255 255 255 255 255 255 255 255 255 255 255 255 255
255 255 255 255 141 142 142 142 142 142 142 142 142 142 143 143 143
143 144 144 144 145 145 145 146 146 146 145 145 145 144 144 145 145
145 145 145 145 145 145 145 144 144 144 144 144 144 144 144 144 144
144 143 143 143 143 143 143 143 143 143 143 142 142 142 142 143 143
143 143 144 144 144 144 144 144 145 145 145 145 144 144 143 143 142
141 140 138 137 136 135 120 120 119 110 102 100 80 79 59 59 59
59 60 60 63 86 93 93 95 95 95 96 121 122 122 138 163 105
105 149 149 138 138 118 107 107 107 88 72 60 58 58 89 89 117
117 117 117 116 116 115 130 138 137 137 137 137 137 124 124 116 111
110 106 105 101 100 99 97 96 86 86 85 84 84 82 79 78 74
73 70 69 65 63 62 60 58 57 56 52 52 48 47 47 56 73
198 201 198 198 197 197 196 195 195 195 197 197 201 202 203 204 211
215 216 215 216 220 221 222 223 224 229 229 230 230 230 230 230 230
229 229 229 228 228 228 228 227 225 225 224 218 206 206 205 205 205
195 195 196 196 196 201 212 212 205 193 149 148 148 147 146 146 145
145 144 144 144 144 255 255 255 255 255 255 255 255 255 255 255 255
255 255 255 255 255 255 255 255 255 255 255 255 255 255 255 255 255
255 255 255 255 255 255 255 255 255 255 255 255 255 255 255 255 255
255 255 255 255 255 255 255 255 255 255 255 255 255 255 255 255 255
255 255 255 255 255 255 255 255 255 255 255 255 255 255 255 255 255
255 255 255 255 255 255 255 255 255 255 255 255 255 255 255 255 255
255 255 255 255 255 255 255 255 255 255 255 255 255 255 255 255 255
255 255 255 255 255 255 255 255 255 255 255 255 255 255 255 255 255
255 255 255 255 255 255 255 255 255 255 255 255 255 255 255 255 255
255 255 255 255 255 255 255 255 255 255 255 255 255 255 255 255 255
255 255 255 255 255 255 255 255 255 255 255 255 255 255 255 255 255
255 255 255 255 255 255 255 255 255 255 255 255 255 255 255 255 255
255 255 255 255 255 255 255 255 255 255 255 255 255 255 255 255 255
142 142 142 143 143 143 143 143 143 143 143 143 144 144 144 144 144
145 145 146 146 146 146 146 145 145 145 145 145 145 145 145 145 145
145 145 145 144 144 144 144 144 144 144 144 144 143 143 143 143 143
143 143 143 143 143 143 143 143 143 142 142 143 143 143 143 143 144
144 144 144 144 145 145 145 145 144 144 144 143 143 141 141 138 137
136 136 121 121 118 109 102 99 80 79 59 39 39 39 72 82 102
102 134 156 156 138 116 116 176 176 176 176 176 134 122 164 153 153
148 120 120 120 120 111 77 73 73 73 95 116 117 117 118 119 120
120 121 136 137 137 137 137 137 137 124 118 116 110 110 106 105 104
101 101 97 96 92 86 86 84 85 81 80 76 74 73 70 69 65
64 62 59 58 57 56 52 51 47 47 47 56 89 198 198 198 198
198 197 196 196 196 196 197 198 201 202 203 204 211 216 216 218 218
219 220 221 222 223 228 229 229 230 230 230 230 230 229 229 228 228
228 228 227 227 224 224 224 218 206 206 195 195 195 194 194 195 195
196 201 212 212 205 182 149 148 148 147 147 146 145 144 144 144 144
144 255 255 255 255 255 255 255 255 255 255 255 255 255 255 255 255
255 255 255 255 255 255 255 255 255 255 255 255 255 255 255 255 255
255 255 255 255 255 255 255 255 255 255 255 255 255 255 255 255 255
255 255 255 255 255 255 255 255 255 255 255 255 255 255 255 255 255
255 255 255 255 255 255 255 255 255 255 255 255 255 255 255 255 255
255 255 255 255 255 255 255 255 255 255 255 255 255 255 255 255 255
255 255 255 255 255 255 255 255 255 255 255 255 255 255 255 255 255
255 255 255 255 255 255 255 255 255 255 255 255 255 255 255 255 255
255 255 255 255 255 255 255 255 255 255 255 255 255 255 255 255 255
255 255 255 255 255 255 255 255 255 255 255 255 255 255 255 255 255
255 255 255 255 255 255 255 255 255 255 255 255 255 255 255 255 255
255 255 255 255 255 255 255 255 255 255 255 255 255 255 255 255 255
255 255 255 255 255 255 255 255 255 255 255 255 255 141 143 143 143
143 143 143 143 143 144 144 144 144 144 144 145 145 145 146 146 146
146 146 146 146 146 146 145 145 145 145 146 146 146 145 145 145 145
144 144 144 144 144 144 144 143 143 143 143 143 143 143 143 143 143
143 143 143 143 143 143 143 143 143 143 143 143 144 144 144 144 144
145 145 145 145 145 144 144 144 143 143 143 138 138 137 136 130 130
117 108 108 99 80 79 65 39 39 40 76 123 154 154 157 182 182
183 166 166 184 189 189 189 189 158 143 164 152 153 148 120 120 120
120 111 77 73 74 106 106 130 130 130 130 130 129 135 135 136 137
137 137 136 129 129 124 118 116 110 109 107 106 104 103 102 102 97
91 89 88 87 86 77 77 76 75 69 68 67 65 63 62 60 57
57 52 52 51 46 46 46 56 86 198 199 199 198 198 198 197 197
197 196 198 198 205 207 207 206 210 216 217 217 218 219 220 221 223
223 227 228 229 229 230 230 230 229 229 229 227 227 227 227 226 226
224 224 224 210 205 205 195 193 193 194 194 194 195 195 201 202 203
204 182 150 148 148 147 147 146 145 144 144 144 144 144 255 255 255
255 255 255 255 255 255 255 255 255 255 255 255 255 255 255 255 255
255 255 255 255 255 255 255 255 255 255 255 255 255 255 255 255 255
255 255 255 255 255 255 255 255 255 255 255 255 255 255 255 255 255
255 255 255 255 255 255 255 255 255 255 255 255 255 255 255 255 255
255 255 255 255 255 255 255 255 255 255 255 255 255 255 255 255 255
255 255 255 255 255 255 255 255 255 255 255 255 255 255 255 255 255
255 255 255 255 255 255 255 255 255 255 255 255 255 255 255 255 255
255 255 255 255 255 255 255 255 255 255 255 255 255 255 255 255 255
255 255 255 255 255 255 255 255 255 255 255 255 255 255 255 255 255
255 255 255 255 255 255 255 255 255 255 255 255 255 255 255 255 255
255 255 255 255 255 255 255 255 255 255 255 255 255 255 255 255 255
255 255 255 255 255 255 255 255 255 255 255 255 255 255 255 255 255
255 255 255 255 255 255 255 255 255 142 143 143 144 144 144 144 144
144 144 144 144 144 144 145 145 145 145 146 146 146 146 146 146 146
146 146 146 145 146 146 146 146 146 146 145 145 145 144 144 144 144
144 144 143 143 143 143 143 143 143 143 143 143 143 143 143 143 143
143 143 143 143 143 143 143 143 144 144 144 144 144 145 145 145 145
145 144 144 144 144 143 143 139 138 137 136 134 134 116 108 108 105
105 117 117 49 39 52 76 123 155 184 184 184 184 183 178 178 184
191 191 189 189 158 142 163 152 148 148 120 120 119 119 95 77 76
75 113 132 132 131 130 130 130 135 135 136 137 137 136 136 135 129
129 124 118 116 110 109 108 107 106 103 103 102 97 90 89 89 88
87 78 77 76 75 68 67 65 65 62 61 60 57 57 52 51 50
46 46 46 60 86 199 199 199 199 199 199 198 197 197 197 199 199
205 208 208 209 210 216 217 217 218 219 220 220 223 224 226 227 227
228 229 229 229 229 228 228 227 227 225 225 224 224 224 224 223 206
205 201 194 193 193 193 193 193 195 195 201 201 201 193 175 151 148
147 147 146 146 145 143 143 143 143 144 255 255 255 255 255 255 255
255 255 255 255 255 255 255 255 255 255 255 255 255 255 255 255 255
255 255 255 255 255 255 255 255 255 255 255 255 255 255 255 255 255
255 255 255 255 255 255 255 255 255 255 255 255 255 255 255 255 255
255 255 255 255 255 255 255 255 255 255 255 255 255 255 255 255 255
255 255 255 255 255 255 255 255 255 255 255 255 255 255 255 255 255
255 255 255 255 255 255 255 255 255 255 255 255 255 255 255 255 255
255 255 255 255 255 255 255 255 255 255 255 255 255 255 255 255 255
255 255 255 255 255 255 255 255 255 255 255 255 255 255 255 255 255
255 255 255 255 255 255 255 255 255 255 255 255 255 255 255 255 255
255 255 255 255 255 255 255 255 255 255 255 255 255 255 255 255 255
255 255 255 255 255 255 255 255 255 255 255 255 255 255 255 255 255
255 255 255 255 255 255 255 255 255 255 255 255 255 255 255 255 255
255 255 255 255 255 142 144 144 144 144 145 145 144 145 145 145 145
145 145 145 145 146 146 146 146 146 147 147 147 147 147 146 146 146
146 146 146 146 146 146 146 145 145 145 144 144 144 144 143 143 143
143 143 143 143 143 143 143 143 143 143 143 143 143 143 143 143 143
143 143 143 143 144 144 144 144 144 145 145 145 145 145 144 144 144
144 143 143 140 139 139 138 138 138 136 120 118 118 121 121 130 73
39 52 76 121 155 184 184 191 191 191 178 178 178 191 191 188 188
158 142 142 142 142 132 98 98 91 91 91 91 91 105 116 132 132
133 134 135 136 139 139 138 138 137 136 135 134 130 130 124 118 111
111 110 109 107 107 104 104 103 97 97 89 89 88 88 78 77 75
75 69 67 63 62 60 59 58 56 55 51 50 49 45 45 45 60
86 200 200 200 200 200 200 200 200 200 197 199 199 205 206 206 210
210 216 217 218 218 219 220 220 224 224 225 226 227 227 229 229 228
228 228 227 226 225 225 224 224 224 217 217 217 206 204 193 191 191
191 191 190 192 194 194 201 201 201 188 156 147 147 147 146 145 145
145 143 143 143 143 143 255 255 255 255 255 255 255 255 255 255 255
255 255 255 255 255 255 255 255 255 255 255 255 255 255 255 255 255
255 255 255 255 255 255 255 255 255 255 255 255 255 255 255 255 255
255 255 255 255 255 255 255 255 255 255 255 255 255 255 255 255 255
255 255 255 255 255 255 255 255 255 255 255 255 255 255 255 255 255
255 255 255 255 255 255 255 255 255 255 255 255 255 255 255 255 255
255 255 255 255 255 255 255 255 255 255 255 255 255 255 255 255 255
255 255 255 255 255 255 255 255 255 255 255 255 255 255 255 255 255
255 255 255 255 255 255 255 255 255 255 255 255 255 255 255 255 255
255 255 255 255 255 255 255 255 255 255 255 255 255 255 255 255 255
255 255 255 255 255 255 255 255 255 255 255 255 255 255 255 255 255
255 255 255 255 255 255 255 255 255 255 255 255 255 255 255 255 255
255 255 255 255 255 255 255 255 255 255 255 255 255 255 255 255 255
255 143 144 144 144 145 145 145 145 145 145 145 145 145 146 146 146
146 146 146 146 147 147 147 147 147 147 147 147 147 147 147 147 146
146 146 146 146 145 145 144 144 144 143 143 143 143 142 142 142 142
142 143 143 143 143 143 144 144 144 144 143 143 143 143 143 143 143
144 144 144 144 144 144 144 144 144 144 144 144 144 144 143 143 141
140 139 139 138 138 137 131 128 128 128 135 134 90 67 68 76 116
141 174 175 191 191 191 173 173 173 169 169 160 160 92 88 88 87
87 87 81 81 81 81 92 92 102 115 133 133 133 133 134 141 140
139 139 139 138 138 136 134 133 131 130 124 118 112 111 110 109 108
107 107 105 105 105 97 90 89 89 88 78 77 76 76 73 67 63
61 60 58 57 56 54 51 50 47 45 45 45 60 89 200 200 201
201 201 201 200 200 200 200 199 199 205 206 207 210 211 214 214 218
218 219 219 220 222 224 225 226 226 227 228 229 227 227 227 226 226
225 224 224 223 223 217 217 211 207 204 193 190 189 188 188 188 192
193 193 201 201 185 185 147 146 146 145 145 144 144 144 143 143 143
143 143 255 255 255 255 255 255 255 255 255 255 255 255 255 255 255
255 255 255 255 255 255 255 255 255 255 255 255 255 255 255 255 255
255 255 255 255 255 255 255 255 255 255 255 255 255 255 255 255 255
255 255 255 255 255 255 255 255 255 255 255 255 255 255 255 255 255
255 255 255 255 255 255 255 255 255 255 255 255 255 255 255 255 255
255 255 255 255 255 255 255 255 255 255 255 255 255 255 255 255 255
255 255 255 255 255 255 255 255 255 255 255 255 255 255 255 255 255
255 255 255 255 255 255 255 255 255 255 255 255 255 255 255 255 255
255 255 255 255 255 255 255 255 255 255 255 255 255 255 255 255 255
255 255 255 255 255 255 255 255 255 255 255 255 255 255 255 255 255
255 255 255 255 255 255 255 255 255 255 255 255 255 255 255 255 255
255 255 255 255 255 255 255 255 255 255 255 255 255 255 255 255 255
255 255 255 255 255 255 255 255 255 255 255 255 255 255 144 144 144
145 145 145 145 146 146 146 146 146 146 146 146 146 146 146 146 147
147 147 147 147 147 147 147 147 147 147 147 147 147 147 147 146 146
146 145 145 144 144 143 143 143 142 142 142 142 142 142 143 143 143
143 143 144 144 144 144 144 143 143 143 143 144 144 144 144 144 144
144 144 144 144 144 144 144 144 144 144 143 143 142 141 140 139 138
138 137 131 131 131 136 135 134 124 73 69 69 91 93 145 145 153
153 153 154 150 150 150 120 105 93 92 73 73 73 73 78 79 80
81 82 92 105 115 115 134 134 134 134 134 141 141 140 140 140 139
138 138 133 132 131 131 121 118 113 112 111 110 109 108 107 106 105
105 97 90 90 89 89 88 78 78 78 74 66 63 60 59 58 57
55 54 52 49 45 45 44 44 61 89 201 201 201 202 201 201 201
200 200 200 200 200 205 207 207 210 212 213 214 218 218 219 219 220
222 223 224 225 226 226 227 227 227 227 226 226 225 224 223 223 223
223 217 217 211 207 202 190 190 187 186 187 187 192 193 193 192 190
182 158 145 145 145 145 144 144 144 143 143 143 143 143 143 255 255
255 255 255 255 255 255 255 255 255 255 255 255 255 255 255 255 255
255 255 255 255 255 255 255 255 255 255 255 255 255 255 255 255 255
255 255 255 255 255 255 255 255 255 255 255 255 255 255 255 255 255
255 255 255 255 255 255 255 255 255 255 255 255 255 255 255 255 255
255 255 255 255 255 255 255 255 255 255 255 255 255 255 255 255 255
255 255 255 255 255 255 255 255 255 255 255 255 255 255 255 255 255
255 255 255 255 255 255 255 255 255 255 255 255 255 255 255 255 255
255 255 255 255 255 255 255 255 255 255 255 255 255 255 255 255 255
255 255 255 255 255 255 255 255 255 255 255 255 255 255 255 255 255
255 255 255 255 255 255 255 255 255 255 255 255 255 255 255 255 255
255 255 255 255 255 255 255 255 255 255 255 255 255 255 255 255 255
255 255 255 255 255 255 255 255 255 255 255 255 255 255 255 255 255
255 255 255 255 255 255 255 255 255 255 144 144 145 145 145 146 146
146 146 146 146 146 146 146 147 147 147 147 147 147 147 147 148 148
148 148 148 147 147 147 147 147 147 147 147 147 146 146 145 145 144
144 143 142 142 142 142 142 142 142 142 142 143 143 143 143 144 144
144 144 144 144 144 144 144 144 144 144 144 144 144 144 144 144 144
144 144 144 144 144 143 143 143 142 142 142 139 139 138 138 138 138
137 136 136 134 124 83 70 70 73 76 96 103 110 110 110 110 97
97 97 83 83 81 81 73 73 74 74 77 84 85 85 85 94 114
128 134 134 134 135 135 142 142 144 144 143 143 139 139 138 133 132
131 131 121 117 114 113 112 111 111 109 108 108 106 105 97 92 91
90 89 88 87 86 86 82 78 63 59 58 57 56 55 54 46 45
45 44 44 44 61 94 201 202 202 202 202 201 201 201 200 200 200
200 200 208 208 209 213 214 214 218 218 219 219 220 220 220 220 225
226 226 226 227 226 226 226 226 223 223 222 222 222 222 217 217 201
201 202 190 182 182 185 185 187 192 192 192 192 164 148 148 145 145
145 144 144 144 143 143 143 143 143 143 143 255 255 255 255 255 255
255 255 255 255 255 255 255 255 255 255 255 255 255 255 255 255 255
255 255 255 255 255 255 255 255 255 255 255 255 255 255 255 255 255
255 255 255 255 255 255 255 255 255 255 255 255 255 255 255 255 255
255 255 255 255 255 255 255 255 255 255 255 255 255 255 255 255 255
255 255 255 255 255 255 255 255 255 255 255 255 255 255 255 255 255
255 255 255 255 255 255 255 255 255 255 255 255 255 255 255 255 255
255 255 255 255 255 255 255 255 255 255 255 255 255 255 255 255 255
255 255 255 255 255 255 255 255 255 255 255 255 255 255 255 255 255
255 255 255 255 255 255 255 255 255 255 255 255 255 255 255 255 255
255 255 255 255 255 255 255 255 255 255 255 255 255 255 255 255 255
255 255 255 255 255 255 255 255 255 255 255 255 255 255 255 255 255
255 255 255 255 255 255 255 255 255 255 255 255 255 255 255 255 255
255 255 255 255 255 255 145 145 145 145 145 146 146 146 146 146 146
147 147 147 147 147 147 147 147 147 148 148 148 148 148 148 148 148
148 148 147 147 147 147 147 147 147 146 146 145 144 143 142 142 142
142 142 142 142 142 142 142 143 143 143 143 144 144 144 144 144 144
144 144 144 144 144 144 144 144 144 144 144 144 144 143 143 143 143
143 143 143 143 143 142 142 140 140 139 138 138 138 137 137 136 134
125 83 70 72 73 74 75 76 78 80 81 82 83 84 85 84 83
81 81 74 74 74 82 87 94 94 94 98 114 114 128 135 135 135
135 136 145 145 145 145 145 145 142 139 139 134 131 131 130 121 117
115 114 114 114 112 112 111 109 105 105 97 92 92 91 90 88 87
86 86 82 82 79 58 58 57 56 55 54 45 44 44 44 43 43
62 94 201 203 202 202 202 201 201 201 200 200 200 200 200 208 208
214 214 214 216 217 218 219 219 220 220 220 220 225 225 226 226 226
226 226 226 226 222 222 222 221 221 220 218 191 189 189 189 185 182
183 183 183 187 192 192 192 184 160 148 147 145 145 144 144 143 143
143 143 143 143 143 143 143 255 255 255 255 255 255 255 255 255 255
255 255 255 255 255 255 255 255 255 255 255 255 255 255 255 255 255
255 255 255 255 255 255 255 255 255 255 255 255 255 255 255 255 255
255 255 255 255 255 255 255 255 255 255 255 255 255 255 255 255 255
255 255 255 255 255 255 255 255 255 255 255 255 255 255 255 255 255
255 255 255 255 255 255 255 255 255 255 255 255 255 255 255 255 255
255 255 255 255 255 255 255 255 255 255 255 255 255 255 255 255 255
255 255 255 255 255 255 255 255 255 255 255 255 255 255 255 255 255
255 255 255 255 255 255 255 255 255 255 255 255 255 255 255 255 255
255 255 255 255 255 255 255 255 255 255 255 255 255 255 255 255 255
255 255 255 255 255 255 255 255 255 255 255 255 255 255 255 255 255
255 255 255 255 255 255 255 255 255 255 255 255 255 255 255 255 255
255 255 255 255 255 255 255 255 255 255 255 255 255 255 255 255 255
255 255 145 145 145 145 146 146 146 146 146 146 147 147 147 147 148
148 148 148 148 148 148 148 148 149 149 149 149 148 148 148 148 148
148 148 147 147 147 147 146 144 143 143 142 142 142 142 142 142 142
142 142 142 142 143 143 143 144 144 144 144 144 144 144 144 144 144
144 144 144 144 144 144 143 143 143 143 143 143 143 143 143 143 143
143 143 142 141 140 139 139 138 138 137 137 136 126 126 83 75 72
73 74 75 76 79 80 82 82 83 84 86 86 85 81 81 74 74
74 84 87 94 94 107 114 114 133 134 135 135 136 136 136 145 146
147 147 148 149 142 140 139 135 130 130 130 121 118 117 116 115 115
114 113 112 112 111 104 97 93 92 92 91 91 87 87 86 84 81
79 62 57 57 56 54 54 45 45 43 43 43 43 62 81 201 203
203 202 202 201 201 201 200 200 200 200 207 208 209 214 214 215 216
217 218 219 219 220 221 221 224 224 225 225 225 225 225 225 224 224
222 221 221 220 220 210 197 191 190 189 189 185 179 179 181 182 187
173 173 157 157 150 145 146 145 145 144 144 143 143 143 143 143 143
143 143 143 255 255 255 255 255 255 255 255 255 255 255 255 255 255
255 255 255 255 255 255 255 255 255 255 255 255 255 255 255 255 255
255 255 255 255 255 255 255 255 255 255 255 255 255 255 255 255 255
255 255 255 255 255 255 255 255 255 255 255 255 255 255 255 255 255
255 255 255 255 255 255 255 255 255 255 255 255 255 255 255 255 255
255 255 255 255 255 255 255 255 255 255 255 255 255 255 255 255 255
255 255 255 255 255 255 255 255 255 255 255 255 255 255 255 255 255
255 255 255 255 255 255 255 255 255 255 255 255 255 255 255 255 255
255 255 255 255 255 255 255 255 255 255 255 255 255 255 255 255 255
255 255 255 255 255 255 255 255 255 255 255 255 255 255 255 255 255
255 255 255 255 255 255 255 255 255 255 255 255 255 255 255 255 255
255 255 255 255 255 255 255 255 255 255 255 255 255 255 255 255 255
255 255 255 255 255 255 255 255 255 255 255 255 255 255 255 145 145
146 146 146 146 146 146 146 147 147 147 148 148 148 148 148 148 148
148 148 148 149 149 149 149 149 149 148 148 148 148 148 148 148 147
147 147 146 145 142 142 142 142 141 141 141 142 142 142 142 142 142
143 143 143 143 144 144 144 144 144 144 145 145 145 144 144 144 144
144 143 143 143 143 143 143 143 143 143 143 143 143 143 143 142 141
141 140 139 138 137 137 136 136 133 128 91 84 83 83 79 79 93
93 80 83 85 89 89 87 85 85 81 74 74 74 74 84 84 94
94 114 114 114 136 136 136 136 137 137 144 144 147 147 148 149 149
143 142 138 137 130 130 130 120 120 117 116 116 116 115 114 113 112
111 103 97 93 93 92 91 91 88 87 87 84 80 80 79 57 57
57 52 49 45 43 43 43 43 43 63 81 201 203 202 202 201 201
201 200 200 200 200 200 208 208 209 214 214 215 216 217 218 218 219
220 221 221 223 224 225 225 225 225 225 225 224 224 222 221 220 220
220 204 191 191 189 189 189 184 178 179 179 181 176 155 143 142 142
142 144 145 145 144 144 144 143 143 143 143 143 143 143 143 143 255
255 255 255 255 255 255 255 255 255 255 255 255 255 255 255 255 255
255 255 255 255 255 255 255 255 255 255 255 255 255 255 255 255 255
255 255 255 255 255 255 255 255 255 255 255 255 255 255 255 255 255
255 255 255 255 255 255 255 255 255 255 255 255 255 255 255 255 255
255 255 255 255 255 255 255 255 255 255 255 255 255 255 255 255 255
255 255 255 255 255 255 255 255 255 255 255 255 255 255 255 255 255
255 255 255 255 255 255 255 255 255 255 255 255 255 255 255 255 255
255 255 255 255 255 255 255 255 255 255 255 255 255 255 255 255 255
255 255 255 255 255 255 255 255 255 255 255 255 255 255 255 255 255
255 255 255 255 255 255 255 255 255 255 255 255 255 255 255 255 255
255 255 255 255 255 255 255 255 255 255 255 255 255 255 255 255 255
255 255 255 255 255 255 255 255 255 255 255 255 255 255 255 255 255
255 255 255 255 255 255 255 255 255 255 255 146 146 146 146 146 146
147 147 147 147 147 148 148 148 149 149 149 149 149 149 149 149 149
149 149 149 149 149 148 148 148 148 148 148 148 147 147 147 146 146
142 142 141 141 141 141 141 141 142 142 142 142 142 142 143 143 143
144 144 144 144 144 145 146 145 145 145 144 144 144 144 143 143 143
143 143 143 143 143 143 143 143 143 143 143 142 142 142 135 135 138
137 136 136 135 133 129 111 84 84 83 82 85 96 102 102 102 92
91 90 83 83 83 81 74 74 75 75 84 84 115 115 115 133 136
137 137 137 137 137 144 144 145 147 148 149 149 149 143 142 138 137
130 129 126 121 121 121 120 119 117 116 114 114 111 111 102 95 94
93 92 91 90 89 88 87 83 81 80 79 65 57 57 50 49 45
43 43 43 43 43 63 73 201 202 202 202 201 200 200 200 200 200
200 201 209 209 212 214 214 215 216 217 218 218 219 220 222 222 223
224 225 225 225 225 225 224 224 223 223 218 217 217 217 199 191 186
185 176 176 177 177 178 179 178 162 144 143 142 142 142 143 145 144
144 144 144 143 143 143 143 143 143 143 143 143 255 255 255 255 255
255 255 255 255 255 255 255 255 255 255 255 255 255 255 255 255 255
255 255 255 255 255 255 255 255 255 255 255 255 255 255 255 255 255
255 255 255 255 255 255 255 255 255 255 255 255 255 255 255 255 255
255 255 255 255 255 255 255 255 255 255 255 255 255 255 255 255 255
255 255 255 255 255 255 255 255 255 255 255 255 255 255 255 255 255
255 255 255 255 255 255 255 255 255 255 255 255 255 255 255 255 255
255 255 255 255 255 255 255 255 255 255 255 255 255 255 255 255 255
255 255 255 255 255 255 255 255 255 255 255 255 255 255 255 255 255
255 255 255 255 255 255 255 255 255 255 255 255 255 255 255 255 255
255 255 255 255 255 255 255 255 255 255 255 255 255 255 255 255 255
255 255 255 255 255 255 255 255 255 255 255 255 255 255 255 255 255
255 255 255 255 255 255 255 255 255 255 255 255 255 255 255 255 255
255 255 255 255 255 255 255 146 146 147 147 147 147 147 147 147 148
148 148 149 149 149 149 149 149 149 149 149 149 149 149 149 149 149
149 148 148 148 148 148 148 148 147 147 147 146 146 142 142 141 141
141 141 141 141 141 142 142 142 142 142 143 143 143 144 144 144 144
145 145 146 146 146 146 146 144 144 144 144 143 143 143 143 143 143
143 143 143 143 143 143 143 142 142 142 135 135 135 135 135 135 135
132 131 112 84 85 82 82 85 85 102 102 102 92 92 65 65 66
66 67 67 75 75 75 93 99 119 119 132 136 137 137 137 138 139
144 144 145 146 147 148 149 150 150 144 143 138 137 130 128 127 123
122 121 121 120 120 120 114 114 111 111 102 95 94 93 92 91 90
89 88 88 82 81 80 80 65 57 57 50 49 45 43 43 43 43
42 63 73 201 202 201 201 200 200 200 200 200 201 201 201 209 209
213 214 214 215 216 217 217 218 218 220 222 222 223 224 224 225 225
225 225 224 224 223 223 218 207 207 199 199 186 186 185 176 176 176
176 177 177 150 144 143 142 142 142 142 142 142 144 144 144 144 143
143 143 143 143 142 142 142 142 255 255 255 255 255 255 255 255 255
255 255 255 255 255 255 255 255 255 255 255 255 255 255 255 255 255
255 255 255 255 255 255 255 255 255 255 255 255 255 255 255 255 255
255 255 255 255 255 255 255 255 255 255 255 255 255 255 255 255 255
255 255 255 255 255 255 255 255 255 255 255 255 255 255 255 255 255
255 255 255 255 255 255 255 255 255 255 255 255 255 255 255 255 255
255 255 255 255 255 255 255 255 255 255 255 255 255 255 255 255 255
255 255 255 255 255 255 255 255 255 255 255 255 255 255 255 255 255
255 255 255 255 255 255 255 255 255 255 255 255 255 255 255 255 255
255 255 255 255 255 255 255 255 255 255 255 255 255 255 255 255 255
255 255 255 255 255 255 255 255 255 255 255 255 255 255 255 255 255
255 255 255 255 255 255 255 255 255 255 255 255 255 255 255 255 255
255 255 255 255 255 255 255 255 255 255 255 255 255 255 255 255 255
255 255 255 147 147 147 147 147 148 148 148 148 148 148 149 149 150
150 150 150 150 149 149 149 149 149 148 149 149 149 148 148 148 148
148 148 148 148 147 147 146 146 145 142 142 141 141 141 141 141 141
141 142 142 142 142 142 142 143 143 143 144 144 144 145 145 146 146
146 146 146 145 144 144 144 144 144 144 144 144 143 143 143 143 143
143 143 142 142 142 142 135 134 134 135 134 134 134 132 132 112 106
85 81 81 76 76 76 76 74 74 63 64 65 65 66 67 67 76
85 85 100 121 121 121 132 137 137 138 138 139 140 144 144 145 146
147 148 150 150 150 150 143 139 136 128 128 127 123 123 122 122 121
121 120 114 114 103 97 96 95 94 93 92 91 90 89 88 88 82
81 80 80 65 65 58 49 49 46 44 44 43 50 54 63 72 196
201 201 201 199 199 199 199 200 201 201 201 210 210 213 214 214 215
216 216 217 218 218 220 221 222 223 224 224 224 225 224 224 224 224
223 223 223 208 206 199 199 186 186 176 176 176 176 176 176 173 150
144 143 142 142 142 142 142 143 143 144 144 144 144 143 143 143 142
142 142 142 142 255 255 255 255 255 255 255 255 255 255 255 255 255
255 255 255 255 255 255 255 255 255 255 255 255 255 255 255 255 255
255 255 255 255 255 255 255 255 255 255 255 255 255 255 255 255 255
255 255 255 255 255 255 255 255 255 255 255 255 255 255 255 255 255
255 255 255 255 255 255 255 255 255 255 255 255 255 255 255 255 255
255 255 255 255 255 255 255 255 255 255 255 255 255 255 255 255 255
255 255 255 255 255 255 255 255 255 255 255 255 255 255 255 255 255
255 255 255 255 255 255 255 255 255 255 255 255 255 255 255 255 255
255 255 255 255 255 255 255 255 255 255 255 255 255 255 255 255 255
255 255 255 255 255 255 255 255 255 255 255 255 255 255 255 255 255
255 255 255 255 255 255 255 255 255 255 255 255 255 255 255 255 255
255 255 255 255 255 255 255 255 255 255 255 255 255 255 255 255 255
255 255 255 255 255 255 255 255 255 255 255 255 255 255 255 255 148
148 148 148 148 148 148 149 149 149 149 149 149 151 150 150 150 150
150 149 149 148 148 148 148 148 148 148 148 148 148 148 148 148 147
147 146 146 145 144 143 142 141 141 141 141 141 141 141 142 142 142
142 142 142 143 143 143 144 144 144 145 145 146 146 146 146 145 145
144 144 144 144 144 144 144 144 144 143 143 143 143 143 143 142 142
142 142 140 133 133 134 134 134 134 133 131 121 109 101 81 81 71
69 69 65 63 63 63 63 65 65 66 77 77 98 98 102 102 121
122 134 133 137 138 138 139 140 141 143 145 145 146 147 148 150 150
150 150 150 139 136 128 128 126 124 123 123 122 122 121 121 113 108
103 97 96 95 94 93 92 90 89 89 85 83 82 81 80 79 72
73 66 50 46 46 45 44 44 51 54 64 72 196 199 199 200 198
198 198 199 201 202 206 206 210 210 213 214 214 215 215 216 217 217
218 220 221 222 223 223 224 224 224 224 224 224 223 223 223 223 221
204 199 199 184 175 175 174 175 175 175 166 149 146 144 144 142 142
142 142 142 143 143 144 144 144 144 143 143 142 142 142 142 141 141
255 255 255 255 255 255 255 255 255 255 255 255 255 255 255 255 255
255 255 255 255 255 255 255 255 255 255 255 255 255 255 255 255 255
255 255 255 255 255 255 255 255 255 255 255 255 255 255 255 255 255
255 255 255 255 255 255 255 255 255 255 255 255 255 255 255 255 255
255 255 255 255 255 255 255 255 255 255 255 255 255 255 255 255 255
255 255 255 255 255 255 255 255 255 255 255 255 255 255 255 255 255
255 255 255 255 255 255 255 255 255 255 255 255 255 255 255 255 255
255 255 255 255 255 255 255 255 255 255 255 255 255 255 255 255 255
255 255 255 255 255 255 255 255 255 255 255 255 255 255 255 255 255
255 255 255 255 255 255 255 255 255 255 255 255 255 255 255 255 255
255 255 255 255 255 255 255 255 255 255 255 255 255 255 255 255 255
255 255 255 255 255 255 255 255 255 255 255 255 255 255 255 255 255
255 255 255 255 255 255 255 255 255 255 255 255 148 148 148 148 149
149 149 149 149 150 150 150 150 151 151 151 150 150 150 149 149 148
148 148 148 148 148 148 148 148 148 148 148 148 147 147 146 144 144
143 143 142 142 141 141 141 141 141 141 142 142 142 142 142 142 142
143 143 143 144 144 144 145 145 145 145 145 145 145 145 144 144 144
144 144 144 144 144 143 143 143 143 143 142 142 142 141 141 140 133
133 133 134 134 134 134 130 127 126 105 91 84 70 69 69 64 63
63 63 64 64 64 85 87 98 98 100 108 118 121 122 134 134 137
138 139 140 141 142 143 145 146 147 148 148 150 150 150 150 150 140
136 128 128 126 125 124 123 122 122 122 122 113 97 97 96 96 95
93 92 91 90 89 87 86 83 82 80 80 79 74 73 66 56 47
46 46 45 44 51 54 64 72 158 198 198 197 197 197 198 200 201
202 207 208 209 210 213 213 214 215 215 216 216 217 217 220 221 221
222 223 223 223 224 224 223 223 223 223 223 223 221 205 199 199 183
175 175 174 175 175 175 152 146 146 145 143 143 142 142 142 143 143
143 144 144 144 144 143 143 142 142 142 141 141 141 255 255 255 255
255 255 255 255 255 255 255 255 255 255 255 255 255 255 255 255 255
255 255 255 255 255 255 255 255 255 255 255 255 255 255 255 255 255
255 255 255 255 255 255 255 255 255 255 255 255 255 255 255 255 255
255 255 255 255 255 255 255 255 255 255 255 255 255 255 255 255 255
255 255 255 255 255 255 255 255 255 255 255 255 255 255 255 255 255
255 255 255 255 255 255 255 255 255 255 255 255 255 255 255 255 255
255 255 255 255 255 255 255 255 255 255 255 255 255 255 255 255 255
255 255 255 255 255 255 255 255 255 255 255 255 255 255 255 255 255
255 255 255 255 255 255 255 255 255 255 255 255 255 255 255 255 255
255 255 255 255 255 255 255 255 255 255 255 255 255 255 255 255 255
255 255 255 255 255 255 255 255 255 255 255 255 255 255 255 255 255
255 255 255 255 255 255 255 255 255 255 255 255 255 255 255 255 255
255 255 255 255 255 255 255 255 155 149 149 149 149 149 150 150 150
150 151 151 151 151 151 151 150 150 150 149 148 148 148 147 147 147
148 148 148 148 148 148 148 148 147 146 146 144 144 143 143 142 142
141 141 141 141 142 142 142 142 142 142 142 142 142 143 143 143 144
144 144 144 144 145 145 145 145 145 145 144 144 144 144 144 144 144
144 143 143 143 143 143 142 142 142 141 141 140 132 132 135 135 135
135 134 129 127 127 105 105 101 91 70 71 71 73 73 74 75 75
75 96 96 100 100 100 117 118 122 122 135 135 138 139 140 141 142
143 144 145 146 147 148 149 150 150 150 150 150 140 135 129 128 126
125 124 123 123 122 122 107 104 97 97 96 95 94 93 92 91 89
88 87 86 81 81 80 79 78 75 74 66 56 47 47 47 53 53
55 55 64 72 151 198 197 197 197 197 198 199 204 204 207 208 209
210 213 213 214 214 215 215 216 216 216 220 221 221 222 222 223 223
223 223 223 223 223 223 223 223 220 205 200 183 183 175 175 175 175
175 148 146 146 146 145 144 143 142 142 143 143 143 143 144 144 144
144 143 143 142 142 141 141 141 141 255 255 255 255 255 255 255 255
255 255 255 255 255 255 255 255 255 255 255 255 255 255 255 255 255
255 255 255 255 255 255 255 255 255 255 255 255 255 255 255 255 255
255 255 255 255 255 255 255 255 255 255 255 255 255 255 255 255 255
255 255 255 255 255 255 255 255 255 255 255 255 255 255 255 255 255
255 255 255 255 255 255 255 255 255 255 255 255 255 255 255 255 255
255 255 255 255 255 255 255 255 255 255 255 255 255 255 255 255 255
255 255 255 255 255 255 255 255 255 255 255 255 255 255 255 255 255
255 255 255 255 255 255 255 255 255 255 255 255 255 255 255 255 255
255 255 255 255 255 255 255 255 255 255 255 255 255 255 255 255 255
255 255 255 255 255 255 255 255 255 255 255 255 255 255 255 255 255
255 255 255 255 255 255 255 255 255 255 255 255 255 255 255 255 255
255 255 255 255 255 255 255 255 255 255 255 255 255 255 255 255 255
255 255 255 255 166 166 166 166 162 151 151 151 151 151 151 151 151
151 151 151 150 150 150 148 148 148 147 147 147 147 147 147 148 148
148 148 148 147 146 146 145 144 144 143 143 142 142 142 142 142 142
142 142 142 142 142 142 142 142 142 143 143 143 144 144 144 144 144
144 145 145 145 145 144 144 144 144 144 144 144 144 144 143 143 143
143 143 142 142 142 141 141 140 138 137 136 136 135 135 135 128 128
128 121 110 106 93 83 83 83 82 82 98 98 96 96 96 101 101
101 111 118 132 133 134 135 139 140 140 141 142 143 144 144 145 145
148 148 149 149 149 149 149 141 140 133 132 127 126 125 124 123 122
122 118 107 104 97 96 95 94 93 92 91 90 88 87 87 86 81
80 80 79 79 79 80 65 56 48 48 48 55 55 56 55 64 72
151 198 195 195 196 196 197 200 204 205 207 208 209 210 212 213 213
214 214 215 215 216 216 219 221 221 222 222 222 222 222 222 222 222
222 223 223 223 220 206 200 183 178 176 180 180 197 175 148 146 146
146 145 145 144 144 144 143 143 143 144 144 144 144 144 144 143 143
142 141 141 141 140 255 255 255 255 255 255 255 255 255 255 255 255
255 255 255 255 255 255 255 255 255 255 255 255 255 255 255 255 255
255 255 255 255 255 255 255 255 255 255 255 255 255 255 255 255 255
255 255 255 255 255 255 255 255 255 255 255 255 255 255 255 255 255
255 255 255 255 255 255 255 255 255 255 255 255 255 255 255 255 255
255 255 255 255 255 255 255 255 255 255 255 255 255 255 255 255 255
255 255 255 255 255 255 255 255 255 255 255 255 255 255 255 255 255
255 255 255 255 255 255 255 255 255 255 255 255 255 255 255 255 255
255 255 255 255 255 255 255 255 255 255 255 255 255 255 255 255 255
255 255 255 255 255 255 255 255 255 255 255 255 255 255 255 255 255
255 255 255 255 255 255 255 255 255 255 255 255 255 255 255 255 255
255 255 255 255 255 255 255 255 255 255 255 255 255 255 255 255 255
255 255 255 255 255 255 255 255 255 255 255 255 255 255 255 255 255
225 211 207 174 162 151 151 151 151 151 152 152 152 151 151 150 150
150 149 148 148 148 147 147 147 147 147 147 148 148 148 148 148 147
146 146 145 144 144 143 143 142 142 142 142 142 142 142 143 143 143
143 143 144 143 143 143 143 143 144 144 144 144 144 144 144 144 144
144 144 144 144 144 144 144 144 144 144 144 143 143 143 143 142 142
142 141 141 140 139 137 137 136 136 136 136 134 128 128 128 110 106
104 100 99 99 99 98 98 98 106 107 107 108 109 110 111 137 137
138 140 140 141 141 141 141 142 143 145 145 145 146 147 149 149 149
149 149 149 142 140 134 132 127 126 126 124 123 120 116 110 104 101
97 96 95 94 93 92 91 90 87 87 86 81 81 80 80 80 80
80 80 65 65 48 48 48 55 56 56 56 64 79 127 198 194 195
195 196 196 201 204 205 206 207 209 210 211 212 213 213 214 214 215
221 221 221 221 221 221 221 221 222 221 221 221 221 221 220 220 219
219 206 207 183 178 179 183 183 197 173 146 146 146 146 145 145 145
144 144 144 144 144 144 144 144 144 144 144 143 143 142 141 141 141
141 255 255 255 255 255 255 255 255 255 255 255 255 255 255 255 255
255 255 255 255 255 255 255 255 255 255 255 255 255 255 255 255 255
255 255 255 255 255 255 255 255 255 255 255 255 255 255 255 255 255
255 255 255 255 255 255 255 255 255 255 255 255 255 255 255 255 255
255 255 255 255 255 255 255 255 255 255 255 255 255 255 255 255 255
255 255 255 255 255 255 255 255 255 255 255 255 255 255 255 255 255
255 255 255 255 255 255 255 255 255 255 255 255 255 255 255 255 255
255 255 255 255 255 255 255 255 255 255 255 255 255 255 255 255 255
255 255 255 255 255 255 255 255 255 255 255 255 255 255 255 255 255
255 255 255 255 255 255 255 255 255 255 255 255 255 255 255 255 255
255 255 255 255 255 255 255 255 255 255 255 255 255 255 255 255 255
255 255 255 255 255 255 255 255 255 255 255 255 255 255 255 255 255
255 255 255 255 255 255 255 255 255 255 255 255 255 225 225 216 216
197 170 155 155 154 153 153 152 152 151 151 150 150 150 149 149 148
148 148 147 147 147 147 147 148 148 148 148 147 147 146 146 145 144
144 143 143 142 142 142 142 142 143 143 143 143 143 144 144 144 144
143 143 143 144 144 144 144 144 144 144 144 144 144 144 144 144 144
143 144 144 144 144 144 144 144 143 143 143 143 142 142 142 141 141
139 138 137 137 137 136 136 136 135 135 134 123 112 112 112 113 113
113 114 113 113 117 117 117 117 121 129 134 138 139 139 139 142 142
143 147 148 148 147 146 146 146 146 147 148 149 148 148 148 148 144
140 134 132 126 126 125 124 123 119 112 110 104 100 99 95 94 93
92 91 90 90 86 86 86 81 81 81 80 80 80 81 81 81 81
68 64 56 56 56 56 62 64 79 120 198 192 192 192 196 196 202
203 204 205 206 209 210 211 212 212 213 213 214 215 221 221 221 221
221 221 221 221 221 221 221 221 221 220 220 219 218 217 216 208 184
182 182 183 183 183 156 146 146 146 146 146 145 145 145 144 144 144
144 144 144 144 144 144 144 144 143 142 142 141 141 141 255 255 255
255 255 255 255 255 255 255 255 255 255 255 255 255 255 255 255 255
255 255 255 255 255 255 255 255 255 255 255 255 255 255 255 255 255
255 255 255 255 255 255 255 255 255 255 255 255 255 255 255 255 255
255 255 255 255 255 255 255 255 255 255 255 255 255 255 255 255 255
255 255 255 255 255 255 255 255 255 255 255 255 255 255 255 255 255
255 255 255 255 255 255 255 255 255 255 255 255 255 255 255 255 255
255 255 255 255 255 255 255 255 255 255 255 255 255 255 255 255 255
255 255 255 255 255 255 255 255 255 255 255 255 255 255 255 255 255
255 255 255 255 255 255 255 255 255 255 255 255 255 255 255 255 255
255 255 255 255 255 255 255 255 255 255 255 255 255 255 255 255 255
255 255 255 255 255 255 255 255 255 255 255 255 255 255 255 255 255
255 255 255 255 255 255 255 255 255 255 255 255 255 255 255 255 255
255 255 255 255 255 255 255 255 255 231 231 231 222 222 216 216 176
176 153 153 153 152 152 151 150 150 150 149 149 148 148 148 148 148
148 148 148 148 148 148 148 147 147 146 146 145 145 144 143 143 143
143 143 143 143 143 143 143 144 144 144 144 144 144 144 144 144 144
144 144 144 144 144 144 144 144 144 144 144 144 143 143 144 144 144
144 144 144 144 144 143 143 143 143 142 142 142 141 140 139 139 138
138 138 137 136 136 135 134 134 122 117 117 117 117 117 119 119 119
119 132 132 132 133 133 133 139 139 140 141 141 144 144 147 148 148
148 147 147 147 146 147 148 148 148 148 147 146 145 139 133 133 126
126 125 125 122 118 111 110 100 96 95 94 93 92 91 90 90 89
86 85 85 82 81 81 81 81 81 81 81 82 82 81 81 80 80
64 63 63 63 79 120 190 191 191 191 191 193 202 202 204 205 205
209 210 210 211 212 212 213 214 215 215 220 221 221 221 221 220 220
220 220 220 220 220 220 219 219 218 216 215 209 189 189 189 183 183
146 146 146 146 146 146 146 145 145 145 144 144 144 144 144 144 144
144 144 144 143 143 142 142 141 141 141 255 255 255 255 255 255 255
255 255 255 255 255 255 255 255 255 255 255 255 255 255 255 255 255
255 255 255 255 255 255 255 255 255 255 255 255 255 255 255 255 255
255 255 255 255 255 255 255 255 255 255 255 255 255 255 255 255 255
255 255 255 255 255 255 255 255 255 255 255 255 255 255 255 255 255
255 255 255 255 255 255 255 255 255 255 255 255 255 255 255 255 255
255 255 255 255 255 255 255 255 255 255 255 255 255 255 255 255 255
255 255 255 255 255 255 255 255 255 255 255 255 255 255 255 255 255
255 255 255 255 255 255 255 255 255 255 255 255 255 255 255 255 255
255 255 255 255 255 255 255 255 255 255 255 255 255 255 255 255 255
255 255 255 255 255 255 255 255 255 255 255 255 255 255 255 255 255
255 255 255 255 255 255 255 255 255 255 255 255 255 255 255 255 255
255 255 255 255 255 255 255 255 255 255 255 255 255 255 255 255 255
255 255 255 255 255 239 239 239 239 240 240 240 240 215 203 153 153
152 152 151 150 150 150 150 149 149 149 149 149 148 148 148 148 148
148 148 148 147 147 146 146 145 145 144 144 143 143 143 143 143 143
143 143 144 144 144 145 145 144 144 144 144 144 144 144 144 144 144
144 144 144 144 144 144 144 144 144 144 144 144 144 144 144 144 144
144 143 143 143 143 143 142 142 142 140 139 139 139 139 139 140 140
140 140 134 134 135 135 135 138 142 142 142 142 141 141 141 151 151
150 143 143 143 150 151 153 153 153 152 151 150 149 149 148 147 147
147 147 147 147 147 147 147 146 145 139 133 133 126 126 125 125 122
112 112 109 100 95 95 94 93 91 90 90 89 89 85 85 84 82
82 81 81 81 82 82 82 82 82 81 81 80 80 75 75 75 75
79 111 190 190 190 191 191 192 202 202 203 204 205 208 209 210 211
211 212 212 215 215 215 220 220 220 220 220 220 220 220 220 220 220
220 219 219 218 217 216 214 210 192 192 192 171 171 146 146 146 146
146 146 146 145 145 145 145 144 144 144 144 144 144 144 144 144 143
143 142 142 141 141 140 255 255 255 255 255 255 255 255 255 255 255
255 255 255 255 255 255 255 255 255 255 255 255 255 255 255 255 255
255 255 255 255 255 255 255 255 255 255 255 255 255 255 255 255 255
255 255 255 255 255 255 255 255 255 255 255 255 255 255 255 255 255
255 255 255 255 255 255 255 255 255 255 255 255 255 255 255 255 255
255 255 255 255 255 255 255 255 255 255 255 255 255 255 255 255 255
255 255 255 255 255 255 255 255 255 255 255 255 255 255 255 255 255
255 255 255 255 255 255 255 255 255 255 255 255 255 255 255 255 255
255 255 255 255 255 255 255 255 255 255 255 255 255 255 255 255 255
255 255 255 255 255 255 255 255 255 255 255 255 255 255 255 255 255
255 255 255 255 255 255 255 255 255 255 255 255 255 255 255 255 255
255 255 255 255 255 255 255 255 255 255 255 255 255 255 255 255 255
255 255 255 255 255 255 255 255 255 255 255 255 255 255 255 255 255
255 239 239 239 239 240 240 240 240 236 219 199 199 152 152 151 150
150 150 150 150 150 150 149 149 149 148 148 148 148 148 148 148 147
147 147 146 145 145 144 144 144 144 144 144 144 144 144 144 144 144
145 145 145 145 145 144 144 144 144 144 144 144 144 144 144 144 144
144 144 144 144 144 144 144 144 144 144 144 144 144 144 144 144 144
143 143 143 143 142 141 140 140 140 140 140 141 141 144 151 144 144
144 144 144 146 146 146 146 155 155 154 153 152 152 152 153 153 153
153 153 153 153 153 153 152 151 150 149 148 148 147 147 147 147 147
147 146 146 138 138 138 134 133 126 125 125 124 116 113 112 109 100
95 94 93 92 91 90 89 88 88 85 84 84 83 82 82 82 82
82 83 83 83 84 85 86 89 95 96 97 98 98 98 111 189 189
190 190 190 193 194 202 202 203 204 208 208 210 210 211 211 212 215
215 215 220 220 220 220 220 220 220 220 220 219 219 219 219 219 218
217 216 213 212 212 192 192 160 146 146 146 146 146 146 146 146 145
145 145 145 144 144 144 144 144 144 144 143 143 143 142 142 141 141
140 140 255 255 255 255 255 255 255 255 255 255 255 255 255 255 255
255 255 255 255 255 255 255 255 255 255 255 255 255 255 255 255 255
255 255 255 255 255 255 255 255 255 255 255 255 255 255 255 255 255
255 255 255 255 255 255 255 255 255 255 255 255 255 255 255 255 255
255 255 255 255 255 255 255 255 255 255 255 255 255 255 255 255 255
255 255 255 255 255 255 255 255 255 255 255 255 255 255 255 255 255
255 255 255 255 255 255 255 255 255 255 255 255 255 255 255 255 255
255 255 255 255 255 255 255 255 255 255 255 255 255 255 255 255 255
255 255 255 255 255 255 255 255 255 255 255 255 255 255 255 255 255
255 255 255 255 255 255 255 255 255 255 255 255 255 255 255 255 255
255 255 255 255 255 255 255 255 255 255 255 255 255 255 255 255 255
255 255 255 255 255 255 255 255 255 255 255 255 255 255 255 255 255
255 255 255 255 255 255 255 255 255 255 255 255 255 255 239 240 240
240 240 240 240 240 236 237 232 232 202 163 163 150 150 150 150 151
151 150 150 150 149 149 148 148 148 148 148 148 147 147 147 147 145
145 145 144 144 144 145 145 144 144 144 144 144 144 145 145 145 145
144 144 144 143 143 144 144 144 144 144 144 144 144 144 144 144 144
144 144 144 144 144 144 144 144 144 144 144 144 144 144 144 143 143
143 141 141 140 140 141 141 141 142 145 152 152 145 144 144 145 146
146 154 154 155 155 154 154 153 153 153 154 154 154 154 153 154 154
153 153 152 151 150 150 149 148 147 147 147 146 146 146 146 146 138
138 137 134 127 126 125 124 124 114 113 102 101 100 97 93 92 91
90 89 88 87 87 85 84 84 83 83 83 83 82 83 84 87 88
89 89 96 97 98 100 100 99 102 105 110 189 189 189 189 190 193
194 201 202 202 204 207 207 208 209 210 211 211 215 215 215 220 219
219 220 220 220 219 219 219 219 219 219 219 218 218 217 216 215 215
213 184 178 148 146 146 146 145 145 145 145 145 145 145 145 145 144
144 144 144 144 143 143 143 143 142 141 141 141 140 140 140 255 255
255 255 255 255 255 255 255 255 255 255 255 255 255 255 255 255 255
255 255 255 255 255 255 255 255 255 255 255 255 255 255 255 255 255
255 255 255 255 255 255 255 255 255 255 255 255 255 255 255 255 255
255 255 255 255 255 255 255 255 255 255 255 255 255 255 255 255 255
255 255 255 255 255 255 255 255 255 255 255 255 255 255 255 255 255
255 255 255 255 255 255 255 255 255 255 255 255 255 255 255 255 255
255 255 255 255 255 255 255 255 255 255 255 255 255 255 255 255 255
255 255 255 255 255 255 255 255 255 255 255 255 255 255 255 255 255
255 255 255 255 255 255 255 255 255 255 255 255 255 255 255 255 255
255 255 255 255 255 255 255 255 255 255 255 255 255 255 255 255 255
255 255 255 255 255 255 255 255 255 255 255 255 255 255 255 255 255
255 255 255 255 255 255 255 255 255 255 255 255 255 255 255 255 255
255 255 255 255 255 255 255 255 255 255 240 240 240 240 241 241 241
240 237 237 237 236 235 212 203 166 150 150 150 151 151 151 150 150
149 149 149 148 148 148 148 148 148 147 147 147 146 146 145 145 145
145 145 145 145 144 144 144 144 144 144 145 145 144 144 144 143 143
143 144 144 144 144 144 144 144 144 144 144 144 144 144 144 144 144
144 144 145 144 144 144 144 144 144 144 144 144 144 143 142 141 141
141 141 142 142 143 146 152 153 149 150 150 158 158 158 159 159 164
163 155 155 154 154 154 154 154 154 154 155 154 154 154 153 152 151
150 149 149 148 147 147 146 146 146 145 145 145 138 138 133 128 128
127 124 124 124 114 110 103 100 99 98 92 92 91 89 88 87 86
86 85 84 84 84 83 83 83 83 83 84 90 90 92 93 95 104
104 101 101 103 103 105 106 171 185 185 189 189 191 195 201 201 202
203 207 206 206 207 207 209 209 215 215 216 216 219 219 219 220 220
219 219 219 219 218 218 218 218 217 217 216 215 214 214 184 163 148
146 146 146 145 145 145 145 145 145 145 145 144 144 144 144 144 143
143 143 143 142 142 141 141 140 140 140 140 255 255 255 255 255 255
255 255 255 255 255 255 255 255 255 255 255 255 255 255 255 255 255
255 255 255 255 255 255 255 255 255 255 255 255 255 255 255 255 255
255 255 255 255 255 255 255 255 255 255 255 255 255 255 255 255 255
255 255 255 255 255 255 255 255 255 255 255 255 255 255 255 255 255
255 255 255 255 255 255 255 255 255 255 255 255 255 255 255 255 255
255 255 255 255 255 255 255 255 255 255 255 255 255 255 255 255 255
255 255 255 255 255 255 255 255 255 255 255 255 255 255 255 255 255
255 255 255 255 255 255 255 255 255 255 255 255 255 255 255 255 255
255 255 255 255 255 255 255 255 255 255 255 255 255 255 255 255 255
255 255 255 255 255 255 255 255 255 255 255 255 255 255 255 255 255
255 255 255 255 255 255 255 255 255 255 255 255 255 255 255 255 255
255 255 255 255 255 255 255 255 255 255 255 255 255 255 255 255 255
255 255 255 255 255 255 240 240 241 241 241 241 241 241 239 238 237
236 235 235 225 225 169 151 151 152 152 151 150 150 149 149 149 148
148 148 148 148 148 148 147 147 146 146 146 145 145 145 145 145 145
145 145 145 144 144 144 144 144 144 144 143 143 143 143 143 144 144
144 144 145 145 145 145 145 145 144 144 144 144 144 144 145 145 144
144 144 144 144 144 144 144 144 144 143 142 142 142 142 142 143 143
144 146 153 153 155 157 158 160 160 161 164 164 164 164 164 156 155
155 155 155 155 155 155 155 155 154 154 153 153 151 149 148 148 147
147 147 146 146 145 145 145 133 132 130 130 129 128 127 112 112 111
110 110 103 99 99 98 92 92 91 88 87 87 86 85 85 83 83
84 84 84 84 90 90 91 90 91 92 101 101 104 104 102 103 103
104 106 106 171 185 185 188 189 189 198 200 201 202 203 204 205 206
207 207 209 209 215 215 216 216 218 219 219 220 220 220 220 220 218
218 218 218 218 217 217 215 215 214 214 184 163 147 146 146 146 145
145 145 145 145 145 145 144 144 144 144 144 144 143 143 143 142 142
141 141 140 140 139 139 139 255 255 255 255 255 255 255 255 255 255
255 255 255 255 255 255 255 255 255 255 255 255 255 255 255 255 255
255 255 255 255 255 255 255 255 255 255 255 255 255 255 255 255 255
255 255 255 255 255 255 255 255 255 255 255 255 255 255 255 255 255
255 255 255 255 255 255 255 255 255 255 255 255 255 255 255 255 255
255 255 255 255 255 255 255 255 255 255 255 255 255 255 255 255 255
255 255 255 255 255 255 255 255 255 255 255 255 255 255 255 255 255
255 255 255 255 255 255 255 255 255 255 255 255 255 255 255 255 255
255 255 255 255 255 255 255 255 255 255 255 255 255 255 255 255 255
255 255 255 255 255 255 255 255 255 255 255 255 255 255 255 255 255
255 255 255 255 255 255 255 255 255 255 255 255 255 255 255 255 255
255 255 255 255 255 255 255 255 255 255 255 255 255 255 255 255 255
255 255 255 255 255 255 255 255 255 255 255 255 255 255 255 255 255
255 255 241 241 241 241 241 241 241 241 239 239 239 240 240 240 240
239 223 212 171 153 153 154 150 150 149 149 149 149 148 148 148 148
148 148 148 147 147 146 146 146 146 146 145 145 145 145 145 145 145
145 144 144 144 144 144 143 143 143 143 143 144 144 144 145 145 145
145 145 145 145 145 145 145 144 144 144 144 145 144 144 144 144 145
145 145 144 144 144 143 143 143 142 142 143 143 144 145 146 153 153
156 158 159 160 161 162 164 164 164 164 164 156 156 157 156 155 155
155 155 155 155 154 150 150 149 148 148 148 148 147 146 146 145 145
145 145 144 130 130 130 129 129 118 118 111 111 110 102 102 100 99
99 98 91 90 90 87 87 86 85 85 84 84 83 85 85 84 84
91 91 91 91 91 100 102 104 104 104 103 103 104 105 106 106 154
185 185 188 188 188 198 199 200 201 202 203 205 206 206 207 208 208
214 215 215 216 218 218 219 220 220 221 221 221 217 216 216 216 217
217 215 215 215 215 214 190 181 147 146 146 146 145 145 145 145 145
145 144 144 144 144 144 144 143 143 143 142 142 141 141 140 140 139
139 139 139 255 255 255 255 255 255 255 255 255 255 255 255 255 255
255 255 255 255 255 255 255 255 255 255 255 255 255 255 255 255 255
255 255 255 255 255 255 255 255 255 255 255 255 255 255 255 255 255
255 255 255 255 255 255 255 255 255 255 255 255 255 255 255 255 255
255 255 255 255 255 255 255 255 255 255 255 255 255 255 255 255 255
255 255 255 255 255 255 255 255 255 255 255 255 255 255 255 255 255
255 255 255 255 255 255 255 255 255 255 255 255 255 255 255 255 255
255 255 255 255 255 255 255 255 255 255 255 255 255 255 255 255 255
255 255 255 255 255 255 255 255 255 255 255 255 255 255 255 255 255
255 255 255 255 255 255 255 255 255 255 255 255 255 255 255 255 255
255 255 255 255 255 255 255 255 255 255 255 255 255 255 255 255 255
255 255 255 255 255 255 255 255 255 255 255 255 255 255 255 255 255
255 255 255 255 255 255 255 255 255 255 255 255 255 255 255 241 241
241 241 241 241 241 242 242 242 242 241 241 240 240 239 239 239 222
180 154 155 149 149 149 149 149 149 149 149 149 149 149 148 148 148
147 147 146 146 146 146 146 146 145 145 145 145 145 145 144 144 144
144 144 143 143 143 143 143 144 144 144 145 145 145 145 145 145 145
145 145 145 145 144 144 144 144 144 144 145 145 145 145 145 145 144
144 144 143 143 143 143 143 144 145 145 146 153 154 155 159 160 161
161 163 164 164 164 164 164 164 159 158 157 157 157 156 155 155 155
154 150 149 149 148 147 147 146 146 145 145 145 145 144 141 141 125
126 127 128 128 113 113 112 104 104 101 101 96 96 94 92 91 90
89 87 86 86 85 84 84 84 84 85 86 86 92 92 92 93 95
96 100 102 104 105 105 105 106 106 106 106 106 148 185 186 187 187
188 198 199 200 201 202 203 204 205 206 207 208 208 214 214 215 216
217 218 219 220 220 221 221 221 215 216 216 215 215 215 215 215 215
215 214 195 181 147 147 147 146 146 145 145 145 144 144 144 144 144
144 144 144 143 143 143 142 142 141 141 140 140 139 139 139 139 255
255 255 255 255 255 255 255 255 255 255 255 255 255 255 255 255 255
255 255 255 255 255 255 255 255 255 255 255 255 255 255 255 255 255
255 255 255 255 255 255 255 255 255 255 255 255 255 255 255 255 255
255 255 255 255 255 255 255 255 255 255 255 255 255 255 255 255 255
255 255 255 255 255 255 255 255 255 255 255 255 255 255 255 255 255
255 255 255 255 255 255 255 255 255 255 255 255 255 255 255 255 255
255 255 255 255 255 255 255 255 255 255 255 255 255 255 255 255 255
255 255 255 255 255 255 255 255 255 255 255 255 255 255 255 255 255
255 255 255 255 255 255 255 255 255 255 255 255 255 255 255 255 255
255 255 255 255 255 255 255 255 255 255 255 255 255 255 255 255 255
255 255 255 255 255 255 255 255 255 255 255 255 255 255 255 255 255
255 255 255 255 255 255 255 255 255 255 255 255 255 255 255 255 255
255 255 255 255 255 255 255 255 255 255 255 241 241 241 241 241 242
242 242 242 242 242 242 241 241 240 240 239 238 238 232 180 155 149
149 149 149 149 149 149 149 149 149 149 149 148 148 148 147 147 146
146 146 146 146 146 146 145 145 145 145 144 144 144 144 143 143 143
143 143 143 143 144 144 145 145 145 145 145 145 145 145 145 145 144
144 144 144 144 144 144 145 145 145 145 145 145 144 144 144 143 143
143 143 143 143 145 146 146 153 154 155 159 160 161 162 163 164 164
165 165 164 164 164 164 157 157 157 156 155 155 154 154 150 149 148
147 147 146 145 144 144 144 144 136 136 136 137 124 125 124 116 115
113 101 101 99 99 96 96 96 90 89 89 88 88 88 87 86 85
85 85 84 84 84 85 86 93 93 93 93 93 97 97 100 108 108
111 111 111 111 110 110 109 109 136 184 186 186 187 187 198 198 199
201 202 203 204 205 207 207 208 208 214 214 215 216 217 218 219 220
222 222 222 221 215 215 216 216 215 215 215 215 215 215 214 195 181
148 148 147 146 146 145 145 144 144 144 144 144 144 144 144 143 143
143 143 142 142 141 141 140 139 139 139 138 138 255 255 255 255 255
255 255 255 255 255 255 255 255 255 255 255 255 255 255 255 255 255
255 255 255 255 255 255 255 255 255 255 255 255 255 255 255 255 255
255 255 255 255 255 255 255 255 255 255 255 255 255 255 255 255 255
255 255 255 255 255 255 255 255 255 255 255 255 255 255 255 255 255
255 255 255 255 255 255 255 255 255 255 255 255 255 255 255 255 255
255 255 255 255 255 255 255 255 255 255 255 255 255 255 255 255 255
255 255 255 255 255 255 255 255 255 255 255 255 255 255 255 255 255
255 255 255 255 255 255 255 255 255 255 255 255 255 255 255 255 255
255 255 255 255 255 255 255 255 255 255 255 255 255 255 255 255 255
255 255 255 255 255 255 255 255 255 255 255 255 255 255 255 255 255
255 255 255 255 255 255 255 255 255 255 255 255 255 255 255 255 255
255 255 255 255 255 255 255 255 255 255 255 255 255 255 255 255 255
255 255 255 255 255 255 255 240 241 241 241 241 242 242 242 242 243
242 242 242 241 241 240 240 238 238 232 219 191 149 149 149 149 149
149 149 149 149 150 149 149 149 148 148 147 147 147 147 147 146 146
146 146 146 145 145 145 144 144 144 143 143 143 143 142 142 143 143
144 144 144 144 145 145 145 145 145 145 145 145 144 144 144 144 144
144 144 145 145 145 145 145 145 144 144 144 143 143 143 143 143 143
145 146 147 148 149 155 158 161 161 162 163 164 164 165 165 165 164
164 164 158 157 156 156 155 154 153 153 149 149 147 147 146 146 145
144 144 144 144 136 136 125 124 123 122 122 115 115 101 101 99 99
99 90 90 89 89 88 88 88 87 87 86 86 85 85 85 85 85
84 86 93 93 93 93 93 107 107 109 109 110 111 112 112 113 114
115 116 121 121 136 181 186 186 187 187 196 196 199 200 201 203 204
205 206 207 208 208 213 214 214 215 216 219 220 221 222 222 222 221
215 215 216 216 216 215 215 215 215 215 215 195 178 148 148 147 147
146 145 145 144 144 144 144 144 143 143 143 143 143 143 143 142 142
141 141 140 139 139 138 138 138 255 255 255 255 255 255 255 255 255
255 255 255 255 255 255 255 255 255 255 255 255 255 255 255 255 255
255 255 255 255 255 255 255 255 255 255 255 255 255 255 255 255 255
255 255 255 255 255 255 255 255 255 255 255 255 255 255 255 255 255
255 255 255 255 255 255 255 255 255 255 255 255 255 255 255 255 255
255 255 255 255 255 255 255 255 255 255 255 255 255 255 255 255 255
255 255 255 255 255 255 255 255 255 255 255 255 255 255 255 255 255
255 255 255 255 255 255 255 255 255 255 255 255 255 255 255 255 255
255 255 255 255 255 255 255 255 255 255 255 255 255 255 255 255 255
255 255 255 255 255 255 255 255 255 255 255 255 255 255 255 255 255
255 255 255 255 255 255 255 255 255 255 255 255 255 255 255 255 255
255 255 255 255 255 255 255 255 255 255 255 255 255 255 255 255 255
255 255 255 255 255 255 255 255 255 255 255 255 255 255 255 255 255
255 255 255 240 240 241 241 241 242 242 242 243 243 243 242 242 242
241 240 240 238 237 232 223 195 158 149 149 149 149 149 149 150 150
150 150 150 149 149 148 148 147 147 147 147 147 147 146 146 146 145
145 145 144 144 144 143 143 143 142 142 142 142 142 143 144 144 144
144 144 144 144 144 145 145 144 144 144 144 144 144 144 144 145 145
145 145 145 145 144 144 143 143 143 143 143 143 144 145 145 146 147
149 149 159 159 162 162 163 164 164 165 165 165 164 164 164 158 158
156 153 153 152 152 151 149 148 147 146 138 138 138 142 141 135 135
135 135 124 124 123 122 122 115 115 101 98 97 97 92 90 90 89
88 88 87 87 87 86 86 85 85 85 86 86 87 87 86 94 94
94 95 96 107 107 111 111 124 126 126 126 126 127 127 122 121 122
136 178 186 186 186 187 187 196 199 200 201 203 204 205 206 207 208
209 212 213 214 215 216 219 220 221 222 223 223 223 218 218 217 216
216 215 215 215 215 215 215 199 173 149 148 148 147 146 145 145 144
144 144 143 143 143 143 143 143 143 143 143 142 142 141 141 140 139
139 138 138 138 255 255 255 255 255 255 255 255 255 255 255 255 255
255 255 255 255 255 255 255 255 255 255 255 255 255 255 255 255 255
255 255 255 255 255 255 255 255 255 255 255 255 255 255 255 255 255
255 255 255 255 255 255 255 255 255 255 255 255 255 255 255 255 255
255 255 255 255 255 255 255 255 255 255 255 255 255 255 255 255 255
255 255 255 255 255 255 255 255 255 255 255 255 255 255 255 255 255
255 255 255 255 255 255 255 255 255 255 255 255 255 255 255 255 255
255 255 255 255 255 255 255 255 255 255 255 255 255 255 255 255 255
255 255 255 255 255 255 255 255 255 255 255 255 255 255 255 255 255
255 255 255 255 255 255 255 255 255 255 255 255 255 255 255 255 255
255 255 255 255 255 255 255 255 255 255 255 255 255 255 255 255 255
255 255 255 255 255 255 255 255 255 255 255 255 255 255 255 255 255
255 255 255 255 255 255 255 255 255 255 255 255 255 255 255 255 240
240 240 241 241 241 242 242 243 243 243 243 242 242 241 240 240 239
234 233 229 229 201 152 149 149 149 150 150 150 150 150 150 150 150
149 149 148 148 147 147 147 147 147 146 146 146 145 145 145 144 144
143 143 143 142 142 142 142 142 142 143 143 144 144 144 144 144 144
144 144 144 144 144 144 144 144 144 144 144 145 145 145 145 145 143
143 143 143 143 143 143 143 143 143 145 145 146 146 149 149 158 159
162 162 162 163 164 164 164 164 164 164 161 157 149 149 148 148 147
147 147 148 137 136 136 137 136 137 137 136 127 126 126 125 125 124
122 122 114 114 114 99 99 96 92 92 90 89 88 88 87 86 85
85 85 85 85 85 86 86 86 87 88 89 96 101 101 101 107 108
108 111 111 132 132 133 129 128 127 127 127 127 127 137 178 185 186
186 187 187 189 199 199 200 203 204 205 207 208 209 210 212 213 214
215 217 219 220 222 222 223 223 223 218 218 217 217 216 215 215 215
215 215 215 200 160 149 149 148 148 146 145 144 144 144 143 143 143
143 143 143 143 143 143 142 142 142 141 141 140 139 139 138 138 138
255 255 255 255 255 255 255 255 255 255 255 255 255 255 255 255 255
255 255 255 255 255 255 255 255 255 255 255 255 255 255 255 255 255
255 255 255 255 255 255 255 255 255 255 255 255 255 255 255 255 255
255 255 255 255 255 255 255 255 255 255 255 255 255 255 255 255 255
255 255 255 255 255 255 255 255 255 255 255 255 255 255 255 255 255
255 255 255 255 255 255 255 255 255 255 255 255 255 255 255 255 255
255 255 255 255 255 255 255 255 255 255 255 255 255 255 255 255 255
255 255 255 255 255 255 255 255 255 255 255 255 255 255 255 255 255
255 255 255 255 255 255 255 255 255 255 255 255 255 255 255 255 255
255 255 255 255 255 255 255 255 255 255 255 255 255 255 255 255 255
255 255 255 255 255 255 255 255 255 255 255 255 255 255 255 255 255
255 255 255 255 255 255 255 255 255 255 255 255 255 255 255 255 255
255 255 255 255 255 255 255 255 255 255 255 255 240 240 240 241 241
241 242 242 242 243 243 242 242 241 241 240 240 236 235 233 229 229
229 177 150 150 150 150 150 150 151 151 151 150 150 149 149 148 148
147 147 147 147 147 146 146 146 145 145 144 144 143 143 143 142 142
142 142 142 142 142 142 143 143 143 143 143 144 144 144 144 144 144
144 144 144 144 144 144 144 145 145 145 145 145 143 143 143 143 143
143 143 143 143 143 143 144 145 146 149 149 158 158 162 162 162 162
162 161 164 164 164 164 159 157 149 148 148 147 147 147 146 137 136
136 136 136 136 136 132 127 127 126 126 123 122 119 119 106 105 104
96 96 92 91 92 91 90 90 85 84 84 84 84 84 85 85 85
86 86 86 86 95 96 96 96 103 103 107 107 112 112 133 133 135
135 134 136 137 137 138 138 138 137 137 178 185 185 186 187 187 188
198 199 199 204 204 205 207 208 209 210 211 212 213 216 217 219 219
222 223 223 223 223 219 218 218 217 215 215 215 215 215 215 215 200
160 149 149 148 147 147 144 144 144 143 143 143 143 143 143 143 143
143 142 142 142 142 141 141 140 139 139 138 138 138 255 255 255 255
255 255 255 255 255 255 255 255 255 255 255 255 255 255 255 255 255
255 255 255 255 255 255 255 255 255 255 255 255 255 255 255 255 255
255 255 255 255 255 255 255 255 255 255 255 255 255 255 255 255 255
255 255 255 255 255 255 255 255 255 255 255 255 255 255 255 255 255
255 255 255 255 255 255 255 255 255 255 255 255 255 255 255 255 255
255 255 255 255 255 255 255 255 255 255 255 255 255 255 255 255 255
255 255 255 255 255 255 255 255 255 255 255 255 255 255 255 255 255
255 255 255 255 255 255 255 255 255 255 255 255 255 255 255 255 255
255 255 255 255 255 255 255 255 255 255 255 255 255 255 255 255 255
255 255 255 255 255 255 255 255 255 255 255 255 255 255 255 255 255
255 255 255 255 255 255 255 255 255 255 255 255 255 255 255 255 255
255 255 255 255 255 255 255 255 255 255 255 255 255 255 255 255 255
255 255 255 255 255 255 255 255 240 240 240 240 241 241 242 242 242
242 242 242 242 241 240 240 239 236 236 232 230 229 229 200 150 150
150 150 151 151 151 151 151 151 150 150 149 148 148 147 147 147 147
146 146 146 146 145 145 144 143 143 142 142 142 142 142 141 142 142
142 142 142 142 143 143 143 143 144 144 144 144 144 144 144 144 144
144 144 144 145 145 145 145 144 144 143 143 143 143 143 143 143 142
142 142 141 144 143 142 149 157 158 159 160 161 162 161 161 160 157
157 150 150 149 149 148 148 147 147 146 137 137 135 135 135 135 135
135 118 118 119 117 117 117 118 118 115 106 104 97 97 96 91 91
89 90 84 84 80 81 83 83 83 84 84 85 85 86 86 87 88
95 103 106 106 106 114 114 114 121 123 133 133 142 142 144 147 147
146 145 144 144 144 143 158 184 184 184 187 187 197 197 198 199 204
204 204 208 208 209 210 211 213 213 216 217 218 219 223 223 223 223
223 222 218 218 218 215 215 215 215 215 215 215 200 160 149 148 148
147 146 144 144 143 143 143 143 143 143 143 143 143 143 142 142 142
141 141 141 140 139 139 138 138 138 255 255 255 255 255 255 255 255
255 255 255 255 255 255 255 255 255 255 255 255 255 255 255 255 255
255 255 255 255 255 255 255 255 255 255 255 255 255 255 255 255 255
255 255 255 255 255 255 255 255 255 255 255 255 255 255 255 255 255
255 255 255 255 255 255 255 255 255 255 255 255 255 255 255 255 255
255 255 255 255 255 255 255 255 255 255 255 255 255 255 255 255 255
255 255 255 255 255 255 255 255 255 255 255 255 255 255 255 255 255
255 255 255 255 255 255 255 255 255 255 255 255 255 255 255 255 255
255 255 255 255 255 255 255 255 255 255 255 255 255 255 255 255 255
255 255 255 255 255 255 255 255 255 255 255 255 255 255 255 255 255
255 255 255 255 255 255 255 255 255 255 255 255 255 255 255 255 255
255 255 255 255 255 255 255 255 255 255 255 255 255 255 255 255 255
255 255 255 255 255 255 255 255 255 255 255 255 255 255 255 255 255
255 255 255 255 240 240 240 240 241 241 241 241 242 242 242 242 241
241 240 239 238 237 237 230 229 229 229 221 171 151 151 151 151 151
151 151 151 151 150 150 149 148 148 147 147 147 146 146 146 146 146
145 145 144 143 143 142 142 142 141 141 141 142 142 142 142 142 142
142 143 143 144 144 144 144 145 145 144 144 144 144 144 144 144 145
145 145 145 145 144 144 144 144 143 143 143 143 142 142 142 141 141
141 141 141 156 157 156 155 155 155 154 154 154 151 151 150 150 149
149 148 140 140 139 133 133 134 134 134 134 134 133 131 118 118 117
117 117 117 113 109 107 103 104 97 97 92 86 87 88 83 82 80
80 81 81 82 82 83 84 85 86 86 86 87 87 95 106 106 106
111 114 114 114 128 133 133 143 143 143 144 148 147 146 146 145 144
144 144 158 181 181 183 187 187 196 197 198 199 200 201 204 207 208
210 211 212 213 214 216 217 218 221 223 223 223 223 223 222 218 218
218 215 215 214 214 213 213 207 203 154 149 148 148 147 145 144 144
143 143 143 143 143 143 143 143 143 142 142 142 142 141 141 141 140
139 139 138 138 138 255 255 255 255 255 255 255 255 255 255 255 255
255 255 255 255 255 255 255 255 255 255 255 255 255 255 255 255 255
255 255 255 255 255 255 255 255 255 255 255 255 255 255 255 255 255
255 255 255 255 255 255 255 255 255 255 255 255 255 255 255 255 255
255 255 255 255 255 255 255 255 255 255 255 255 255 255 255 255 255
255 255 255 255 255 255 255 255 255 255 255 255 255 255 255 255 255
255 255 255 255 255 255 255 255 255 255 255 255 255 255 255 255 255
255 255 255 255 255 255 255 255 255 255 255 255 255 255 255 255 255
255 255 255 255 255 255 255 255 255 255 255 255 255 255 255 255 255
255 255 255 255 255 255 255 255 255 255 255 255 255 255 255 255 255
255 255 255 255 255 255 255 255 255 255 255 255 255 255 255 255 255
255 255 255 255 255 255 255 255 255 255 255 255 255 255 255 255 255
255 255 255 255 255 255 255 255 255 255 255 255 255 255 255 255 255
241 240 240 240 241 241 241 241 241 241 241 241 241 240 239 239 238
237 237 230 230 229 229 221 198 152 152 152 151 151 151 151 151 151
150 150 149 148 147 147 147 146 146 146 146 146 145 145 145 143 143
142 142 142 142 142 142 142 142 142 142 142 142 142 143 143 144 144
144 144 145 145 145 145 145 145 145 145 145 145 145 145 145 145 145
144 144 144 144 144 144 143 143 142 142 141 141 141 140 140 140 154
154 155 155 150 150 148 147 146 146 146 145 144 144 143 142 140 140
139 133 133 133 133 132 131 130 129 130 117 118 117 108 104 104 103
102 101 101 93 93 92 85 85 83 82 82 81 80 80 80 81 81
82 83 83 86 86 90 90 98 102 102 106 111 111 115 115 115 128
134 146 145 144 143 143 150 149 149 150 146 146 145 145 144 144 180
181 186 187 187 196 196 197 197 200 201 206 207 208 210 211 212 213
214 216 217 218 221 222 223 223 223 222 222 218 218 217 215 214 214
213 212 211 208 203 154 149 148 147 146 145 144 144 143 143 143 143
143 143 143 143 143 142 142 142 141 141 141 141 140 139 139 138 138
138 255 255 255 255 255 255 255 255 255 255 255 255 255 255 255 255
255 255 255 255 255 255 255 255 255 255 255 255 255 255 255 255 255
255 255 255 255 255 255 255 255 255 255 255 255 255 255 255 255 255
255 255 255 255 255 255 255 255 255 255 255 255 255 255 255 255 255
255 255 255 255 255 255 255 255 255 255 255 255 255 255 255 255 255
255 255 255 255 255 255 255 255 255 255 255 255 255 255 255 255 255
255 255 255 255 255 255 255 255 255 255 255 255 255 255 255 255 255
255 255 255 255 255 255 255 255 255 255 255 255 255 255 255 255 255
255 255 255 255 255 255 255 255 255 255 255 255 255 255 255 255 255
255 255 255 255 255 255 255 255 255 255 255 255 255 255 255 255 255
255 255 255 255 255 255 255 255 255 255 255 255 255 255 255 255 255
255 255 255 255 255 255 255 255 255 255 255 255 255 255 255 255 255
255 255 255 255 255 255 255 255 255 255 255 255 255 241 241 241 240
240 241 241 241 241 241 241 241 240 240 239 238 238 237 237 232 231
231 230 223 223 152 152 152 152 152 152 151 151 151 150 150 149 148
147 147 147 146 146 146 146 146 145 145 145 143 143 142 142 142 142
142 142 142 142 142 142 143 143 143 143 143 144 144 145 145 145 145
145 145 145 145 145 145 145 145 145 145 145 145 145 145 145 144 144
144 144 144 143 143 142 142 141 141 140 140 140 154 153 151 143 143
144 145 146 145 145 144 144 144 144 143 131 131 131 131 132 132 132
132 132 127 127 127 127 117 117 117 108 96 96 96 96 96 95 88
86 81 81 81 82 81 81 80 80 80 80 80 81 82 83 83 87
87 90 91 98 104 104 106 112 112 119 119 128 128 135 147 148 148
149 150 150 150 150 150 147 146 145 145 145 145 180 180 185 186 188
196 196 197 197 200 201 206 207 208 210 211 212 213 215 216 217 218
220 220 223 222 222 222 222 218 217 216 215 214 213 213 211 210 209
203 154 149 148 147 145 145 144 143 143 143 143 143 143 143 143 143
143 142 142 142 141 141 140 140 140 139 139 138 138 138 255 255 255
255 255 255 255 255 255 255 255 255 255 255 255 255 255 255 255 255
255 255 255 255 255 255 255 255 255 255 255 255 255 255 255 255 255
255 255 255 255 255 255 255 255 255 255 255 255 255 255 255 255 255
255 255 255 255 255 255 255 255 255 255 255 255 255 255 255 255 255
255 255 255 255 255 255 255 255 255 255 255 255 255 255 255 255 255
255 255 255 255 255 255 255 255 255 255 255 255 255 255 255 255 255
255 255 255 255 255 255 255 255 255 255 255 255 255 255 255 255 255
255 255 255 255 255 255 255 255 255 255 255 255 255 255 255 255 255
255 255 255 255 255 255 255 255 255 255 255 255 255 255 255 255 255
255 255 255 255 255 255 255 255 255 255 255 255 255 255 255 255 255
255 255 255 255 255 255 255 255 255 255 255 255 255 255 255 255 255
255 255 255 255 255 255 255 255 255 255 255 255 255 255 255 255 255
255 255 255 255 255 255 255 255 255 241 241 241 240 240 240 241 241
241 241 241 240 240 239 239 238 238 236 235 233 232 231 231 231 223
183 153 153 152 152 152 151 151 151 150 149 149 148 147 147 147 146
146 146 146 146 145 145 145 144 143 143 142 142 142 142 142 142 142
143 143 143 143 143 144 144 144 145 145 145 146 146 146 146 146 145
145 145 145 145 145 145 145 145 145 145 145 145 145 145 145 144 144
143 143 142 141 141 140 140 140 148 149 150 143 143 139 139 138 139
138 138 137 136 135 132 131 131 130 124 124 121 121 121 122 123 124
125 125 116 100 100 95 96 95 88 88 88 88 80 80 80 80 80
80 80 79 79 79 79 79 80 81 82 83 83 87 89 89 92 98
105 105 105 112 112 119 136 147 147 147 148 148 149 149 150 150 151
151 151 151 146 146 146 146 147 179 179 184 184 190 195 196 196 197
201 201 202 208 209 210 211 212 214 215 216 217 218 219 220 220 221
221 221 218 218 217 216 215 214 213 212 212 210 209 203 155 146 146
145 145 144 144 143 143 143 143 143 143 143 143 143 142 142 142 141
141 140 140 140 139 139 139 138 138 138 255 255 255 255 255 255 255
255 255 255 255 255 255 255 255 255 255 255 255 255 255 255 255 255
255 255 255 255 255 255 255 255 255 255 255 255 255 255 255 255 255
255 255 255 255 255 255 255 255 255 255 255 255 255 255 255 255 255
255 255 255 255 255 255 255 255 255 255 255 255 255 255 255 255 255
255 255 255 255 255 255 255 255 255 255 255 255 255 255 255 255 255
255 255 255 255 255 255 255 255 255 255 255 255 255 255 255 255 255
255 255 255 255 255 255 255 255 255 255 255 255 255 255 255 255 255
255 255 255 255 255 255 255 255 255 255 255 255 255 255 255 255 255
255 255 255 255 255 255 255 255 255 255 255 255 255 255 255 255 255
255 255 255 255 255 255 255 255 255 255 255 255 255 255 255 255 255
255 255 255 255 255 255 255 255 255 255 255 255 255 255 255 255 255
255 255 255 255 255 255 255 255 255 255 255 255 255 255 255 255 255
255 255 255 255 255 241 241 241 240 240 240 240 240 241 241 241 240
240 239 239 238 237 236 235 234 233 232 231 231 231 204 153 153 152
152 152 151 151 150 150 149 148 148 147 147 147 146 146 146 146 146
146 145 145 144 143 143 143 142 142 142 142 143 143 143 143 143 143
144 144 145 145 145 146 146 146 146 146 146 146 146 146 146 146 145
146 146 146 146 146 146 146 145 145 145 145 145 144 144 143 143 141
141 140 140 140 148 148 149 140 142 139 139 138 136 136 135 135 134
134 132 131 131 130 117 116 116 115 111 111 110 109 109 108 108 100
100 95 91 90 85 85 80 80 80 80 79 79 79 78 78 78 78
78 78 79 80 81 82 83 83 87 89 93 92 98 105 105 105 114
114 142 142 147 147 148 148 149 149 150 151 151 152 152 153 153 146
146 147 147 148 179 180 183 183 192 195 196 196 197 201 201 204 208
209 210 211 212 214 215 216 217 218 219 219 219 219 219 220 218 217
217 216 215 214 213 212 211 210 209 203 160 147 144 144 144 144 143
143 143 143 143 143 143 143 143 143 142 142 141 141 141 140 140 139
139 139 138 138 138 138 255 255 255 255 255 255 255 255 255 255 255
255 255 255 255 255 255 255 255 255 255 255 255 255 255 255 255 255
255 255 255 255 255 255 255 255 255 255 255 255 255 255 255 255 255
255 255 255 255 255 255 255 255 255 255 255 255 255 255 255 255 255
255 255 255 255 255 255 255 255 255 255 255 255 255 255 255 255 255
255 255 255 255 255 255 255 255 255 255 255 255 255 255 255 255 255
255 255 255 255 255 255 255 255 255 255 255 255 255 255 255 255 255
255 255 255 255 255 255 255 255 255 255 255 255 255 255 255 255 255
255 255 255 255 255 255 255 255 255 255 255 255 255 255 255 255 255
255 255 255 255 255 255 255 255 255 255 255 255 255 255 255 255 255
255 255 255 255 255 255 255 255 255 255 255 255 255 255 255 255 255
255 255 255 255 255 255 255 255 255 255 255 255 255 255 255 255 255
255 255 255 255 255 255 255 255 255 255 255 255 255 255 255 255 255
255 241 241 241 240 240 240 240 240 240 241 241 240 240 240 239 238
238 237 236 234 233 232 232 231 231 222 157 152 152 152 151 151 151
150 150 149 148 148 148 147 147 147 146 146 146 146 146 146 145 144
144 143 143 143 143 143 143 143 143 143 143 143 144 144 144 145 145
146 146 146 146 146 146 146 146 146 146 146 146 146 146 146 146 146
146 146 146 146 146 146 145 145 145 144 143 143 142 141 141 140 139
139 139 138 138 138 130 130 131 136 135 134 134 134 133 132 131 117
117 116 116 115 115 111 111 110 109 109 97 97 96 91 91 91 86
81 81 80 79 79 79 78 78 78 77 77 77 77 77 77 78 79
80 83 83 84 89 89 93 102 104 105 115 115 115 135 143 147 147
148 148 149 149 150 151 151 152 153 153 153 153 148 148 147 148 148
177 180 181 181 194 195 196 196 197 201 202 204 208 208 211 211 213
214 214 217 217 218 219 219 219 219 218 218 217 217 216 216 214 214
213 212 211 210 209 203 187 148 144 144 144 143 143 143 143 143 143
143 143 143 143 142 142 142 141 141 140 139 139 139 138 138 138 138
137 137 255 255 255 255 255 255 255 255 255 255 255 255 255 255 255
255 255 255 255 255 255 255 255 255 255 255 255 255 255 255 255 255
255 255 255 255 255 255 255 255 255 255 255 255 255 255 255 255 255
255 255 255 255 255 255 255 255 255 255 255 255 255 255 255 255 255
255 255 255 255 255 255 255 255 255 255 255 255 255 255 255 255 255
255 255 255 255 255 255 255 255 255 255 255 255 255 255 255 255 255
255 255 255 255 255 255 255 255 255 255 255 255 255 255 255 255 255
255 255 255 255 255 255 255 255 255 255 255 255 255 255 255 255 255
255 255 255 255 255 255 255 255 255 255 255 255 255 255 255 255 255
255 255 255 255 255 255 255 255 255 255 255 255 255 255 255 255 255
255 255 255 255 255 255 255 255 255 255 255 255 255 255 255 255 255
255 255 255 255 255 255 255 255 255 255 255 255 255 255 255 255 255
255 255 255 255 255 255 255 255 255 255 255 255 255 255 241 241 240
240 240 240 240 240 240 240 240 240 240 240 239 239 238 237 236 235
234 233 232 231 230 230 199 152 152 151 151 151 150 150 149 149 149
148 148 147 147 147 147 147 146 146 146 146 146 146 144 144 144 144
143 143 143 143 143 143 143 143 144 144 144 145 146 146 146 146 146
146 146 146 146 146 146 146 146 146 146 146 146 146 147 147 146 146
146 146 146 145 145 144 144 143 142 142 141 140 139 123 124 125 126
127 128 129 116 116 116 116 115 115 115 109 109 109 109 109 110 111
112 111 111 103 103 90 87 87 87 87 87 87 86 79 79 79 79
78 78 77 77 77 77 76 76 76 76 77 77 79 80 84 84 90
89 90 103 104 104 115 115 115 121 135 143 151 151 151 151 150 150
150 151 152 153 153 153 154 153 149 148 148 148 148 176 179 180 180
194 195 196 197 197 202 202 206 207 208 210 211 213 214 214 215 217
218 218 218 218 218 218 217 217 216 216 215 214 213 213 212 211 210
209 203 190 148 144 143 143 143 143 143 143 143 143 143 143 143 142
142 142 141 141 140 139 139 138 138 138 138 137 137 137 137 255 255
255 255 255 255 255 255 255 255 255 255 255 255 255 255 255 255 255
255 255 255 255 255 255 255 255 255 255 255 255 255 255 255 255 255
255 255 255 255 255 255 255 255 255 255 255 255 255 255 255 255 255
255 255 255 255 255 255 255 255 255 255 255 255 255 255 255 255 255
255 255 255 255 255 255 255 255 255 255 255 255 255 255 255 255 255
255 255 255 255 255 255 255 255 255 255 255 255 255 255 255 255 255
255 255 255 255 255 255 255 255 255 255 255 255 255 255 255 255 255
255 255 255 255 255 255 255 255 255 255 255 255 255 255 255 255 255
255 255 255 255 255 255 255 255 255 255 255 255 255 255 255 255 255
255 255 255 255 255 255 255 255 255 255 255 255 255 255 255 255 255
255 255 255 255 255 255 255 255 255 255 255 255 255 255 255 255 255
255 255 255 255 255 255 255 255 255 255 255 255 255 255 255 255 255
255 255 255 255 255 255 255 255 255 255 241 240 240 240 239 239 239
240 240 240 240 240 240 240 240 239 239 237 237 236 236 235 231 231
230 230 199 152 151 151 151 150 150 150 149 149 149 148 148 148 147
147 147 147 147 147 147 146 146 146 146 145 145 144 144 144 143 143
143 143 143 143 144 144 144 145 146 146 146 146 146 146 146 146 146
146 146 146 146 146 146 146 147 147 147 147 147 147 146 146 146 145
145 145 144 143 143 142 142 140 139 123 123 122 117 116 115 116 116
116 116 115 113 112 110 109 107 106 106 105 105 105 104 104 105 99
94 90 87 84 84 84 84 78 78 78 79 78 78 77 76 76 75
72 72 73 74 74 75 76 77 79 79 84 84 91 97 97 104 104
115 115 126 128 128 145 145 151 151 151 152 152 153 153 153 153 153
154 154 154 153 150 148 149 149 149 155 179 179 180 194 196 196 197
198 201 204 205 207 208 210 212 213 214 215 215 217 217 218 218 218
218 217 217 216 216 215 215 214 213 212 212 210 209 209 208 194 161
144 143 143 143 143 143 143 143 143 143 143 143 142 142 141 141 140
139 139 138 138 138 137 137 137 137 137 137 255 255 255 255 255 255
255 255 255 255 255 255 255 255 255 255 255 255 255 255 255 255 255
255 255 255 255 255 255 255 255 255 255 255 255 255 255 255 255 255
255 255 255 255 255 255 255 255 255 255 255 255 255 255 255 255 255
255 255 255 255 255 255 255 255 255 255 255 255 255 255 255 255 255
255 255 255 255 255 255 255 255 255 255 255 255 255 255 255 255 255
255 255 255 255 255 255 255 255 255 255 255 255 255 255 255 255 255
255 255 255 255 255 255 255 255 255 255 255 255 255 255 255 255 255
255 255 255 255 255 255 255 255 255 255 255 255 255 255 255 255 255
255 255 255 255 255 255 255 255 255 255 255 255 255 255 255 255 255
255 255 255 255 255 255 255 255 255 255 255 255 255 255 255 255 255
255 255 255 255 255 255 255 255 255 255 255 255 255 255 255 255 255
255 255 255 255 255 255 255 255 255 255 255 255 255 255 255 255 255
255 255 255 255 255 255 240 240 240 239 239 239 239 239 240 240 240
240 240 240 240 240 239 239 238 237 236 236 231 231 231 230 216 168
151 151 150 150 150 150 149 149 149 148 148 148 148 147 147 147 147
147 147 147 147 147 146 146 145 145 144 144 144 143 143 143 143 143
143 144 144 145 146 146 146 146 146 146 146 146 146 146 146 146 146
146 147 147 147 147 147 147 147 147 147 146 146 145 145 145 144 144
143 143 142 140 139 123 123 122 113 113 114 113 113 113 112 97 97
97 102 102 105 105 104 104 88 88 88 87 86 85 84 83 82 82
78 78 75 75 74 74 75 76 77 76 75 75 73 72 72 72 73
73 75 76 77 77 85 84 84 91 96 97 105 105 118 126 126 134
134 150 151 151 151 152 152 153 153 153 153 153 154 154 154 154 153
151 150 149 149 149 149 161 178 179 193 196 197 198 199 201 204 205
206 207 211 212 213 214 215 215 216 218 218 218 218 218 217 217 216
215 214 214 213 213 212 212 210 209 209 208 194 161 144 143 143 143
143 143 143 143 143 143 143 143 142 141 141 140 140 139 138 138 137
137 136 136 136 136 137 137 255 255 255 255 255 255 255 255 255 255
255 255 255 255 255 255 255 255 255 255 255 255 255 255 255 255 255
255 255 255 255 255 255 255 255 255 255 255 255 255 255 255 255 255
255 255 255 255 255 255 255 255 255 255 255 255 255 255 255 255 255
255 255 255 255 255 255 255 255 255 255 255 255 255 255 255 255 255
255 255 255 255 255 255 255 255 255 255 255 255 255 255 255 255 255
255 255 255 255 255 255 255 255 255 255 255 255 255 255 255 255 255
255 255 255 255 255 255 255 255 255 255 255 255 255 255 255 255 255
255 255 255 255 255 255 255 255 255 255 255 255 255 255 255 255 255
255 255 255 255 255 255 255 255 255 255 255 255 255 255 255 255 255
255 255 255 255 255 255 255 255 255 255 255 255 255 255 255 255 255
255 255 255 255 255 255 255 255 255 255 255 255 255 255 255 255 255
255 255 255 255 255 255 255 255 255 255 255 255 255 255 255 255 255
255 255 240 240 239 239 238 238 238 238 239 239 240 240 240 240 240
240 240 239 238 238 237 236 231 231 231 230 230 197 150 150 150 150
150 149 149 149 149 148 148 148 148 148 147 147 147 147 147 147 147
147 147 146 146 145 145 144 144 143 143 143 143 143 143 143 144 145
145 146 146 146 146 146 146 146 146 146 146 147 147 147 147 147 147
148 148 148 147 147 147 146 146 145 145 145 144 144 143 143 142 140
140 138 123 119 112 112 110 108 105 105 97 97 97 91 91 90 89
88 87 87 86 86 85 84 84 84 84 77 77 77 77 77 75 75
74 73 71 69 68 74 74 71 71 71 71 71 72 72 75 76 76
77 85 86 92 92 96 108 107 112 118 132 132 146 145 150 151 151
152 152 153 153 153 153 154 154 154 154 154 154 154 151 150 150 149
149 149 161 177 179 187 197 197 198 199 200 204 205 206 207 208 212
213 214 215 216 216 217 218 218 218 217 217 216 215 215 214 214 213
212 212 211 210 209 209 208 208 161 161 143 143 143 143 143 143 143
143 143 143 143 142 141 141 140 139 139 138 138 137 137 136 136 136
136 137 137 255 255 255 255 255 255 255 255 255 255 255 255 255 255
255 255 255 255 255 255 255 255 255 255 255 255 255 255 255 255 255
255 255 255 255 255 255 255 255 255 255 255 255 255 255 255 255 255
255 255 255 255 255 255 255 255 255 255 255 255 255 255 255 255 255
255 255 255 255 255 255 255 255 255 255 255 255 255 255 255 255 255
255 255 255 255 255 255 255 255 255 255 255 255 255 255 255 255 255
255 255 255 255 255 255 255 255 255 255 255 255 255 255 255 255 255
255 255 255 255 255 255 255 255 255 255 255 255 255 255 255 255 255
255 255 255 255 255 255 255 255 255 255 255 255 255 255 255 255 255
255 255 255 255 255 255 255 255 255 255 255 255 255 255 255 255 255
255 255 255 255 255 255 255 255 255 255 255 255 255 255 255 255 255
255 255 255 255 255 255 255 255 255 255 255 255 255 255 255 255 255
255 255 255 255 255 255 255 255 255 255 255 255 255 255 255 240 239
239 238 237 237 237 238 238 239 239 240 240 241 241 240 240 240 239
238 237 236 235 232 231 230 230 209 150 150 150 150 149 149 149 149
148 148 148 148 148 148 147 147 147 147 147 147 147 147 147 146 146
145 145 145 144 144 143 143 143 143 143 143 144 144 145 145 145 145
146 146 146 146 146 146 147 147 147 147 147 147 148 148 148 148 147
147 146 146 146 145 145 145 144 144 143 143 142 140 140 140 124 119
112 112 107 107 105 104 82 81 82 79 79 79 80 80 81 82 82
83 84 84 83 82 78 77 76 77 77 76 75 74 74 73 71 68
67 66 67 68 69 70 70 71 71 71 75 76 76 85 85 91 92
93 96 108 116 121 133 143 146 146 148 149 151 151 152 152 153 153
154 154 154 154 154 155 155 154 154 151 150 150 149 149 149 160 176
179 186 190 197 199 200 201 202 204 206 207 208 212 213 214 215 216
216 217 218 218 218 217 217 216 215 215 214 213 213 212 212 211 210
210 209 209 208 203 170 144 143 143 143 143 143 143 143 143 143 143
141 141 140 140 139 138 138 137 137 136 136 136 136 136 137 137 255
255 255 255 255 255 255 255 255 255 255 255 255 255 255 255 255 255
255 255 255 255 255 255 255 255 255 255 255 255 255 255 255 255 255
255 255 255 255 255 255 255 255 255 255 255 255 255 255 255 255 255
255 255 255 255 255 255 255 255 255 255 255 255 255 255 255 255 255
255 255 255 255 255 255 255 255 255 255 255 255 255 255 255 255 255
255 255 255 255 255 255 255 255 255 255 255 255 255 255 255 255 255
255 255 255 255 255 255 255 255 255 255 255 255 255 255 255 255 255
255 255 255 255 255 255 255 255 255 255 255 255 255 255 255 255 255
255 255 255 255 255 255 255 255 255 255 255 255 255 255 255 255 255
255 255 255 255 255 255 255 255 255 255 255 255 255 255 255 255 255
255 255 255 255 255 255 255 255 255 255 255 255 255 255 255 255 255
255 255 255 255 255 255 255 255 255 255 255 255 255 255 255 255 255
255 255 255 255 255 255 255 255 255 255 255 233 233 234 235 236 236
236 236 238 239 239 240 240 240 241 241 241 240 240 239 237 236 235
233 232 230 230 209 165 152 150 150 149 149 149 149 148 148 148 148
148 147 147 147 147 147 147 147 147 147 147 147 146 146 145 145 145
144 144 143 143 143 143 143 144 144 145 145 145 145 145 145 146 146
146 147 147 147 147 147 147 148 148 148 148 148 147 147 146 146 146
145 145 144 144 144 143 143 142 141 141 140 134 134 113 112 107 107
106 93 81 81 80 79 79 79 79 78 81 81 80 81 82 82 74
75 75 76 76 76 76 76 75 74 74 69 64 64 65 65 64 68
69 70 70 70 71 77 77 77 77 91 91 93 93 94 95 113 120
133 133 144 146 146 148 149 150 151 151 152 153 153 154 154 154 155
155 155 155 155 155 151 150 150 149 149 149 160 176 179 185 190 197
199 200 201 201 204 204 207 211 212 213 214 215 216 217 217 218 218
218 217 217 216 215 215 213 213 212 212 211 211 210 210 209 209 208
208 190 144 144 143 143 143 143 143 143 143 143 143 141 141 140 139
139 138 138 137 137 136 136 136 136 136 137 137 255 255 255 255 255
255 255 255 255 255 255 255 255 255 255 255 255 255 255 255 255 255
255 255 255 255 255 255 255 255 255 255 255 255 255 255 255 255 255
255 255 255 255 255 255 255 255 255 255 255 255 255 255 255 255 255
255 255 255 255 255 255 255 255 255 255 255 255 255 255 255 255 255
255 255 255 255 255 255 255 255 255 255 255 255 255 255 255 255 255
255 255 255 255 255 255 255 255 255 255 255 255 255 255 255 255 255
255 255 255 255 255 255 255 255 255 255 255 255 255 255 255 255 255
255 255 255 255 255 255 255 255 255 255 255 255 255 255 255 255 255
255 255 255 255 255 255 255 255 255 255 255 255 255 255 255 255 255
255 255 255 255 255 255 255 255 255 255 255 255 255 255 255 255 255
255 255 255 255 255 255 255 255 255 255 255 255 255 255 255 255 255
255 255 255 255 255 255 255 255 255 255 255 255 255 255 255 255 255
255 255 255 255 255 255 255 233 233 233 233 233 234 235 236 238 238
239 239 240 240 241 241 241 241 240 239 237 237 236 234 231 231 231
209 189 152 150 150 150 149 149 148 148 148 148 147 147 147 147 147
147 146 146 146 146 146 146 146 146 146 146 145 145 144 144 144 144
143 143 143 144 144 144 145 145 145 145 145 146 146 146 147 147 147
147 147 147 148 148 148 148 148 147 147 146 146 145 145 145 144 144
144 143 143 142 142 141 140 140 139 139 133 133 121 121 93 82 80
80 79 78 78 77 78 77 78 79 78 75 74 73 72 71 71 64
63 63 65 65 65 65 65 64 64 64 64 64 66 66 70 70 71
71 77 77 77 91 91 91 98 107 111 111 113 120 133 133 144 146
146 148 149 150 151 151 152 153 153 154 154 155 155 155 155 155 155
155 150 150 150 150 149 149 160 165 179 184 190 197 199 199 200 201
203 204 206 211 212 213 214 215 216 217 217 218 218 218 217 217 216
215 215 214 213 212 212 211 211 210 210 209 209 208 208 190 145 144
143 143 143 143 143 143 143 142 142 141 141 140 139 139 138 138 137
137 136 136 136 136 136 137 137 255 255 255 255 255 255 255 255 255
255 255 255 255 255 255 255 255 255 255 255 255 255 255 255 255 255
255 255 255 255 255 255 255 255 255 255 255 255 255 255 255 255 255
255 255 255 255 255 255 255 255 255 255 255 255 255 255 255 255 255
255 255 255 255 255 255 255 255 255 255 255 255 255 255 255 255 255
255 255 255 255 255 255 255 255 255 255 255 255 255 255 255 255 255
255 255 255 255 255 255 255 255 255 255 255 255 255 255 255 255 255
255 255 255 255 255 255 255 255 255 255 255 255 255 255 255 255 255
255 255 255 255 255 255 255 255 255 255 255 255 255 255 255 255 255
255 255 255 255 255 255 255 255 255 255 255 255 255 255 255 255 255
255 255 255 255 255 255 255 255 255 255 255 255 255 255 255 255 255
255 255 255 255 255 255 255 255 255 255 255 255 255 255 255 255 255
255 255 255 255 255 255 255 255 255 255 255 255 255 255 255 255 255
255 255 255 233 233 233 233 233 234 234 234 234 234 238 239 240 240
241 241 241 241 241 240 240 240 236 234 234 232 231 209 192 158 150
150 150 149 149 148 148 148 147 147 147 147 147 147 147 146 146 146
146 146 146 146 146 146 146 145 145 145 144 144 144 144 143 143 143
144 144 144 145 145 145 145 145 146 146 147 147 147 147 147 147 148
148 148 148 147 147 146 146 146 145 145 144 144 144 144 143 143 143
142 142 143 143 144 144 143 133 130 130 123 84 80 80 78 78 77
77 77 77 77 77 74 74 73 73 72 71 71 63 63 63 61 60
59 59 59 59 59 63 63 64 65 65 70 70 70 71 77 77 77
91 92 101 101 107 124 124 129 140 143 143 146 146 147 148 149 149
150 150 151 152 153 154 154 155 155 155 155 155 155 155 151 150 150
150 150 150 160 165 175 184 190 198 198 199 200 201 202 203 206 210
212 213 214 215 216 217 217 218 218 218 218 217 216 216 215 214 213
212 212 211 211 210 209 209 209 208 208 191 145 144 143 143 143 143
143 143 142 142 142 141 141 140 139 139 138 137 137 137 136 136 136
136 136 137 137 255 255 255 255 255 255 255 255 255 255 255 255 255
255 255 255 255 255 255 255 255 255 255 255 255 255 255 255 255 255
255 255 255 255 255 255 255 255 255 255 255 255 255 255 255 255 255
255 255 255 255 255 255 255 255 255 255 255 255 255 255 255 255 255
255 255 255 255 255 255 255 255 255 255 255 255 255 255 255 255 255
255 255 255 255 255 255 255 255 255 255 255 255 255 255 255 255 255
255 255 255 255 255 255 255 255 255 255 255 255 255 255 255 255 255
255 255 255 255 255 255 255 255 255 255 255 255 255 255 255 255 255
255 255 255 255 255 255 255 255 255 255 255 255 255 255 255 255 255
255 255 255 255 255 255 255 255 255 255 255 255 255 255 255 255 255
255 255 255 255 255 255 255 255 255 255 255 255 255 255 255 255 255
255 255 255 255 255 255 255 255 255 255 255 255 255 255 255 255 255
255 255 255 255 255 255 255 255 255 255 255 255 255 255 255 255 233
233 233 233 233 233 233 234 234 234 232 232 240 240 241 241 241 241
241 241 240 240 236 236 235 232 231 229 218 172 151 151 150 150 149
149 148 148 147 147 147 147 147 147 146 146 146 146 146 146 146 146
146 146 146 145 145 145 145 144 144 144 144 144 141 141 141 140 140
144 145 145 145 146 146 147 147 147 147 147 147 147 147 147 147 147
146 146 146 145 145 145 144 144 144 143 143 143 143 143 143 143 144
144 144 143 143 144 141 132 131 129 102 78 78 77 77 77 77 77
77 68 68 68 68 69 70 63 63 60 60 60 59 59 59 59 59
59 61 62 63 64 65 70 70 71 72 89 89 91 91 99 104 104
124 124 129 129 142 145 145 146 146 147 147 148 149 149 150 150 150
154 154 155 155 155 155 155 155 155 155 151 151 150 150 150 150 161
164 175 183 191 198 198 199 200 201 202 203 204 210 211 212 213 215
216 217 217 218 218 218 218 218 217 216 215 214 213 212 212 211 210
210 209 209 208 208 208 193 168 143 143 143 143 143 143 142 142 142
142 141 140 140 139 138 138 137 137 136 136 136 136 136 136 137 137
255 255 255 255 255 255 255 255 255 255 255 255 255 255 255 255 255
255 255 255 255 255 255 255 255 255 255 255 255 255 255 255 255 255
255 255 255 255 255 255 255 255 255 255 255 255 255 255 255 255 255
255 255 255 255 255 255 255 255 255 255 255 255 255 255 255 255 255
255 255 255 255 255 255 255 255 255 255 255 255 255 255 255 255 255
255 255 255 255 255 255 255 255 255 255 255 255 255 255 255 255 255
255 255 255 255 255 255 255 255 255 255 255 255 255 255 255 255 255
255 255 255 255 255 255 255 255 255 255 255 255 255 255 255 255 255
255 255 255 255 255 255 255 255 255 255 255 255 255 255 255 255 255
255 255 255 255 255 255 255 255 255 255 255 255 255 255 255 255 255
255 255 255 255 255 255 255 255 255 255 255 255 255 255 255 255 255
255 255 255 255 255 255 255 255 255 255 255 255 255 255 255 255 255
255 255 255 255 255 255 255 255 255 255 255 255 233 233 233 233 233
233 233 233 233 233 233 232 240 240 241 241 242 242 241 241 240 240
239 236 236 232 231 229 218 177 152 151 151 150 150 149 148 148 147
147 147 146 146 146 146 146 146 146 146 146 146 146 146 146 146 145
145 145 145 145 145 144 144 144 141 141 141 141 140 144 144 145 145
146 147 147 147 147 147 147 147 147 147 147 146 146 146 146 145 145
145 144 144 144 143 143 143 143 143 143 143 143 144 144 144 145 144
144 141 141 131 129 111 84 84 84 84 80 80 77 77 65 65 63
61 60 59 57 56 55 54 54 54 54 54 55 58 59 60 61 62
64 66 76 76 79 79 89 89 112 113 113 114 117 126 126 130 143
143 145 145 146 146 147 147 148 149 149 150 150 150 154 154 155 156
156 156 156 156 156 156 151 151 150 151 151 151 161 163 174 183 191
196 198 199 200 201 202 203 204 210 210 211 213 214 216 217 217 218
218 219 218 218 217 216 215 214 213 213 212 211 210 210 209 209 208
208 208 193 186 143 143 143 143 143 143 142 142 142 141 141 140 140
139 138 138 137 137 136 136 136 136 136 136 136 136 255 255 255 255
255 255 255 255 255 255 255 255 255 255 255 255 255 255 255 255 255
255 255 255 255 255 255 255 255 255 255 255 255 255 255 255 255 255
255 255 255 255 255 255 255 255 255 255 255 255 255 255 255 255 255
255 255 255 255 255 255 255 255 255 255 255 255 255 255 255 255 255
255 255 255 255 255 255 255 255 255 255 255 255 255 255 255 255 255
255 255 255 255 255 255 255 255 255 255 255 255 255 255 255 255 255
255 255 255 255 255 255 255 255 255 255 255 255 255 255 255 255 255
255 255 255 255 255 255 255 255 255 255 255 255 255 255 255 255 255
255 255 255 255 255 255 255 255 255 255 255 255 255 255 255 255 255
255 255 255 255 255 255 255 255 255 255 255 255 255 255 255 255 255
255 255 255 255 255 255 255 255 255 255 255 255 255 255 255 255 255
255 255 255 255 255 255 255 255 255 255 255 255 255 255 255 255 255
255 255 255 255 255 255 255 255 234 234 234 233 233 233 233 233 233
232 232 232 240 240 241 241 242 242 241 241 240 240 239 236 236 233
231 230 228 209 152 152 151 151 150 149 148 148 147 147 146 146 146
146 146 146 146 146 146 146 146 146 146 146 146 145 145 145 145 145
145 145 144 144 143 142 141 141 141 144 144 145 145 146 147 147 147
147 147 147 147 147 146 146 146 146 145 145 145 145 145 144 144 144
143 143 143 143 143 143 143 143 145 145 145 145 145 144 142 141 141
129 120 104 104 85 86 86 80 77 77 65 64 63 61 60 58 57
56 55 53 53 54 54 55 56 57 59 60 61 61 64 66 76 76
87 88 89 89 112 124 123 123 123 129 129 143 143 143 144 145 145
146 147 147 148 149 149 150 150 150 155 157 157 157 157 157 156 156
156 156 156 155 154 152 152 152 161 163 174 184 192 196 197 198 200
201 202 203 204 210 210 211 213 214 215 216 217 218 219 219 219 218
218 217 216 214 214 213 212 211 210 209 209 208 208 207 203 194 188
152 144 143 143 143 143 142 142 142 141 141 140 140 139 138 138 137
137 136 136 136 136 136 136 136 136 255 255 255 255 255 255 255 255
255 255 255 255 255 255 255 255 255 255 255 255 255 255 255 255 255
255 255 255 255 255 255 255 255 255 255 255 255 255 255 255 255 255
255 255 255 255 255 255 255 255 255 255 255 255 255 255 255 255 255
255 255 255 255 255 255 255 255 255 255 255 255 255 255 255 255 255
255 255 255 255 255 255 255 255 255 255 255 255 255 255 255 255 255
255 255 255 255 255 255 255 255 255 255 255 255 255 255 255 255 255
255 255 255 255 255 255 255 255 255 255 255 255 255 255 255 255 255
255 255 255 255 255 255 255 255 255 255 255 255 255 255 255 255 255
255 255 255 255 255 255 255 255 255 255 255 255 255 255 255 255 255
255 255 255 255 255 255 255 255 255 255 255 255 255 255 255 255 255
255 255 255 255 255 255 255 255 255 255 255 255 255 255 255 255 255
255 255 255 255 255 255 255 255 255 255 255 255 255 255 255 255 255
255 255 255 255 234 234 234 234 234 233 233 233 233 232 232 232 240
240 241 241 242 242 241 241 240 240 239 237 235 233 232 232 228 217
153 153 152 151 150 149 148 148 147 147 146 146 146 146 146 146 146
146 146 146 146 146 146 145 145 145 145 145 145 145 145 145 145 145
145 145 142 143 143 144 144 145 146 146 147 147 147 147 147 147 147
146 146 146 145 145 145 145 145 145 145 144 144 144 144 143 143 143
143 143 143 144 145 145 145 145 144 144 142 142 141 141 120 114 104
104 87 87 80 77 77 66 64 63 61 60 58 57 54 54 54 53
54 54 55 56 57 59 60 60 61 66 66 80 88 88 88 89 107
112 124 126 128 129 129 130 143 143 143 144 145 145 146 146 147 148
149 149 150 150 150 155 157 157 157 157 157 157 157 157 156 156 155
154 154 153 153 156 162 174 184 185 196 197 199 200 201 202 203 204
208 209 211 212 213 215 216 218 218 219 220 220 220 220 217 216 215
214 213 212 211 210 209 209 208 207 207 203 202 188 166 144 144 144
143 143 143 142 142 141 141 140 139 139 138 138 137 136 136 136 135
135 135 135 135 135 255 255 255 255 255 255 255 255 255 255 255 255
255 255 255 255 255 255 255 255 255 255 255 255 255 255 255 255 255
255 255 255 255 255 255 255 255 255 255 255 255 255 255 255 255 255
255 255 255 255 255 255 255 255 255 255 255 255 255 255 255 255 255
255 255 255 255 255 255 255 255 255 255 255 255 255 255 255 255 255
255 255 255 255 255 255 255 255 255 255 255 255 255 255 255 255 255
255 255 255 255 255 255 255 255 255 255 255 255 255 255 255 255 255
255 255 255 255 255 255 255 255 255 255 255 255 255 255 255 255 255
255 255 255 255 255 255 255 255 255 255 255 255 255 255 255 255 255
255 255 255 255 255 255 255 255 255 255 255 255 255 255 255 255 255
255 255 255 255 255 255 255 255 255 255 255 255 255 255 255 255 255
255 255 255 255 255 255 255 255 255 255 255 255 255 255 255 255 255
255 255 255 255 255 255 255 255 255 255 255 255 255 255 255 255 255
235 235 235 234 234 234 233 234 233 232 232 232 240 241 241 241 242
242 241 241 240 240 239 238 236 234 233 232 232 217 166 153 152 151
150 150 149 148 147 147 146 146 146 146 146 146 146 146 146 146 146
146 146 145 145 145 145 145 145 145 145 145 145 145 145 145 143 143
144 144 144 145 146 146 147 147 147 147 147 147 147 146 146 145 145
145 145 145 145 145 145 144 144 144 144 143 143 143 143 143 144 144
145 145 145 145 144 144 143 142 142 141 138 114 105 105 97 97 90
83 84 68 64 63 61 60 58 57 54 54 54 54 54 55 55 56
57 60 60 60 61 78 79 88 92 111 111 111 111 119 125 126 128
132 138 142 143 143 143 144 144 145 145 146 147 148 149 149 150 150
151 156 158 158 158 158 158 158 158 157 157 157 156 156 154 154 154
154 154 174 185 185 197 197 200 200 202 203 204 205 208 208 211 212
212 215 216 218 218 219 220 220 220 220 217 216 216 215 214 212 211
210 209 208 208 207 206 204 201 191 191 144 144 144 144 143 143 142
142 141 140 140 139 139 138 138 137 136 136 135 135 135 135 135 135
135 255 255 255 255 255 255 255 255 255 255 255 255 255 255 255 255
255 255 255 255 255 255 255 255 255 255 255 255 255 255 255 255 255
255 255 255 255 255 255 255 255 255 255 255 255 255 255 255 255 255
255 255 255 255 255 255 255 255 255 255 255 255 255 255 255 255 255
255 255 255 255 255 255 255 255 255 255 255 255 255 255 255 255 255
255 255 255 255 255 255 255 255 255 255 255 255 255 255 255 255 255
255 255 255 255 255 255 255 255 255 255 255 255 255 255 255 255 255
255 255 255 255 255 255 255 255 255 255 255 255 255 255 255 255 255
255 255 255 255 255 255 255 255 255 255 255 255 255 255 255 255 255
255 255 255 255 255 255 255 255 255 255 255 255 255 255 255 255 255
255 255 255 255 255 255 255 255 255 255 255 255 255 255 255 255 255
255 255 255 255 255 255 255 255 255 255 255 255 255 255 255 255 255
255 255 255 255 255 255 255 255 255 255 255 255 255 240 239 238 239
239 238 236 234 233 233 232 232 241 241 241 241 242 242 241 241 240
240 239 238 236 234 234 233 232 217 166 153 153 152 151 150 149 148
147 147 146 146 146 146 146 146 146 146 146 146 146 146 145 145 145
145 145 145 145 146 146 146 145 145 145 145 144 144 144 144 145 145
146 147 147 147 148 148 147 147 147 146 145 145 145 144 144 144 144
145 145 145 145 145 145 144 144 144 144 144 144 144 145 145 145 145
144 144 143 142 142 142 138 114 106 107 107 97 90 87 85 83 65
63 63 60 58 55 55 54 54 54 55 55 56 56 56 61 61 78
81 81 89 98 98 111 111 111 115 119 126 126 128 132 138 142 142
143 143 144 144 144 145 146 147 148 149 150 150 156 156 157 158 159
159 159 159 159 158 158 158 157 157 156 155 155 155 155 164 174 183
185 197 197 200 200 203 204 205 206 207 209 210 211 212 215 216 217
218 219 220 220 220 220 218 217 216 216 213 212 211 210 209 208 207
207 206 204 201 192 192 145 145 144 144 143 143 142 142 141 140 140
139 139 138 138 137 136 136 135 135 135 135 135 135 135 255 255 255
255 255 255 255 255 255 255 255 255 255 255 255 255 255 255 255 255
255 255 255 255 255 255 255 255 255 255 255 255 255 255 255 255 255
255 255 255 255 255 255 255 255 255 255 255 255 255 255 255 255 255
255 255 255 255 255 255 255 255 255 255 255 255 255 255 255 255 255
255 255 255 255 255 255 255 255 255 255 255 255 255 255 255 255 255
255 255 255 255 255 255 255 255 255 255 255 255 255 255 255 255 255
255 255 255 255 255 255 255 255 255 255 255 255 255 255 255 255 255
255 255 255 255 255 255 255 255 255 255 255 255 255 255 255 255 255
255 255 255 255 255 255 255 255 255 255 255 255 255 255 255 255 255
255 255 255 255 255 255 255 255 255 255 255 255 255 255 255 255 255
255 255 255 255 255 255 255 255 255 255 255 255 255 255 255 255 255
255 255 255 255 255 255 255 255 255 255 255 255 255 255 255 255 255
255 255 255 255 255 255 255 255 255 240 240 240 240 240 239 240 240
240 240 240 241 241 241 241 242 242 242 241 241 240 240 239 238 236
235 234 232 232 232 198 154 154 151 151 150 148 148 147 147 146 146
146 146 146 146 146 146 146 146 146 146 146 145 145 145 145 145 146
146 146 146 146 145 145 145 145 144 144 144 145 145 146 147 147 148
148 148 147 147 147 146 145 145 145 144 144 144 144 145 145 145 145
145 145 145 144 144 144 144 144 145 145 145 145 145 144 144 143 143
142 142 138 114 108 108 108 108 88 87 86 87 87 63 63 64 58
55 55 55 55 55 56 56 56 56 57 61 74 78 94 102 102 102
109 111 111 115 115 127 132 132 140 141 141 142 142 143 143 143 144
144 145 145 146 148 150 150 150 156 156 158 159 160 160 160 160 159
159 158 158 158 157 156 156 156 156 155 164 174 188 191 198 198 199
200 203 204 205 206 207 208 210 211 211 214 217 217 218 219 220 220
220 219 218 217 216 216 213 212 211 210 210 208 207 207 206 204 201
192 192 155 146 144 144 144 143 142 142 141 140 140 139 139 138 137
137 136 136 135 135 135 134 134 135 135 255 255 255 255 255 255 255
255 255 255 255 255 255 255 255 255 255 255 255 255 255 255 255 255
255 255 255 255 255 255 255 255 255 255 255 255 255 255 255 255 255
255 255 255 255 255 255 255 255 255 255 255 255 255 255 255 255 255
255 255 255 255 255 255 255 255 255 255 255 255 255 255 255 255 255
255 255 255 255 255 255 255 255 255 255 255 255 255 255 255 255 255
255 255 255 255 255 255 255 255 255 255 255 255 255 255 255 255 255
255 255 255 255 255 255 255 255 255 255 255 255 255 255 255 255 255
255 255 255 255 255 255 255 255 255 255 255 255 255 255 255 255 255
255 255 255 255 255 255 255 255 255 255 255 255 255 255 255 255 255
255 255 255 255 255 255 255 255 255 255 255 255 255 255 255 255 255
255 255 255 255 255 255 255 255 255 255 255 255 255 255 255 255 255
255 255 255 255 255 255 255 255 255 255 255 255 255 255 255 255 255
255 255 255 255 255 241 241 241 241 241 241 241 241 241 241 241 241
241 241 242 242 242 242 242 241 241 240 239 238 237 236 235 233 232
232 198 158 154 151 150 150 149 148 147 147 146 146 146 146 146 146
146 146 146 146 146 146 146 145 145 145 145 145 145 146 146 146 146
146 146 145 145 145 145 145 145 147 147 147 148 148 148 148 148 147
147 145 145 145 144 144 144 144 145 145 145 145 146 146 146 146 145
145 145 145 145 145 145 145 145 145 144 144 143 143 142 142 139 119
119 116 113 113 89 89 90 90 88 81 66 64 58 58 55 55 55
55 56 57 57 58 68 69 77 78 94 105 105 105 110 117 118 118
118 133 133 133 140 141 141 142 142 142 142 143 143 144 144 145 145
147 151 152 152 159 159 161 161 161 161 161 160 160 159 159 159 158
158 158 157 157 156 160 164 177 188 191 198 199 199 200 203 204 205
206 207 208 210 211 212 213 217 217 219 219 220 220 220 219 218 218
217 215 214 213 211 210 209 208 207 207 206 204 201 193 193 171 147
145 144 144 143 142 142 141 140 140 139 139 138 137 137 136 135 135
135 134 134 134 134 134 255 255 255 255 255 255 255 255 255 255 255
255 255 255 255 255 255 255 255 255 255 255 255 255 255 255 255 255
255 255 255 255 255 255 255 255 255 255 255 255 255 255 255 255 255
255 255 255 255 255 255 255 255 255 255 255 255 255 255 255 255 255
255 255 255 255 255 255 255 255 255 255 255 255 255 255 255 255 255
255 255 255 255 255 255 255 255 255 255 255 255 255 255 255 255 255
255 255 255 255 255 255 255 255 255 255 255 255 255 255 255 255 255
255 255 255 255 255 255 255 255 255 255 255 255 255 255 255 255 255
255 255 255 255 255 255 255 255 255 255 255 255 255 255 255 255 255
255 255 255 255 255 255 255 255 255 255 255 255 255 255 255 255 255
255 255 255 255 255 255 255 255 255 255 255 255 255 255 255 255 255
255 255 255 255 255 255 255 255 255 255 255 255 255 255 255 255 255
255 255 255 255 255 255 255 255 255 255 255 255 255 255 255 255 255
255 242 242 242 242 241 241 241 241 241 241 241 241 242 242 242 242
242 242 242 241 241 240 239 238 237 236 235 233 233 229 219 170 151
151 151 149 149 148 147 147 146 146 146 146 146 146 146 146 146 146
146 146 146 146 145 145 145 145 145 146 146 146 146 146 146 146 146
146 145 145 145 147 147 148 148 148 148 148 148 148 147 145 145 145
145 144 144 144 145 145 145 146 146 146 146 146 146 145 145 145 145
145 145 145 145 145 144 144 144 143 142 142 139 119 119 119 113 113
109 92 90 90 89 81 79 74 74 59 59 59 59 58 58 57 57
68 68 69 95 99 99 105 105 107 110 117 117 132 133 133 133 133
140 141 141 142 142 142 142 143 143 144 144 145 145 146 152 153 153
159 160 162 162 162 162 162 161 161 160 160 159 159 158 158 158 157
157 160 164 177 190 190 198 199 199 201 203 204 204 206 207 209 210
211 212 212 217 217 218 219 219 220 219 219 218 218 217 215 214 213
212 210 209 208 207 207 206 205 201 201 193 177 148 145 144 144 143
142 142 141 140 140 139 139 138 137 137 135 135 135 134 134 134 134
134 134 255 255 255 255 255 255 255 255 255 255 255 255 255 255 255
255 255 255 255 255 255 255 255 255 255 255 255 255 255 255 255 255
255 255 255 255 255 255 255 255 255 255 255 255 255 255 255 255 255
255 255 255 255 255 255 255 255 255 255 255 255 255 255 255 255 255
255 255 255 255 255 255 255 255 255 255 255 255 255 255 255 255 255
255 255 255 255 255 255 255 255 255 255 255 255 255 255 255 255 255
255 255 255 255 255 255 255 255 255 255 255 255 255 255 255 255 255
255 255 255 255 255 255 255 255 255 255 255 255 255 255 255 255 255
255 255 255 255 255 255 255 255 255 255 255 255 255 255 255 255 255
255 255 255 255 255 255 255 255 255 255 255 255 255 255 255 255 255
255 255 255 255 255 255 255 255 255 255 255 255 255 255 255 255 255
255 255 255 255 255 255 255 255 255 255 255 255 255 255 255 255 255
255 255 255 255 255 255 255 255 255 255 255 255 255 255 242 242 242
242 242 242 242 242 242 242 242 242 242 242 242 242 242 242 242 242
241 241 240 239 238 237 236 234 234 229 219 185 151 151 150 149 149
148 147 147 146 146 146 146 146 146 146 146 146 146 146 146 146 146
145 145 145 145 145 145 146 146 146 146 146 146 146 147 147 148 148
148 148 148 148 148 148 148 148 148 147 146 145 145 145 144 144 145
145 145 146 147 147 147 147 146 146 146 145 145 145 145 145 145 145
145 145 144 144 143 143 142 139 127 125 119 113 114 109 108 90 90
90 91 91 91 88 60 60 60 60 60 60 61 67 68 95 95 95
99 99 106 106 114 123 124 131 132 133 134 136 140 140 141 141 142
142 142 143 143 143 144 144 145 145 146 153 154 155 159 160 162 163
163 163 163 161 161 161 160 160 159 159 158 158 158 158 159 161 175
190 190 199 199 200 201 202 203 204 206 207 208 210 211 211 216 216
217 218 219 219 219 219 219 218 218 218 217 213 213 211 210 209 208
208 207 206 206 202 200 194 194 165 145 144 144 143 142 142 141 140
140 139 139 138 138 136 135 135 134 134 134 134 134 134 135 255 255
255 255 255 255 255 255 255 255 255 255 255 255 255 255 255 255 255
255 255 255 255 255 255 255 255 255 255 255 255 255 255 255 255 255
255 255 255 255 255 255 255 255 255 255 255 255 255 255 255 255 255
255 255 255 255 255 255 255 255 255 255 255 255 255 255 255 255 255
255 255 255 255 255 255 255 255 255 255 255 255 255 255 255 255 255
255 255 255 255 255 255 255 255 255 255 255 255 255 255 255 255 255
255 255 255 255 255 255 255 255 255 255 255 255 255 255 255 255 255
255 255 255 255 255 255 255 255 255 255 255 255 255 255 255 255 255
255 255 255 255 255 255 255 255 255 255 255 255 255 255 255 255 255
255 255 255 255 255 255 255 255 255 255 255 255 255 255 255 255 255
255 255 255 255 255 255 255 255 255 255 255 255 255 255 255 255 255
255 255 255 255 255 255 255 255 255 255 255 255 255 255 255 255 255
255 255 255 255 255 255 255 255 255 255 243 243 243 243 243 243 242
242 242 242 242 242 242 242 242 243 243 243 242 242 242 241 240 240
238 237 236 235 234 230 219 189 151 151 150 149 149 148 147 147 146
146 146 146 146 146 146 146 146 146 146 146 146 145 145 145 145 145
145 145 146 146 146 146 146 147 147 147 148 148 148 148 148 148 148
148 148 148 148 148 147 146 146 145 145 144 145 145 145 146 146 147
147 147 147 146 146 146 145 145 145 145 145 145 145 145 145 145 144
144 143 142 139 127 125 119 119 114 110 108 97 97 92 92 92 92
90 90 90 86 86 76 76 76 76 94 94 95 105 105 106 106 106
123 124 126 131 132 137 137 137 139 140 141 142 142 142 143 143 143
143 144 144 145 145 146 154 154 157 159 160 163 164 164 164 164 162
162 161 161 160 160 159 159 159 159 159 159 161 175 184 184 199 199
200 202 202 203 204 205 208 209 210 211 212 215 216 217 218 218 219
219 219 219 218 218 217 217 214 213 211 210 209 208 208 207 206 206
203 200 195 195 176 145 144 144 143 142 142 141 140 140 139 139 138
137 136 135 135 134 134 134 134 134 135 135 255 255 255 255 255 255
255 255 255 255 255 255 255 255 255 255 255 255 255 255 255 255 255
255 255 255 255 255 255 255 255 255 255 255 255 255 255 255 255 255
255 255 255 255 255 255 255 255 255 255 255 255 255 255 255 255 255
255 255 255 255 255 255 255 255 255 255 255 255 255 255 255 255 255
255 255 255 255 255 255 255 255 255 255 255 255 255 255 255 255 255
255 255 255 255 255 255 255 255 255 255 255 255 255 255 255 255 255
255 255 255 255 255 255 255 255 255 255 255 255 255 255 255 255 255
255 255 255 255 255 255 255 255 255 255 255 255 255 255 255 255 255
255 255 255 255 255 255 255 255 255 255 255 255 255 255 255 255 255
255 255 255 255 255 255 255 255 255 255 255 255 255 255 255 255 255
255 255 255 255 255 255 255 255 255 255 255 255 255 255 255 255 255
255 255 255 255 255 255 255 255 255 255 255 255 255 255 255 255 255
255 255 255 255 255 255 244 244 243 243 243 243 243 243 243 243 243
243 243 243 243 243 243 243 243 242 242 242 241 241 238 238 236 235
235 231 219 194 151 150 150 149 149 148 147 147 146 146 146 146 146
146 146 146 146 145 145 145 145 145 145 145 145 145 145 145 146 146
146 146 147 147 147 148 148 148 148 148 148 148 148 149 149 148 148
148 147 146 146 145 145 145 145 145 145 146 146 147 147 147 147 147
146 146 145 145 145 145 145 145 145 145 145 145 144 144 144 142 138
127 126 123 124 124 110 110 110 110 99 92 92 92 91 91 90 90
85 84 84 84 91 103 103 104 105 106 106 106 107 124 124 126 127
132 137 137 140 140 141 142 142 143 143 143 143 143 144 144 144 145
145 146 155 155 158 159 160 163 165 165 165 164 164 165 165 161 161
160 160 160 160 160 160 161 161 175 174 184 199 199 200 202 203 203
204 205 208 209 210 211 213 214 215 217 217 218 218 218 218 218 218
217 217 216 215 211 211 210 209 208 208 207 206 205 204 200 196 195
180 149 149 144 143 142 141 141 140 140 139 138 138 137 136 135 135
134 134 134 134 134 135 135 255 255 255 255 255 255 255 255 255 255
255 255 255 255 255 255 255 255 255 255 255 255 255 255 255 255 255
255 255 255 255 255 255 255 255 255 255 255 255 255 255 255 255 255
255 255 255 255 255 255 255 255 255 255 255 255 255 255 255 255 255
255 255 255 255 255 255 255 255 255 255 255 255 255 255 255 255 255
255 255 255 255 255 255 255 255 255 255 255 255 255 255 255 255 255
255 255 255 255 255 255 255 255 255 255 255 255 255 255 255 255 255
255 255 255 255 255 255 255 255 255 255 255 255 255 255 255 255 255
255 255 255 255 255 255 255 255 255 255 255 255 255 255 255 255 255
255 255 255 255 255 255 255 255 255 255 255 255 255 255 255 255 255
255 255 255 255 255 255 255 255 255 255 255 255 255 255 255 255 255
255 255 255 255 255 255 255 255 255 255 255 255 255 255 255 255 255
255 255 255 255 255 255 255 255 255 255 255 255 255 255 255 255 255
255 255 244 244 244 244 243 243 243 243 243 243 243 243 243 243 243
243 243 243 243 243 243 242 242 241 240 240 240 235 235 235 226 226
151 150 150 149 148 148 147 147 146 146 146 145 145 145 145 145 145
145 145 145 145 145 145 145 145 145 145 145 146 146 146 147 147 148
148 148 148 148 148 148 148 148 148 148 148 148 148 148 147 147 146
145 145 145 145 145 145 146 146 147 147 147 147 146 146 146 145 145
145 145 145 145 145 145 145 145 145 144 144 143 138 127 127 127 126
126 124 123 116 113 110 110 106 105 104 102 101 101 97 97 97 97
98 103 103 104 105 106 107 107 107 124 125 126 128 133 138 138 139
141 142 142 143 143 143 144 144 144 144 144 145 145 145 152 155 156
159 159 161 163 166 166 166 167 167 167 167 167 161 161 161 161 161
161 161 161 169 174 174 183 199 199 201 202 203 203 204 205 207 210
210 211 213 214 214 217 217 218 218 218 218 218 217 217 217 216 216
211 211 210 209 208 208 207 206 205 204 200 197 196 185 175 156 143
143 142 141 141 140 139 139 138 138 137 136 135 135 134 134 134 134
134 135 135 255 255 255 255 255 255 255 255 255 255 255 255 255 255
255 255 255 255 255 255 255 255 255 255 255 255 255 255 255 255 255
255 255 255 255 255 255 255 255 255 255 255 255 255 255 255 255 255
255 255 255 255 255 255 255 255 255 255 255 255 255 255 255 255 255
255 255 255 255 255 255 255 255 255 255 255 255 255 255 255 255 255
255 255 255 255 255 255 255 255 255 255 255 255 255 255 255 255 255
255 255 255 255 255 255 255 255 255 255 255 255 255 255 255 255 255
255 255 255 255 255 255 255 255 255 255 255 255 255 255 255 255 255
255 255 255 255 255 255 255 255 255 255 255 255 255 255 255 255 255
255 255 255 255 255 255 255 255 255 255 255 255 255 255 255 255 255
255 255 255 255 255 255 255 255 255 255 255 255 255 255 255 255 255
255 255 255 255 255 255 255 255 255 255 255 255 255 255 255 255 255
255 255 255 255 255 255 255 255 255 255 255 255 255 255 255 244 244
244 244 244 243 243 243 243 243 243 243 243 243 243 243 243 243 243
243 243 243 242 241 241 240 240 236 236 235 236 226 159 150 149 149
148 148 147 146 146 146 145 145 145 145 145 145 145 145 145 145 145
145 145 145 145 145 145 145 146 146 146 147 147 148 148 148 149 149
149 148 148 148 148 148 148 148 148 148 147 146 146 145 145 145 145
145 145 146 146 146 147 147 147 146 146 146 145 145 145 145 145 145
145 145 145 145 145 145 144 144 144 128 127 127 127 127 123 123 116
116 110 110 109 109 109 110 110 109 109 109 101 99 98 103 109 109
108 107 107 107 113 125 128 127 128 133 139 139 140 142 142 143 143
144 144 144 144 144 144 145 145 145 151 155 156 157 159 160 166 166
167 167 168 168 168 168 168 167 163 162 162 162 162 162 162 162 169
169 174 183 199 199 201 202 203 204 205 205 207 209 210 211 212 213
213 216 217 217 217 217 217 217 217 216 216 216 215 211 211 210 209
209 208 206 206 205 204 200 199 198 198 175 156 144 144 141 141 140
140 139 139 138 137 137 136 135 135 134 134 134 134 134 135 135 255
255 255 255 255 255 255 255 255 255 255 255 255 255 255 255 255 255
255 255 255 255 255 255 255 255 255 255 255 255 255 255 255 255 255
255 255 255 255 255 255 255 255 255 255 255 255 255 255 255 255 255
255 255 255 255 255 255 255 255 255 255 255 255 255 255 255 255 255
255 255 255 255 255 255 255 255 255 255 255 255 255 255 255 255 255
255 255 255 255 255 255 255 255 255 255 255 255 255 255 255 255 255
255 255 255 255 255 255 255 255 255 255 255 255 255 255 255 255 255
255 255 255 255 255 255 255 255 255 255 255 255 255 255 255 255 255
255 255 255 255 255 255 255 255 255 255 255 255 255 255 255 255 255
255 255 255 255 255 255 255 255 255 255 255 255 255 255 255 255 255
255 255 255 255 255 255 255 255 255 255 255 255 255 255 255 255 255
255 255 255 255 255 255 255 255 255 255 255 255 255 255 255 255 255
255 255 255 255 255 255 255 255 255 255 255 244 244 244 244 244 244
243 243 243 243 243 243 243 243 243 243 244 244 244 243 243 243 242
242 241 241 240 236 236 236 236 226 171 150 149 149 148 147 147 146
146 146 145 145 145 145 145 145 145 145 145 145 145 145 145 145 145
145 145 145 146 146 146 147 147 148 148 148 149 149 148 148 148 148
148 148 148 148 148 147 147 146 146 145 145 145 145 145 145 146 146
146 146 147 146 146 146 145 145 145 145 145 145 145 145 145 145 145
145 145 144 144 144 128 128 128 128 128 128 123 123 119 119 113 109
109 110 110 110 111 111 111 111 111 111 114 114 114 115 116 119 125
125 125 129 131 132 133 138 141 142 142 143 144 144 144 145 145 146
146 147 148 149 150 154 155 156 160 160 161 166 167 168 168 169 170
170 169 169 169 166 166 163 163 163 162 162 168 169 169 173 190 199
199 199 202 203 204 205 206 207 208 209 211 212 212 213 215 216 217
217 217 217 216 216 216 216 215 215 211 211 210 210 209 208 207 206
205 204 200 200 199 197 191 156 144 144 140 140 140 139 139 139 138
138 136 136 135 135 134 134 134 134 134 134 134 255 255 255 255 255
255 255 255 255 255 255 255 255 255 255 255 255 255 255 255 255 255
255 255 255 255 255 255 255 255 255 255 255 255 255 255 255 255 255
255 255 255 255 255 255 255 255 255 255 255 255 255 255 255 255 255
255 255 255 255 255 255 255 255 255 255 255 255 255 255 255 255 255
255 255 255 255 255 255 255 255 255 255 255 255 255 255 255 255 255
255 255 255 255 255 255 255 255 255 255 255 255 255 255 255 255 255
255 255 255 255 255 255 255 255 255 255 255 255 255 255 255 255 255
255 255 255 255 255 255 255 255 255 255 255 255 255 255 255 255 255
255 255 255 255 255 255 255 255 255 255 255 255 255 255 255 255 255
255 255 255 255 255 255 255 255 255 255 255 255 255 255 255 255 255
255 255 255 255 255 255 255 255 255 255 255 255 255 255 255 255 255
255 255 255 255 255 255 255 255 255 255 255 255 255 255 255 255 255
255 255 255 255 255 255 255 245 245 244 244 244 244 243 243 243 243
243 243 243 243 243 244 244 244 244 244 244 243 243 242 242 241 241
237 236 236 236 236 189 149 149 148 148 147 147 146 146 145 145 145
145 144 144 144 144 144 144 145 145 145 145 145 145 145 145 145 146
146 146 147 147 148 148 148 148 148 148 148 148 148 148 147 147 147
147 147 146 146 146 145 145 145 145 145 145 146 146 146 146 146 146
146 145 145 145 145 145 145 145 145 145 146 146 145 145 145 144 144
144 129 128 128 128 128 128 123 123 120 119 117 112 112 112 117 125
124 128 129 129 128 128 127 126 134 134 131 131 130 130 130 131 131
137 143 143 143 143 143 144 144 144 145 145 146 146 147 148 149 149
150 153 155 156 161 162 162 167 168 169 170 170 170 170 170 169 169
167 167 165 164 164 167 167 168 169 170 173 189 198 199 199 203 203
204 205 206 207 208 209 210 211 212 213 214 215 216 216 216 216 216
216 216 215 215 214 213 212 211 210 209 208 207 206 205 204 202 201
201 197 192 178 144 144 140 140 139 139 139 139 138 137 137 136 135
135 135 134 134 134 134 134 134 255 255 255 255 255 255 255 255 255
255 255 255 255 255 255 255 255 255 255 255 255 255 255 255 255 255
255 255 255 255 255 255 255 255 255 255 255 255 255 255 255 255 255
255 255 255 255 255 255 255 255 255 255 255 255 255 255 255 255 255
255 255 255 255 255 255 255 255 255 255 255 255 255 255 255 255 255
255 255 255 255 255 255 255 255 255 255 255 255 255 255 255 255 255
255 255 255 255 255 255 255 255 255 255 255 255 255 255 255 255 255
255 255 255 255 255 255 255 255 255 255 255 255 255 255 255 255 255
255 255 255 255 255 255 255 255 255 255 255 255 255 255 255 255 255
255 255 255 255 255 255 255 255 255 255 255 255 255 255 255 255 255
255 255 255 255 255 255 255 255 255 255 255 255 255 255 255 255 255
255 255 255 255 255 255 255 255 255 255 255 255 255 255 255 255 255
255 255 255 255 255 255 255 255 255 255 255 255 255 255 255 255 255
255 255 255 245 245 244 244 244 244 244 243 243 243 243 243 243 243
244 244 244 244 244 244 244 243 243 243 242 242 241 241 241 240 239
236 235 149 148 148 148 147 147 146 146 145 145 145 145 144 144 144
144 144 144 144 145 145 145 145 145 145 145 145 146 146 147 147 147
148 148 148 148 148 148 148 147 147 147 147 147 147 146 146 146 146
145 145 145 145 145 145 145 146 146 146 146 146 146 146 145 145 145
145 145 145 145 145 146 146 146 146 145 145 144 144 143 131 128 128
129 129 129 128 128 128 128 123 122 122 122 122 127 127 130 130 129
129 128 132 133 135 134 135 134 134 134 134 134 135 136 143 143 144
144 144 144 145 145 145 146 146 147 148 149 150 151 151 153 156 162
162 163 164 168 169 169 171 171 172 172 171 170 169 168 167 166 166
166 167 170 170 170 171 172 189 198 198 199 200 203 203 204 205 206
207 209 210 211 212 213 214 214 215 215 216 216 216 216 216 215 215
214 214 211 211 210 209 208 207 206 205 204 203 202 201 196 193 178
146 144 140 139 139 139 139 138 138 137 137 136 136 135 135 135 134
134 134 134 134 255 255 255 255 255 255 255 255 255 255 255 255 255
255 255 255 255 255 255 255 255 255 255 255 255 255 255 255 255 255
255 255 255 255 255 255 255 255 255 255 255 255 255 255 255 255 255
255 255 255 255 255 255 255 255 255 255 255 255 255 255 255 255 255
255 255 255 255 255 255 255 255 255 255 255 255 255 255 255 255 255
255 255 255 255 255 255 255 255 255 255 255 255 255 255 255 255 255
255 255 255 255 255 255 255 255 255 255 255 255 255 255 255 255 255
255 255 255 255 255 255 255 255 255 255 255 255 255 255 255 255 255
255 255 255 255 255 255 255 255 255 255 255 255 255 255 255 255 255
255 255 255 255 255 255 255 255 255 255 255 255 255 255 255 255 255
255 255 255 255 255 255 255 255 255 255 255 255 255 255 255 255 255
255 255 255 255 255 255 255 255 255 255 255 255 255 255 255 255 255
255 255 255 255 255 255 255 255 255 255 255 255 255 255 255 255 245
245 244 244 244 244 244 243 243 243 243 243 243 244 244 244 244 244
244 244 244 244 243 243 243 242 242 241 241 240 239 235 235 149 148
148 148 147 147 146 146 145 145 145 144 144 144 144 144 144 144 144
144 145 145 145 145 145 145 145 145 146 146 147 147 147 148 148 148
148 147 147 147 147 146 146 146 146 146 146 145 145 145 145 145 145
145 145 145 145 146 146 146 146 145 145 145 145 145 145 145 145 145
145 146 146 146 146 145 144 143 143 143 132 125 125 130 139 139 140
140 140 136 136 132 132 128 128 127 127 130 130 131 131 132 132 133
135 136 137 138 139 140 140 141 142 143 143 144 145 145 145 145 145
145 146 146 146 147 148 149 150 151 152 152 156 162 162 165 165 169
170 171 172 173 173 173 172 171 170 169 169 167 167 167 167 170 171
172 172 172 189 197 197 198 201 202 203 204 205 206 207 209 210 210
211 212 213 214 215 215 215 216 216 216 216 215 215 215 214 211 210
210 209 208 207 206 205 204 203 202 202 195 194 186 186 154 140 139
139 139 139 138 138 138 137 137 136 136 135 135 135 135 134 134 134
255 255 255 255 255 255 255 255 255 255 255 255 255 255 255 255 255
255 255 255 255 255 255 255 255 255 255 255 255 255 255 255 255 255
255 255 255 255 255 255 255 255 255 255 255 255 255 255 255 255 255
255 255 255 255 255 255 255 255 255 255 255 255 255 255 255 255 255
255 255 255 255 255 255 255 255 255 255 255 255 255 255 255 255 255
255 255 255 255 255 255 255 255 255 255 255 255 255 255 255 255 255
255 255 255 255 255 255 255 255 255 255 255 255 255 255 255 255 255
255 255 255 255 255 255 255 255 255 255 255 255 255 255 255 255 255
255 255 255 255 255 255 255 255 255 255 255 255 255 255 255 255 255
255 255 255 255 255 255 255 255 255 255 255 255 255 255 255 255 255
255 255 255 255 255 255 255 255 255 255 255 255 255 255 255 255 255
255 255 255 255 255 255 255 255 255 255 255 255 255 255 255 255 255
255 255 255 255 255 255 255 255 255 255 255 255 245 245 245 244 244
244 244 244 243 243 243 244 244 244 244 245 245 245 245 244 244 244
244 243 243 242 242 242 241 240 240 235 235 193 148 148 148 147 147
146 146 145 145 145 144 144 144 144 144 144 144 144 144 145 145 145
145 145 145 145 146 146 146 147 147 147 147 147 147 147 147 147 146
146 146 146 146 145 145 145 145 145 145 145 145 145 145 145 145 145
146 146 146 146 145 145 145 145 144 144 145 145 145 146 146 146 146
145 145 143 143 142 142 133 132 132 131 139 139 140 140 141 141 136
132 132 129 128 128 128 131 131 132 133 133 134 135 136 136 137 138
139 140 140 141 148 148 148 145 146 146 146 146 146 146 146 146 147
147 149 150 151 154 156 157 161 166 166 166 169 170 171 171 173 174
174 174 172 172 171 171 170 168 167 167 167 171 172 172 172 184 186
195 195 196 201 202 203 204 205 206 206 209 210 210 211 211 213 214
214 215 215 216 216 216 216 215 215 215 215 211 210 210 209 208 207
206 205 204 203 203 201 201 194 191 189 154 140 139 139 139 139 139
138 138 137 137 136 136 135 135 135 135 134 134 134 255 255 255 255
255 255 255 255 255 255 255 255 255 255 255 255 255 255 255 255 255
255 255 255 255 255 255 255 255 255 255 255 255 255 255 255 255 255
255 255 255 255 255 255 255 255 255 255 255 255 255 255 255 255 255
255 255 255 255 255 255 255 255 255 255 255 255 255 255 255 255 255
255 255 255 255 255 255 255 255 255 255 255 255 255 255 255 255 255
255 255 255 255 255 255 255 255 255 255 255 255 255 255 255 255 255
255 255 255 255 255 255 255 255 255 255 255 255 255 255 255 255 255
255 255 255 255 255 255 255 255 255 255 255 255 255 255 255 255 255
255 255 255 255 255 255 255 255 255 255 255 255 255 255 255 255 255
255 255 255 255 255 255 255 255 255 255 255 255 255 255 255 255 255
255 255 255 255 255 255 255 255 255 255 255 255 255 255 255 255 255
255 255 255 255 255 255 255 255 255 255 255 255 255 255 255 255 255
255 255 255 255 255 255 255 255 245 245 245 245 244 244 244 244 244
244 244 244 244 245 245 245 245 245 245 245 244 244 244 243 243 243
242 242 241 240 239 235 235 203 148 148 148 148 147 147 146 146 145
145 144 144 144 144 144 144 144 144 144 145 145 145 145 145 145 145
146 146 146 146 147 147 147 147 147 147 146 146 146 146 145 145 145
145 145 145 145 144 144 144 144 144 145 145 145 145 146 146 146 146
145 145 145 145 144 144 144 145 146 146 146 146 145 145 144 143 143
141 141 134 132 132 132 139 139 140 141 141 141 136 136 136 129 129
129 129 130 131 132 133 134 135 135 136 137 138 138 139 140 141 141
148 148 148 148 147 147 147 146 146 146 146 146 146 147 150 151 151
157 157 161 161 166 166 170 170 171 171 175 174 175 175 175 173 173
172 172 171 170 171 171 172 172 172 173 173 184 186 194 194 194 199
203 203 204 205 206 206 209 209 210 211 211 213 214 214 215 215 216
216 216 216 216 215 215 215 211 210 209 209 208 207 206 205 204 204
203 203 201 194 191 189 166 143 139 139 139 139 139 138 138 138 137
136 136 136 135 135 135 135 134 134 255 255 255 255 255 255 255 255
255 255 255 255 255 255 255 255 255 255 255 255 255 255 255 255 255
255 255 255 255 255 255 255 255 255 255 255 255 255 255 255 255 255
255 255 255 255 255 255 255 255 255 255 255 255 255 255 255 255 255
255 255 255 255 255 255 255 255 255 255 255 255 255 255 255 255 255
255 255 255 255 255 255 255 255 255 255 255 255 255 255 255 255 255
255 255 255 255 255 255 255 255 255 255 255 255 255 255 255 255 255
255 255 255 255 255 255 255 255 255 255 255 255 255 255 255 255 255
255 255 255 255 255 255 255 255 255 255 255 255 255 255 255 255 255
255 255 255 255 255 255 255 255 255 255 255 255 255 255 255 255 255
255 255 255 255 255 255 255 255 255 255 255 255 255 255 255 255 255
255 255 255 255 255 255 255 255 255 255 255 255 255 255 255 255 255
255 255 255 255 255 255 255 255 255 255 255 255 255 255 255 255 255
255 255 255 255 244 245 245 245 245 244 244 244 244 244 244 244 245
245 245 245 245 245 245 245 244 244 244 243 243 242 242 241 241 239
239 238 237 228 148 148 148 148 148 147 147 146 145 145 144 144 144
144 144 144 144 144 144 144 145 145 145 145 145 145 146 146 146 146
146 146 146 146 146 146 146 145 145 145 145 145 145 145 145 144 144
144 144 144 144 145 145 145 145 145 145 146 146 145 145 145 145 145
144 144 145 145 146 146 146 145 145 144 144 143 142 140 140 139 133
133 133 139 140 140 141 141 142 136 137 137 134 134 134 134 134 135
135 135 135 135 136 137 137 138 139 139 140 141 141 148 148 148 148
148 148 147 147 147 146 146 146 146 147 151 151 152 157 157 162 162
165 166 171 171 172 172 177 177 178 176 176 174 174 173 173 172 170
171 172 172 173 173 173 174 175 186 193 194 194 198 203 203 204 205
206 207 208 209 210 211 212 213 214 215 215 216 216 216 216 216 215
215 215 214 214 210 209 208 207 206 206 205 204 204 203 202 202 201
191 190 166 150 140 140 139 139 139 139 138 138 137 137 136 136 135
135 135 135 134 134 255 255 255 255 255 255 255 255 255 255 255 255
255 255 255 255 255 255 255 255 255 255 255 255 255 255 255 255 255
255 255 255 255 255 255 255 255 255 255 255 255 255 255 255 255 255
255 255 255 255 255 255 255 255 255 255 255 255 255 255 255 255 255
255 255 255 255 255 255 255 255 255 255 255 255 255 255 255 255 255
255 255 255 255 255 255 255 255 255 255 255 255 255 255 255 255 255
255 255 255 255 255 255 255 255 255 255 255 255 255 255 255 255 255
255 255 255 255 255 255 255 255 255 255 255 255 255 255 255 255 255
255 255 255 255 255 255 255 255 255 255 255 255 255 255 255 255 255
255 255 255 255 255 255 255 255 255 255 255 255 255 255 255 255 255
255 255 255 255 255 255 255 255 255 255 255 255 255 255 255 255 255
255 255 255 255 255 255 255 255 255 255 255 255 255 255 255 255 255
255 255 255 255 255 255 255 255 255 255 255 255 255 255 255 255 255
244 244 245 245 245 245 245 244 244 244 244 245 245 245 245 245 245
245 245 245 244 244 243 243 243 242 242 241 240 239 238 238 237 228
179 149 149 148 148 148 147 146 146 145 145 144 144 144 144 144 144
144 144 144 145 145 145 145 145 146 146 146 146 146 146 146 146 146
146 145 145 145 145 145 145 145 145 145 145 144 144 144 144 144 145
145 145 145 145 145 145 146 146 145 145 145 145 145 145 145 145 145
146 145 145 145 144 144 144 142 141 140 140 139 133 133 134 140 140
140 142 142 142 142 137 137 138 141 140 140 139 135 135 136 136 136
137 137 138 138 139 140 140 141 141 148 148 148 148 148 148 148 148
147 147 147 146 146 147 151 152 152 156 158 162 164 165 165 172 172
173 173 177 178 178 179 179 179 175 174 173 173 170 171 172 173 173
173 174 174 174 186 193 193 194 198 203 203 204 205 206 207 208 209
210 211 212 213 213 215 215 216 216 216 216 215 215 215 215 214 214
210 210 209 207 206 205 205 204 204 203 202 202 201 192 190 171 171
141 141 141 141 140 139 139 138 138 137 136 136 136 135 135 135 134
134 255 255 255 255 255 255 255 255 255 255 255 255 255 255 255 255
255 255 255 255 255 255 255 255 255 255 255 255 255 255 255 255 255
255 255 255 255 255 255 255 255 255 255 255 255 255 255 255 255 255
255 255 255 255 255 255 255 255 255 255 255 255 255 255 255 255 255
255 255 255 255 255 255 255 255 255 255 255 255 255 255 255 255 255
255 255 255 255 255 255 255 255 255 255 255 255 255 255 255 255 255
255 255 255 255 255 255 255 255 255 255 255 255 255 255 255 255 255
255 255 255 255 255 255 255 255 255 255 255 255 255 255 255 255 255
255 255 255 255 255 255 255 255 255 255 255 255 255 255 255 255 255
255 255 255 255 255 255 255 255 255 255 255 255 255 255 255 255 255
255 255 255 255 255 255 255 255 255 255 255 255 255 255 255 255 255
255 255 255 255 255 255 255 255 255 255 255 255 255 255 255 255 255
255 255 255 255 255 255 255 255 255 255 255 255 255 244 244 244 245
245 245 245 245 244 244 245 245 245 245 245 245 245 245 245 245 244
244 243 243 242 242 241 241 240 239 238 237 237 227 198 149 149 149
149 148 147 146 146 146 145 144 144 144 144 144 144 144 144 144 145
145 145 145 146 146 146 146 146 146 146 146 146 145 144 143 144 144
144 145 145 145 145 145 145 145 145 145 145 145 145 145 145 145 145
145 145 146 146 145 145 145 145 145 146 146 146 145 145 145 145 143
143 143 143 142 141 140 140 138 133 134 135 140 140 141 142 142 143
143 143 143 143 142 141 141 139 139 139 138 137 137 137 138 138 139
139 140 140 141 142 148 148 149 149 149 149 149 148 148 147 147 147
147 147 151 152 153 154 159 162 164 165 165 173 174 174 174 179 179
179 179 179 178 177 174 174 173 170 170 173 173 173 173 174 174 174
187 192 194 194 196 202 204 204 205 206 208 209 210 210 211 212 212
215 215 215 216 216 216 215 215 215 215 214 214 213 211 210 207 206
206 205 205 204 204 203 202 201 201 192 190 183 171 157 142 141 141
140 140 139 138 138 137 137 136 136 135 135 135 134 134 255 255 255
255 255 255 255 255 255 255 255 255 255 255 255 255 255 255 255 255
255 255 255 255 255 255 255 255 255 255 255 255 255 255 255 255 255
255 255 255 255 255 255 255 255 255 255 255 255 255 255 255 255 255
255 255 255 255 255 255 255 255 255 255 255 255 255 255 255 255 255
255 255 255 255 255 255 255 255 255 255 255 255 255 255 255 255 255
255 255 255 255 255 255 255 255 255 255 255 255 255 255 255 255 255
255 255 255 255 255 255 255 255 255 255 255 255 255 255 255 255 255
255 255 255 255 255 255 255 255 255 255 255 255 255 255 255 255 255
255 255 255 255 255 255 255 255 255 255 255 255 255 255 255 255 255
255 255 255 255 255 255 255 255 255 255 255 255 255 255 255 255 255
255 255 255 255 255 255 255 255 255 255 255 255 255 255 255 255 255
255 255 255 255 255 255 255 255 255 255 255 255 255 255 255 255 255
255 255 255 255 255 255 255 255 255 244 244 244 244 245 245 245 245
244 244 245 245 245 245 245 245 245 245 245 244 244 243 243 242 242
241 241 240 239 239 238 237 237 227 214 150 150 149 149 149 148 148
147 146 146 145 144 144 144 144 144 144 144 145 145 145 145 146 146
146 147 147 146 146 146 146 145 145 144 143 143 144 144 145 145 145
145 145 145 145 145 145 145 145 145 145 145 145 145 145 145 146 146
146 146 146 146 146 146 146 146 146 144 144 144 143 143 143 143 141
141 140 140 138 138 138 139 139 141 141 142 143 143 144 144 144 144
143 142 142 142 141 140 139 137 137 138 138 138 139 139 140 140 141
142 142 143 149 150 150 150 149 149 148 148 147 147 147 147 149 151
153 154 160 162 162 165 165 174 175 174 175 179 180 180 180 179 178
178 175 174 173 170 170 173 173 173 174 174 174 174 187 191 194 195
196 201 204 204 205 206 208 209 210 211 212 212 213 215 215 215 215
215 215 215 215 215 214 214 213 212 211 211 206 206 206 205 205 204
204 204 201 201 200 191 191 188 176 157 142 142 141 141 140 139 139
138 137 137 136 136 135 135 135 134 134 255 255 255 255 255 255 255
255 255 255 255 255 255 255 255 255 255 255 255 255 255 255 255 255
255 255 255 255 255 255 255 255 255 255 255 255 255 255 255 255 255
255 255 255 255 255 255 255 255 255 255 255 255 255 255 255 255 255
255 255 255 255 255 255 255 255 255 255 255 255 255 255 255 255 255
255 255 255 255 255 255 255 255 255 255 255 255 255 255 255 255 255
255 255 255 255 255 255 255 255 255 255 255 255 255 255 255 255 255
255 255 255 255 255 255 255 255 255 255 255 255 255 255 255 255 255
255 255 255 255 255 255 255 255 255 255 255 255 255 255 255 255 255
255 255 255 255 255 255 255 255 255 255 255 255 255 255 255 255 255
255 255 255 255 255 255 255 255 255 255 255 255 255 255 255 255 255
255 255 255 255 255 255 255 255 255 255 255 255 255 255 255 255 255
255 255 255 255 255 255 255 255 255 255 255 255 255 255 255 255 255
255 255 255 255 255 244 244 244 244 244 244 244 244 244 244 244 244
245 245 245 245 245 244 244 243 243 242 242 242 241 241 240 240 239
239 238 236 236 226 223 150 150 149 149 149 148 148 147 147 146 145
145 145 145 145 145 145 145 145 145 145 146 146 147 147 147 147 147
146 146 145 145 144 144 143 143 144 144 145 145 145 145 145 145 145
145 145 145 145 145 145 145 145 145 145 145 146 146 146 146 146 146
146 146 146 146 145 145 144 143 143 143 142 142 141 141 140 140 139
138 138 139 139 142 142 143 144 144 145 145 145 145 144 144 143 143
142 141 140 141 138 138 139 139 139 139 140 140 141 142 142 143 150
150 150 150 150 149 149 148 148 147 147 147 149 150 152 154 160 162
162 166 175 175 176 178 179 180 180 180 180 179 179 178 176 173 172
170 170 173 173 173 174 174 174 174 187 194 194 194 196 201 204 204
204 208 209 209 210 211 212 213 214 215 215 215 215 215 215 215 215
214 214 213 213 212 211 210 206 206 206 205 205 204 204 204 201 200
199 192 192 188 176 172 142 142 141 141 140 139 139 138 137 137 136
136 135 135 135 134 134 255 255 255 255 255 255 255 255 255 255 255
255 255 255 255 255 255 255 255 255 255 255 255 255 255 255 255 255
255 255 255 255 255 255 255 255 255 255 255 255 255 255 255 255 255
255 255 255 255 255 255 255 255 255 255 255 255 255 255 255 255 255
255 255 255 255 255 255 255 255 255 255 255 255 255 255 255 255 255
255 255 255 255 255 255 255 255 255 255 255 255 255 255 255 255 255
255 255 255 255 255 255 255 255 255 255 255 255 255 255 255 255 255
255 255 255 255 255 255 255 255 255 255 255 255 255 255 255 255 255
255 255 255 255 255 255 255 255 255 255 255 255 255 255 255 255 255
255 255 255 255 255 255 255 255 255 255 255 255 255 255 255 255 255
255 255 255 255 255 255 255 255 255 255 255 255 255 255 255 255 255
255 255 255 255 255 255 255 255 255 255 255 255 255 255 255 255 255
255 255 255 255 255 255 255 255 255 255 255 255 255 255 255 255 255
255 243 243 243 244 244 244 244 244 244 244 244 244 244 244 244 244
244 244 244 242 242 242 241 241 241 240 240 240 239 238 238 236 236
225 223 161 149 149 149 149 148 148 147 147 146 146 145 145 145 145
145 145 145 145 145 146 146 146 147 147 147 147 147 146 146 145 145
144 144 144 144 144 145 145 146 146 146 146 145 145 145 145 145 145
145 145 145 145 145 145 145 146 146 146 146 146 146 146 147 147 146
146 145 145 143 143 143 142 142 142 141 141 140 139 138 138 139 139
142 143 144 144 145 145 146 146 146 146 145 144 144 144 143 142 142
141 141 140 140 140 140 140 140 141 142 142 143 150 151 151 151 150
150 149 149 148 147 147 147 148 148 152 154 159 162 163 166 175 175
176 179 179 180 180 180 180 180 179 178 176 173 171 170 169 172 169
169 169 169 170 174 187 194 194 195 197 200 201 204 204 208 208 209
210 211 212 213 214 214 215 215 215 215 215 215 214 214 214 213 213
212 211 209 207 206 206 205 204 204 203 202 201 200 198 193 193 192
177 173 162 142 141 141 140 139 138 138 137 137 136 135 135 135 134
134 134 255 255 255 255 255 255 255 255 255 255 255 255 255 255 255
255 255 255 255 255 255 255 255 255 255 255 255 255 255 255 255 255
255 255 255 255 255 255 255 255 255 255 255 255 255 255 255 255 255
255 255 255 255 255 255 255 255 255 255 255 255 255 255 255 255 255
255 255 255 255 255 255 255 255 255 255 255 255 255 255 255 255 255
255 255 255 255 255 255 255 255 255 255 255 255 255 255 255 255 255
255 255 255 255 255 255 255 255 255 255 255 255 255 255 255 255 255
255 255 255 255 255 255 255 255 255 255 255 255 255 255 255 255 255
255 255 255 255 255 255 255 255 255 255 255 255 255 255 255 255 255
255 255 255 255 255 255 255 255 255 255 255 255 255 255 255 255 255
255 255 255 255 255 255 255 255 255 255 255 255 255 255 255 255 255
255 255 255 255 255 255 255 255 255 255 255 255 255 255 255 255 255
255 255 255 255 255 255 255 255 255 255 255 255 255 255 242 242 243
243 243 243 243 243 244 243 243 244 244 244 244 244 244 243 243 241
241 241 241 240 240 240 240 239 239 238 238 236 236 225 223 161 149
149 149 149 148 148 149 147 147 146 146 145 145 145 145 145 145 145
145 146 146 147 147 147 147 147 147 146 146 145 145 144 144 144 143
144 145 146 146 146 146 146 146 145 145 145 145 145 145 145 145 145
145 145 146 146 146 146 146 146 147 147 147 147 147 146 146 145 143
143 143 143 143 142 142 141 141 139 138 138 139 139 143 144 144 145
146 147 148 148 147 147 148 147 146 145 144 143 142 141 141 141 140
140 140 140 140 141 141 142 143 151 151 151 151 151 151 150 149 148
147 147 147 147 147 153 153 158 163 163 166 174 175 178 179 179 180
180 180 180 180 179 178 169 169 168 168 168 168 165 165 165 165 165
165 187 194 195 196 198 200 201 204 204 207 208 209 210 210 213 214
214 214 215 215 215 215 215 214 214 214 213 213 212 212 211 208 207
207 206 205 204 204 203 202 201 200 197 193 193 193 192 173 168 142
142 140 140 139 138 138 137 136 136 135 135 135 134 134 134 255 255
255 255 255 255 255 255 255 255 255 255 255 255 255 255 255 255 255
255 255 255 255 255 255 255 255 255 255 255 255 255 255 255 255 255
255 255 255 255 255 255 255 255 255 255 255 255 255 255 255 255 255
255 255 255 255 255 255 255 255 255 255 255 255 255 255 255 255 255
255 255 255 255 255 255 255 255 255 255 255 255 255 255 255 255 255
255 255 255 255 255 255 255 255 255 255 255 255 255 255 255 255 255
255 255 255 255 255 255 255 255 255 255 255 255 255 255 255 255 255
255 255 255 255 255 255 255 255 255 255 255 255 255 255 255 255 255
255 255 255 255 255 255 255 255 255 255 255 255 255 255 255 255 255
255 255 255 255 255 255 255 255 255 255 255 255 255 255 255 255 255
255 255 255 255 255 255 255 255 255 255 255 255 255 255 255 255 255
255 255 255 255 255 255 255 255 255 255 255 255 255 255 255 255 255
255 255 255 255 255 255 255 255 255 255 242 242 242 242 242 242 242
242 242 243 243 243 243 243 243 243 243 243 242 241 241 240 240 240
240 240 239 239 239 238 238 236 236 224 224 161 149 148 148 148 148
148 148 147 147 146 146 146 145 145 145 145 145 145 146 146 146 147
147 147 147 147 147 146 146 145 145 144 144 143 143 143 146 146 146
147 147 146 146 146 146 145 145 145 145 145 145 145 145 145 146 146
146 146 146 147 147 147 147 147 147 147 147 147 147 147 144 144 143
143 142 141 141 140 138 138 139 139 143 144 149 150 150 150 150 150
150 149 148 148 147 147 146 146 142 142 142 141 141 141 140 140 140
140 141 141 143 151 152 152 152 152 151 150 149 148 147 147 147 147
147 148 150 156 163 164 172 174 174 178 179 179 180 180 180 180 179
179 178 169 169 168 166 152 139 127 127 126 126 135 154 187 195 195
196 198 201 202 203 205 206 207 209 210 210 213 214 214 214 214 215
215 215 215 214 214 214 213 213 212 212 211 211 210 207 207 206 204
203 203 202 201 200 198 194 194 193 192 174 174 155 142 140 139 139
138 138 137 136 136 135 135 135 134 134 134 255 255 255 255 255 255
255 255 255 255 255 255 255 255 255 255 255 255 255 255 255 255 255
255 255 255 255 255 255 255 255 255 255 255 255 255 255 255 255 255
255 255 255 255 255 255 255 255 255 255 255 255 255 255 255 255 255
255 255 255 255 255 255 255 255 255 255 255 255 255 255 255 255 255
255 255 255 255 255 255 255 255 255 255 255 255 255 255 255 255 255
255 255 255 255 255 255 255 255 255 255 255 255 255 255 255 255 255
255 255 255 255 255 255 255 255 255 255 255 255 255 255 255 255 255
255 255 255 255 255 255 255 255 255 255 255 255 255 255 255 255 255
255 255 255 255 255 255 255 255 255 255 255 255 255 255 255 255 255
255 255 255 255 255 255 255 255 255 255 255 255 255 255 255 255 255
255 255 255 255 255 255 255 255 255 255 255 255 255 255 255 255 255
255 255 255 255 255 255 255 255 255 255 255 255 255 255 255 255 255
255 255 255 255 255 255 241 241 241 241 241 242 242 242 242 242 242
242 242 243 243 243 242 242 242 241 240 240 240 240 239 239 239 239
239 238 238 236 236 224 225 187 148 148 148 148 148 148 147 147 147
146 146 146 146 145 145 145 145 146 146 146 146 147 147 147 147 147
147 146 146 145 145 144 144 144 143 143 146 147 147 147 147 147 146
146 146 146 146 146 146 146 146 146 146 146 146 146 146 146 147 147
147 147 147 147 147 147 147 147 147 147 146 145 144 143 142 141 141
140 138 138 139 139 142 145 148 150 151 151 151 151 150 150 149 149
148 148 148 148 147 147 143 142 142 141 140 140 140 140 141 141 149
153 153 153 153 152 152 151 149 148 147 146 146 146 147 147 150 155
163 164 172 174 174 178 179 179 180 180 179 179 165 165 165 146 142
129 126 111 99 86 81 78 95 95 150 195 195 196 196 199 201 202
203 204 206 206 209 210 211 213 214 214 214 214 214 214 214 214 214
214 214 213 213 212 211 211 210 210 208 208 207 204 203 202 202 201
200 198 195 194 193 192 179 175 162 143 139 139 139 138 137 137 136
136 135 135 135 135 134 134 255 255 255 255 255 255 255 255 255 255
255 255 255 255 255 255 255 255 255 255 255 255 255 255 255 255 255
255 255 255 255 255 255 255 255 255 255 255 255 255 255 255 255 255
255 255 255 255 255 255 255 255 255 255 255 255 255 255 255 255 255
255 255 255 255 255 255 255 255 255 255 255 255 255 255 255 255 255
255 255 255 255 255 255 255 255 255 255 255 255 255 255 255 255 255
255 255 255 255 255 255 255 255 255 255 255 255 255 255 255 255 255
255 255 255 255 255 255 255 255 255 255 255 255 255 255 255 255 255
255 255 255 255 255 255 255 255 255 255 255 255 255 255 255 255 255
255 255 255 255 255 255 255 255 255 255 255 255 255 255 255 255 255
255 255 255 255 255 255 255 255 255 255 255 255 255 255 255 255 255
255 255 255 255 255 255 255 255 255 255 255 255 255 255 255 255 255
255 255 255 255 255 255 255 255 255 255 255 255 255 255 255 255 255
255 255 241 241 241 241 241 241 241 241 241 241 241 241 242 242 242
242 242 242 241 241 240 240 240 239 239 239 239 239 238 238 237 236
236 236 226 202 142 142 146 146 147 147 147 147 147 146 146 146 146
146 145 145 146 146 146 146 146 146 147 147 147 147 147 146 146 145
145 144 144 144 144 144 147 147 147 147 147 147 147 146 146 146 146
146 146 146 146 146 146 146 146 146 146 146 147 147 147 147 147 147
148 148 148 148 147 147 146 145 144 144 143 142 141 140 138 138 139
140 141 146 147 151 151 151 151 151 151 151 150 150 149 149 148 148
147 147 144 143 143 142 141 140 140 147 147 147 154 154 154 154 154
154 154 152 149 147 146 146 146 146 146 147 149 153 163 165 173 173
174 178 179 177 176 176 176 162 162 155 136 120 99 81 81 72 57
57 57 52 56 77 150 195 195 196 196 199 201 202 203 204 205 206
209 209 212 213 213 214 214 214 214 214 214 214 214 214 214 213 213
212 212 211 211 210 209 209 208 204 203 202 202 201 201 197 196 195
193 193 179 175 162 144 139 139 139 138 137 137 136 136 135 135 135
135 135 135 255 255 255 255 255 255 255 255 255 255 255 255 255 255
255 255 255 255 255 255 255 255 255 255 255 255 255 255 255 255 255
255 255 255 255 255 255 255 255 255 255 255 255 255 255 255 255 255
255 255 255 255 255 255 255 255 255 255 255 255 255 255 255 255 255
255 255 255 255 255 255 255 255 255 255 255 255 255 255 255 255 255
255 255 255 255 255 255 255 255 255 255 255 255 255 255 255 255 255
255 255 255 255 255 255 255 255 255 255 255 255 255 255 255 255 255
255 255 255 255 255 255 255 255 255 255 255 255 255 255 255 255 255
255 255 255 255 255 255 255 255 255 255 255 255 255 255 255 255 255
255 255 255 255 255 255 255 255 255 255 255 255 255 255 255 255 255
255 255 255 255 255 255 255 255 255 255 255 255 255 255 255 255 255
255 255 255 255 255 255 255 255 255 255 255 255 255 255 255 255 255
255 255 255 255 255 255 255 255 255 255 255 255 255 255 255 241 241
240 240 240 240 240 240 240 240 240 241 241 241 242 242 242 241 241
241 240 240 240 239 239 239 239 239 238 238 237 236 236 235 227 209
142 142 146 146 147 147 147 147 147 146 146 146 146 145 145 145 146
146 146 146 146 146 146 147 147 147 147 146 146 145 145 145 144 144
144 144 146 147 147 147 147 147 147 147 147 147 147 147 147 147 147
146 146 146 146 146 146 147 147 147 147 147 147 148 148 148 148 148
147 147 146 146 145 144 143 142 142 138 138 138 139 139 140 146 146
151 152 152 152 152 152 151 151 150 150 149 149 148 148 146 145 145
146 147 148 148 149 149 150 150 154 154 154 154 155 154 154 153 149
146 145 144 144 145 145 146 150 152 162 165 169 170 170 170 169 157
137 137 127 116 116 103 88 48 41 30 29 30 30 38 38 38 56
77 150 195 196 196 197 199 200 202 203 204 205 206 208 208 212 213
213 214 214 214 214 214 214 215 215 214 214 214 213 212 212 211 211
210 210 210 209 205 203 202 202 201 201 198 197 197 193 193 179 178
163 149 139 139 139 138 137 137 136 136 135 135 135 135 135 135 255
255 255 255 255 255 255 255 255 255 255 255 255 255 255 255 255 255
255 255 255 255 255 255 255 255 255 255 255 255 255 255 255 255 255
255 255 255 255 255 255 255 255 255 255 255 255 255 255 255 255 255
255 255 255 255 255 255 255 255 255 255 255 255 255 255 255 255 255
255 255 255 255 255 255 255 255 255 255 255 255 255 255 255 255 255
255 255 255 255 255 255 255 255 255 255 255 255 255 255 255 255 255
255 255 255 255 255 255 255 255 255 255 255 255 255 255 255 255 255
255 255 255 255 255 255 255 255 255 255 255 255 255 255 255 255 255
255 255 255 255 255 255 255 255 255 255 255 255 255 255 255 255 255
255 255 255 255 255 255 255 255 255 255 255 255 255 255 255 255 255
255 255 255 255 255 255 255 255 255 255 255 255 255 255 255 255 255
255 255 255 255 255 255 255 255 255 255 255 255 255 255 255 255 255
255 255 255 255 255 255 255 255 255 255 255 240 240 240 240 240 240
240 239 239 240 240 240 240 241 241 241 241 241 241 241 240 240 240
240 239 239 239 239 238 238 237 236 235 235 229 209 141 134 135 142
142 147 147 147 147 146 146 146 145 145 145 145 146 146 146 146 146
146 146 146 146 146 146 146 146 146 145 145 145 145 145 145 146 147
147 148 148 148 148 148 148 148 148 148 148 147 147 147 147 147 147
147 147 147 147 147 147 147 148 148 148 148 148 148 148 147 147 146
145 144 143 143 142 137 137 138 138 139 140 146 146 152 152 152 152
152 152 151 151 151 150 150 149 149 148 147 147 148 148 148 149 150
151 151 154 154 154 155 155 155 155 155 154 154 149 145 145 144 144
144 144 143 142 141 141 119 119 114 114 114 108 108 78 78 78 78
67 41 32 26 27 27 29 29 31 31 38 38 56 77 139 196 196
197 197 199 200 201 204 204 205 206 207 208 212 213 213 214 214 214
214 214 214 215 215 215 214 214 213 213 212 211 211 211 211 210 210
210 202 202 202 201 201 198 198 198 193 193 187 178 163 151 147 139
139 138 138 137 136 136 136 135 135 135 135 135 255 255 255 255 255
255 255 255 255 255 255 255 255 255 255 255 255 255 255 255 255 255
255 255 255 255 255 255 255 255 255 255 255 255 255 255 255 255 255
255 255 255 255 255 255 255 255 255 255 255 255 255 255 255 255 255
255 255 255 255 255 255 255 255 255 255 255 255 255 255 255 255 255
255 255 255 255 255 255 255 255 255 255 255 255 255 255 255 255 255
255 255 255 255 255 255 255 255 255 255 255 255 255 255 255 255 255
255 255 255 255 255 255 255 255 255 255 255 255 255 255 255 255 255
255 255 255 255 255 255 255 255 255 255 255 255 255 255 255 255 255
255 255 255 255 255 255 255 255 255 255 255 255 255 255 255 255 255
255 255 255 255 255 255 255 255 255 255 255 255 255 255 255 255 255
255 255 255 255 255 255 255 255 255 255 255 255 255 255 255 255 255
255 255 255 255 255 255 255 255 255 255 255 255 255 255 255 255 255
255 255 255 255 255 255 255 240 240 240 240 239 239 239 239 239 239
239 239 240 240 241 241 241 241 241 241 240 240 240 240 240 239 239
239 238 237 237 236 235 234 230 209 141 134 132 132 131 131 147 147
146 146 146 145 145 145 145 145 145 146 146 146 146 146 146 146 146
146 146 146 146 146 145 145 145 145 145 145 146 147 147 148 148 148
148 149 149 149 148 148 148 148 148 148 147 147 147 147 147 147 147
147 147 147 148 148 148 148 148 148 148 147 147 146 145 144 144 143
142 137 137 137 138 138 139 141 144 152 152 152 152 152 152 151 151
151 151 150 150 149 149 147 147 148 149 149 150 151 151 151 154 154
155 155 155 155 155 155 154 154 149 145 145 141 135 118 118 118 112
84 84 84 68 68 68 67 51 45 45 45 29 26 26 26 26 26
25 27 28 28 31 31 38 38 56 77 133 196 196 197 198 199 200
202 204 204 205 207 207 208 212 213 213 214 214 214 214 214 214 215
215 215 215 214 214 213 212 212 212 213 212 211 211 210 210 202 202
201 201 199 199 198 198 196 187 188 180 180 147 139 140 138 138 137
137 136 136 136 136 136 136 136 255 255 255 255 255 255 255 255 255
255 255 255 255 255 255 255 255 255 255 255 255 255 255 255 255 255
255 255 255 255 255 255 255 255 255 255 255 255 255 255 255 255 255
255 255 255 255 255 255 255 255 255 255 255 255 255 255 255 255 255
255 255 255 255 255 255 255 255 255 255 255 255 255 255 255 255 255
255 255 255 255 255 255 255 255 255 255 255 255 255 255 255 255 255
255 255 255 255 255 255 255 255 255 255 255 255 255 255 255 255 255
255 255 255 255 255 255 255 255 255 255 255 255 255 255 255 255 255
255 255 255 255 255 255 255 255 255 255 255 255 255 255 255 255 255
255 255 255 255 255 255 255 255 255 255 255 255 255 255 255 255 255
255 255 255 255 255 255 255 255 255 255 255 255 255 255 255 255 255
255 255 255 255 255 255 255 255 255 255 255 255 255 255 255 255 255
255 255 255 255 255 255 255 255 255 255 255 255 255 255 255 255 255
255 255 255 240 240 240 240 239 239 238 238 238 238 238 238 239 238
241 241 241 241 241 241 241 241 240 240 240 239 239 239 238 238 236
235 234 233 232 229 160 133 132 132 131 130 137 140 143 144 144 145
145 145 145 145 145 145 145 145 145 144 145 145 145 145 146 146 146
146 146 146 146 146 146 146 146 147 147 148 148 149 149 149 149 149
149 149 149 149 149 148 148 148 147 147 147 147 147 147 147 148 148
148 148 148 148 148 148 147 147 146 145 145 144 143 142 136 136 137
137 138 138 142 143 144 144 152 152 151 151 151 151 151 151 150 150
150 149 147 147 148 149 149 150 151 152 152 154 154 155 155 155 155
155 155 141 132 132 129 129 91 91 91 77 77 47 44 44 38 37
37 36 35 34 34 34 34 29 23 18 19 20 21 23 27 28 28
30 30 38 38 55 78 132 196 197 197 198 198 201 202 204 204 205
206 207 210 211 213 213 214 214 214 214 214 214 215 215 215 215 215
215 216 216 216 215 214 213 212 211 210 210 202 202 202 201 200 199
198 198 197 188 188 180 180 147 140 140 139 139 137 137 137 136 136
136 136 136 136 255 255 255 255 255 255 255 255 255 255 255 255 255
255 255 255 255 255 255 255 255 255 255 255 255 255 255 255 255 255
255 255 255 255 255 255 255 255 255 255 255 255 255 255 255 255 255
255 255 255 255 255 255 255 255 255 255 255 255 255 255 255 255 255
255 255 255 255 255 255 255 255 255 255 255 255 255 255 255 255 255
255 255 255 255 255 255 255 255 255 255 255 255 255 255 255 255 255
255 255 255 255 255 255 255 255 255 255 255 255 255 255 255 255 255
255 255 255 255 255 255 255 255 255 255 255 255 255 255 255 255 255
255 255 255 255 255 255 255 255 255 255 255 255 255 255 255 255 255
255 255 255 255 255 255 255 255 255 255 255 255 255 255 255 255 255
255 255 255 255 255 255 255 255 255 255 255 255 255 255 255 255 255
255 255 255 255 255 255 255 255 255 255 255 255 255 255 255 255 255
255 255 255 255 255 255 255 255 255 255 255 255 255 255 255 255 239
239 239 239 239 238 238 238 237 237 237 238 238 238 241 241 241 241
241 241 241 241 241 240 240 240 239 239 238 237 236 235 234 233 232
229 168 133 132 132 131 130 129 128 133 133 144 144 145 145 145 145
145 145 145 145 145 144 144 144 144 144 146 146 146 146 146 146 146
146 146 146 147 147 147 151 151 149 150 150 150 150 150 149 149 149
149 149 148 148 148 147 147 147 147 147 147 148 148 148 148 148 148
148 148 147 147 146 145 145 144 144 136 127 127 127 137 137 138 141
138 144 144 145 148 149 149 149 150 150 151 150 150 150 150 147 147
148 149 150 150 151 152 153 154 154 155 155 155 135 127 127 123 90
71 46 46 44 44 43 41 32 25 25 24 24 23 23 24 26 32
32 32 28 17 17 18 18 19 19 20 27 28 28 30 30 37 37
50 78 132 197 197 198 198 198 201 203 203 204 205 206 207 209 212
213 213 214 214 214 214 214 214 215 215 215 215 215 216 216 216 216
215 214 213 212 211 211 210 203 203 202 201 201 200 199 198 197 189
189 189 180 180 143 140 139 139 138 138 137 137 137 137 137 137 137
255 255 255 255 255 255 255 255 255 255 255 255 255 255 255 255 255
255 255 255 255 255 255 255 255 255 255 255 255 255 255 255 255 255
255 255 255 255 255 255 255 255 255 255 255 255 255 255 255 255 255
255 255 255 255 255 255 255 255 255 255 255 255 255 255 255 255 255
255 255 255 255 255 255 255 255 255 255 255 255 255 255 255 255 255
255 255 255 255 255 255 255 255 255 255 255 255 255 255 255 255 255
255 255 255 255 255 255 255 255 255 255 255 255 255 255 255 255 255
255 255 255 255 255 255 255 255 255 255 255 255 255 255 255 255 255
255 255 255 255 255 255 255 255 255 255 255 255 255 255 255 255 255
255 255 255 255 255 255 255 255 255 255 255 255 255 255 255 255 255
255 255 255 255 255 255 255 255 255 255 255 255 255 255 255 255 255
255 255 255 255 255 255 255 255 255 255 255 255 255 255 255 255 255
255 255 255 255 255 255 255 255 255 255 255 255 239 239 239 239 238
238 237 237 237 237 237 237 237 238 238 239 241 241 241 241 241 241
241 241 240 240 239 239 238 237 237 234 234 233 232 230 168 133 132
132 130 129 129 128 123 123 125 125 139 141 145 145 145 145 145 145
144 144 144 144 144 144 146 146 146 146 146 146 146 146 146 146 147
147 147 151 151 151 151 150 150 150 150 150 150 149 149 149 148 148
148 148 147 147 147 147 148 148 148 148 148 148 148 148 148 147 147
146 146 145 145 130 96 96 114 127 131 131 131 136 136 143 145 145
146 147 148 149 149 150 150 151 150 150 150 146 147 147 147 150 150
152 152 153 153 140 131 114 92 92 69 69 42 42 36 32 29 28
28 28 21 21 21 22 22 23 23 22 21 20 19 18 18 17 17
17 17 18 18 19 19 20 20 22 23 28 37 37 50 78 131 197
197 198 199 200 201 202 203 204 205 206 207 209 213 213 214 214 214
214 214 214 214 214 215 215 215 216 216 216 216 216 216 215 213 213
212 211 210 204 203 203 202 201 200 199 198 198 190 189 189 189 180
147 140 140 139 139 138 138 137 137 137 137 137 137 255 255 255 255
255 255 255 255 255 255 255 255 255 255 255 255 255 255 255 255 255
255 255 255 255 255 255 255 255 255 255 255 255 255 255 255 255 255
255 255 255 255 255 255 255 255 255 255 255 255 255 255 255 255 255
255 255 255 255 255 255 255 255 255 255 255 255 255 255 255 255 255
255 255 255 255 255 255 255 255 255 255 255 255 255 255 255 255 255
255 255 255 255 255 255 255 255 255 255 255 255 255 255 255 255 255
255 255 255 255 255 255 255 255 255 255 255 255 255 255 255 255 255
255 255 255 255 255 255 255 255 255 255 255 255 255 255 255 255 255
255 255 255 255 255 255 255 255 255 255 255 255 255 255 255 255 255
255 255 255 255 255 255 255 255 255 255 255 255 255 255 255 255 255
255 255 255 255 255 255 255 255 255 255 255 255 255 255 255 255 255
255 255 255 255 255 255 255 255 255 255 255 255 255 255 255 255 255
255 255 255 255 255 255 255 255 238 239 239 238 238 238 237 237 236
236 236 237 237 238 238 239 241 241 241 241 241 241 241 241 240 240
239 239 238 237 236 235 234 233 231 231 174 133 133 132 132 129 129
129 122 121 120 119 119 141 141 145 145 144 144 144 144 144 144 144
144 145 145 146 146 146 147 147 146 146 146 147 147 147 147 151 151
151 151 151 150 150 150 150 150 149 149 149 148 148 148 147 147 147
147 147 148 148 148 148 148 148 148 148 148 147 147 146 146 145 145
97 63 63 91 127 128 128 129 129 136 142 144 145 146 147 148 148
149 150 150 151 151 150 150 145 144 141 134 134 150 150 136 112 87
87 81 56 56 31 23 23 23 23 23 23 22 22 23 20 20 20
20 21 22 22 21 21 21 20 19 18 17 17 17 17 17 17 18
18 19 19 20 20 24 29 36 37 50 78 131 198 198 198 199 200
201 202 203 204 205 207 208 208 213 213 214 214 214 214 214 214 214
214 215 215 215 216 216 216 216 216 216 215 214 213 212 207 207 205
204 204 203 202 201 200 198 198 194 190 189 189 180 174 140 140 140
139 139 138 138 137 138 138 138 180 255 255 255 255 255 255 255 255
255 255 255 255 255 255 255 255 255 255 255 255 255 255 255 255 255
255 255 255 255 255 255 255 255 255 255 255 255 255 255 255 255 255
255 255 255 255 255 255 255 255 255 255 255 255 255 255 255 255 255
255 255 255 255 255 255 255 255 255 255 255 255 255 255 255 255 255
255 255 255 255 255 255 255 255 255 255 255 255 255 255 255 255 255
255 255 255 255 255 255 255 255 255 255 255 255 255 255 255 255 255
255 255 255 255 255 255 255 255 255 255 255 255 255 255 255 255 255
255 255 255 255 255 255 255 255 255 255 255 255 255 255 255 255 255
255 255 255 255 255 255 255 255 255 255 255 255 255 255 255 255 255
255 255 255 255 255 255 255 255 255 255 255 255 255 255 255 255 255
255 255 255 255 255 255 255 255 255 255 255 255 255 255 255 255 255
255 255 255 255 255 255 255 255 255 255 255 255 255 255 255 255 255
255 255 255 255 237 238 238 238 238 237 237 236 236 235 236 236 237
237 238 239 240 240 241 241 241 241 241 241 240 240 239 239 238 237
237 234 234 233 232 231 179 133 133 132 132 130 130 129 121 121 120
119 118 118 140 144 144 144 144 144 144 144 144 144 144 145 145 146
146 146 147 147 147 146 146 147 147 147 147 151 151 151 151 151 150
150 150 150 149 149 149 149 148 148 148 147 147 147 147 147 147 148
148 148 148 149 148 148 148 148 147 147 146 146 129 55 39 63 84
117 117 121 121 127 134 142 144 144 144 147 147 148 148 151 151 151
151 151 151 140 122 122 102 102 102 80 80 62 42 42 27 27 27
23 23 23 23 23 23 22 22 21 21 20 19 19 20 21 21 20
20 20 19 18 18 17 17 17 17 16 17 17 17 18 18 19 19
19 24 29 35 37 54 67 131 198 198 199 200 201 202 203 203 204
206 207 208 209 213 214 214 214 214 214 214 214 214 214 215 215 215
216 216 216 216 216 216 215 214 213 213 207 207 206 205 204 204 203
201 200 199 197 196 191 190 189 180 174 141 140 140 139 139 142 143
148 174 191 199 199 255 255 255 255 255 255 255 255 255 255 255 255
255 255 255 255 255 255 255 255 255 255 255 255 255 255 255 255 255
255 255 255 255 255 255 255 255 255 255 255 255 255 255 255 255 255
255 255 255 255 255 255 255 255 255 255 255 255 255 255 255 255 255
255 255 255 255 255 255 255 255 255 255 255 255 255 255 255 255 255
255 255 255 255 255 255 255 255 255 255 255 255 255 255 255 255 255
255 255 255 255 255 255 255 255 255 255 255 255 255 255 255 255 255
255 255 255 255 255 255 255 255 255 255 255 255 255 255 255 255 255
255 255 255 255 255 255 255 255 255 255 255 255 255 255 255 255 255
255 255 255 255 255 255 255 255 255 255 255 255 255 255 255 255 255
255 255 255 255 255 255 255 255 255 255 255 255 255 255 255 255 255
255 255 255 255 255 255 255 255 255 255 255 255 255 255 255 255 255
255 255 255 255 255 255 255 255 255 255 255 255 255 255 255 255 255
236 238 238 237 237 237 237 235 235 235 235 235 236 237 238 239 239
240 240 241 241 241 241 241 240 240 239 239 238 238 237 235 234 233
232 231 179 140 133 132 132 131 130 130 121 121 119 118 118 118 118
129 139 139 143 142 142 143 143 144 144 145 145 146 146 146 147 147
147 146 146 146 147 147 148 150 150 150 151 151 150 150 150 149 149
149 149 148 148 148 147 147 147 147 147 147 147 147 148 148 148 149
149 148 148 148 147 147 146 146 129 29 39 39 84 98 117 120 120
120 127 127 128 128 144 147 147 147 166 179 179 175 175 171 161 132
66 66 59 59 40 39 39 39 21 21 21 21 20 20 20 20 20
20 20 20 21 21 19 19 19 18 17 21 16 16 16 16 16 17
16 17 16 16 16 16 16 17 17 17 18 18 19 24 24 29 30
31 54 67 130 198 199 199 200 201 202 203 203 204 207 207 212 213
213 214 214 214 214 214 214 214 214 214 214 215 215 216 216 216 216
216 215 215 214 213 213 207 207 206 206 205 204 203 202 201 200 197
197 191 190 190 180 173 170 152 150 150 154 168 168 168 209 219 238
238 255 255 255 255 255 255 255 255 255 255 255 255 255 255 255 255
255 255 255 255 255 255 255 255 255 255 255 255 255 255 255 255 255
255 255 255 255 255 255 255 255 255 255 255 255 255 255 255 255 255
255 255 255 255 255 255 255 255 255 255 255 255 255 255 255 255 255
255 255 255 255 255 255 255 255 255 255 255 255 255 255 255 255 255
255 255 255 255 255 255 255 255 255 255 255 255 255 255 255 255 255
255 255 255 255 255 255 255 255 255 255 255 255 255 255 255 255 255
255 255 255 255 255 255 255 255 255 255 255 255 255 255 255 255 255
255 255 255 255 255 255 255 255 255 255 255 255 255 255 255 255 255
255 255 255 255 255 255 255 255 255 255 255 255 255 255 255 255 255
255 255 255 255 255 255 255 255 255 255 255 255 255 255 255 255 255
255 255 255 255 255 255 255 255 255 255 255 255 255 255 255 255 255
255 255 255 255 255 255 255 255 255 255 255 255 255 235 237 237 237
237 237 236 235 235 235 235 235 236 236 237 238 239 239 240 240 241
241 241 240 240 240 239 239 238 238 237 236 233 233 232 230 181 140
140 140 139 136 135 130 128 128 128 118 106 114 115 126 139 140 140
141 142 143 143 144 145 145 145 146 146 146 146 146 146 146 146 146
146 147 148 149 150 150 150 150 150 150 149 149 149 148 148 148 148
147 147 147 146 146 146 147 147 147 148 148 148 149 149 148 148 148
147 147 146 146 91 29 28 28 48 61 77 77 77 78 78 110 113
129 130 147 147 147 166 193 185 185 192 192 177 43 24 24 25 28
28 27 27 27 21 21 21 20 20 20 20 19 19 20 20 20 20
20 19 18 18 17 16 16 16 16 16 16 16 16 16 16 16 16
16 16 16 16 17 17 18 18 19 24 25 29 30 31 54 67 126
199 199 199 201 202 203 203 204 204 207 207 212 213 213 214 214 214
214 214 214 214 214 214 215 215 215 215 216 216 216 215 215 214 214
213 212 209 208 207 206 205 205 204 202 202 200 199 197 197 190 190
190 173 173 173 172 177 177 199 210 231 233 233 238 238 255 255 255
255 255 255 255 255 255 255 255 255 255 255 255 255 255 255 255 255
255 255 255 255 255 255 255 255 255 255 255 255 255 255 255 255 255
255 255 255 255 255 255 255 255 255 255 255 255 255 255 255 255 255
255 255 255 255 255 255 255 255 255 255 255 255 255 255 255 255 255
255 255 255 255 255 255 255 255 255 255 255 255 255 255 255 255 255
255 255 255 255 255 255 255 255 255 255 255 255 255 255 255 255 255
255 255 255 255 255 255 255 255 255 255 255 255 255 255 255 255 255
255 255 255 255 255 255 255 255 255 255 255 255 255 255 255 255 255
255 255 255 255 255 255 255 255 255 255 255 255 255 255 255 255 255
255 255 255 255 255 255 255 255 255 255 255 255 255 255 255 255 255
255 255 255 255 255 255 255 255 255 255 255 255 255 255 255 255 255
255 255 255 255 255 255 255 255 255 255 255 255 255 255 255 255 255
255 255 255 255 255 255 255 255 255 234 233 233 234 234 234 234 234
234 234 234 234 235 236 237 237 238 239 239 240 240 240 240 240 240
240 239 239 238 238 237 237 233 233 232 230 193 140 141 141 139 136
135 133 133 131 128 117 106 111 115 115 126 132 139 142 142 143 143
144 145 145 146 146 146 146 146 146 146 145 145 145 146 146 146 146
147 150 150 150 150 149 149 148 148 148 147 147 147 147 146 146 146
146 146 146 147 147 147 147 148 149 148 148 148 148 147 147 146 146
49 27 28 27 27 27 35 47 47 47 48 55 59 84 96 103 125
163 193 193 192 193 193 192 188 23 23 23 22 21 20 20 20 24
20 20 20 19 19 19 19 19 19 19 19 19 19 19 18 18 17
16 16 15 15 15 15 15 15 15 15 15 15 15 15 16 16 16
17 17 18 19 19 23 26 27 30 31 54 72 105 199 200 200 201
202 203 204 205 205 207 207 212 213 213 214 214 214 214 214 214 214
214 214 214 215 215 215 215 215 215 215 215 214 214 213 212 210 209
208 207 206 205 204 203 202 201 200 198 197 191 191 190 187 187 187
187 196 221 230 230 231 236 237 237 238 255 255 255 255 255 255 255
255 255 255 255 255 255 255 255 255 255 255 255 255 255 255 255 255
255 255 255 255 255 255 255 255 255 255 255 255 255 255 255 255 255
255 255 255 255 255 255 255 255 255 255 255 255 255 255 255 255 255
255 255 255 255 255 255 255 255 255 255 255 255 255 255 255 255 255
255 255 255 255 255 255 255 255 255 255 255 255 255 255 255 255 255
255 255 255 255 255 255 255 255 255 255 255 255 255 255 255 255 255
255 255 255 255 255 255 255 255 255 255 255 255 255 255 255 255 255
255 255 255 255 255 255 255 255 255 255 255 255 255 255 255 255 255
255 255 255 255 255 255 255 255 255 255 255 255 255 255 255 255 255
255 255 255 255 255 255 255 255 255 255 255 255 255 255 255 255 255
255 255 255 255 255 255 255 255 255 255 255 255 255 255 255 255 255
255 255 255 255 255 255 255 255 255 255 255 255 255 255 255 255 255
255 255 255 255 255 233 233 233 233 233 233 234 234 234 234 234 234
234 234 236 237 237 238 239 240 240 240 240 240 240 239 239 239 238
238 237 237 234 232 232 230 193 144 144 143 139 139 139 140 133 131
129 117 116 115 115 115 126 132 138 142 142 142 145 145 145 145 146
146 146 146 146 146 145 145 145 145 145 145 146 146 147 149 149 149
149 149 149 148 147 147 147 146 146 146 146 146 146 146 145 146 146
147 147 147 148 148 148 148 148 148 147 147 146 146 21 21 22 27
27 27 27 32 32 32 40 44 59 59 96 103 125 187 193 193 193
193 193 166 129 23 22 22 21 21 20 20 19 19 20 20 18 18
18 18 18 18 18 18 18 18 18 18 17 17 16 16 15 15 15
15 15 15 15 15 15 15 15 15 15 15 15 16 16 17 18 19
20 22 26 27 31 31 54 72 105 200 200 200 202 203 204 205 206
207 208 211 212 213 214 214 214 214 214 214 214 214 214 214 214 214
214 215 215 215 215 215 215 214 214 213 212 210 209 208 207 207 206
205 203 203 201 199 198 197 192 191 191 188 187 187 204 226 227 231
231 231 236 236 237 237 255 255 255 255 255 255 255 255 255 255 255
255 255 255 255 255 255 255 255 255 255 255 255 255 255 255 255 255
255 255 255 255 255 255 255 255 255 255 255 255 255 255 255 255 255
255 255 255 255 255 255 255 255 255 255 255 255 255 255 255 255 255
255 255 255 255 255 255 255 255 255 255 255 255 255 255 255 255 255
255 255 255 255 255 255 255 255 255 255 255 255 255 255 255 255 255
255 255 255 255 255 255 255 255 255 255 255 255 255 255 255 255 255
255 255 255 255 255 255 255 255 255 255 255 255 255 255 255 255 255
255 255 255 255 255 255 255 255 255 255 255 255 255 255 255 255 255
255 255 255 255 255 255 255 255 255 255 255 255 255 255 255 255 255
255 255 255 255 255 255 255 255 255 255 255 255 255 255 255 255 255
255 255 255 255 255 255 255 255 255 255 255 255 255 255 255 255 255
255 255 255 255 255 255 255 255 255 255 255 255 255 255 255 255 255
255 232 232 232 232 233 233 233 233 233 233 233 233 233 234 235 236
237 237 239 239 240 240 240 240 240 239 239 238 238 238 237 236 235
232 232 229 194 152 152 149 149 149 149 149 142 132 129 116 117 117
117 118 126 132 137 141 141 142 145 145 145 145 146 146 146 146 146
145 145 145 145 145 145 145 145 146 147 148 148 149 149 148 148 147
147 146 145 145 145 145 145 145 144 144 145 140 140 144 144 146 145
145 144 144 144 148 147 140 140 140 20 21 21 22 23 24 25 26
26 32 40 44 59 71 98 127 161 204 204 207 207 207 194 155 38
23 22 22 21 20 20 19 19 19 19 18 18 18 18 17 17 18
18 18 18 18 18 17 17 17 16 15 15 15 14 14 14 14 14
14 14 14 14 14 15 15 15 16 16 17 18 19 21 22 26 31
31 31 54 72 106 200 200 201 202 203 204 205 206 207 208 211 211
213 214 214 214 214 214 214 214 214 214 214 214 214 214 215 215 215
215 215 215 214 214 213 213 210 210 209 208 207 206 205 205 204 202
199 198 197 193 191 190 188 188 187 204 226 226 231 231 232 235 236
236 237 255 255 255 255 255 255 255 255 255 255 255 255 255 255 255
255 255 255 255 255 255 255 255 255 255 255 255 255 255 255 255 255
255 255 255 255 255 255 255 255 255 255 255 255 255 255 255 255 255
255 255 255 255 255 255 255 255 255 255 255 255 255 255 255 255 255
255 255 255 255 255 255 255 255 255 255 255 255 255 255 255 255 255
255 255 255 255 255 255 255 255 255 255 255 255 255 255 255 255 255
255 255 255 255 255 255 255 255 255 255 255 255 255 255 255 255 255
255 255 255 255 255 255 255 255 255 255 255 255 255 255 255 255 255
255 255 255 255 255 255 255 255 255 255 255 255 255 255 255 255 255
255 255 255 255 255 255 255 255 255 255 255 255 255 255 255 255 255
255 255 255 255 255 255 255 255 255 255 255 255 255 255 255 255 255
255 255 255 255 255 255 255 255 255 255 255 255 255 255 255 255 255
255 255 255 255 255 255 255 255 255 255 255 255 255 255 231 231 232
232 232 232 233 233 233 233 233 233 233 233 234 235 236 237 238 239
240 240 240 240 240 239 239 238 238 237 237 236 236 232 230 229 194
152 152 151 151 150 150 149 148 148 142 138 127 127 117 126 126 132
136 136 140 142 143 145 145 145 146 146 146 146 146 145 145 145 145
145 145 145 145 145 147 147 148 148 148 148 148 147 146 146 145 144
144 144 144 145 144 144 144 131 125 125 125 125 124 124 124 124 124
121 121 121 121 97 20 20 21 22 23 24 25 26 27 30 40 45
59 71 135 142 202 213 210 209 208 208 195 155 23 23 22 21 21
20 19 19 18 18 17 17 17 17 17 17 17 17 17 17 18 18
17 17 17 16 16 15 15 15 14 14 14 14 14 14 14 14 14
14 14 15 15 16 16 17 18 19 22 22 31 31 31 47 47 72
106 200 201 202 203 204 205 206 207 207 210 211 212 213 213 214 214
214 214 214 214 214 214 214 214 214 214 215 215 215 215 215 215 214
214 214 213 210 210 210 209 207 207 206 205 205 203 199 198 197 194
193 189 188 188 187 200 226 226 231 231 232 234 235 236 236 255 255
255 255 255 255 255 255 255 255 255 255 255 255 255 255 255 255 255
255 255 255 255 255 255 255 255 255 255 255 255 255 255 255 255 255
255 255 255 255 255 255 255 255 255 255 255 255 255 255 255 255 255
255 255 255 255 255 255 255 255 255 255 255 255 255 255 255 255 255
255 255 255 255 255 255 255 255 255 255 255 255 255 255 255 255 255
255 255 255 255 255 255 255 255 255 255 255 255 255 255 255 255 255
255 255 255 255 255 255 255 255 255 255 255 255 255 255 255 255 255
255 255 255 255 255 255 255 255 255 255 255 255 255 255 255 255 255
255 255 255 255 255 255 255 255 255 255 255 255 255 255 255 255 255
255 255 255 255 255 255 255 255 255 255 255 255 255 255 255 255 255
255 255 255 255 255 255 255 255 255 255 255 255 255 255 255 255 255
255 255 255 255 255 255 255 255 255 255 255 255 255 255 255 255 255
255 255 255 255 255 255 255 255 255 255 231 231 231 231 232 232 232
232 232 232 232 232 232 233 233 233 236 238 238 239 239 240 240 240
240 239 238 238 238 237 237 236 236 233 230 229 195 152 152 152 151
151 151 151 151 151 150 145 145 128 125 125 134 136 136 137 139 143
143 145 145 145 146 146 146 146 146 146 145 145 145 145 145 145 145
145 146 147 147 148 148 148 148 147 142 141 141 143 143 143 142 142
141 141 128 119 114 114 112 83 83 82 82 81 80 80 79 79 79
42 20 20 21 21 22 23 25 27 28 29 40 52 69 113 213 195
202 212 210 209 209 208 207 206 23 23 22 21 20 20 19 18 18
17 17 16 16 16 16 16 17 17 17 17 17 17 17 17 17 16
16 15 15 15 14 14 14 14 14 14 14 14 14 14 14 14 15
15 16 17 18 19 23 23 31 31 31 47 47 73 107 200 200 203
203 204 205 206 207 208 210 211 212 213 213 214 214 214 215 215 214
214 214 214 214 214 215 215 215 215 215 215 215 215 214 214 214 213
212 211 210 207 207 206 206 205 204 200 199 198 199 199 191 187 187
187 200 218 226 231 231 232 234 235 235 236 255 255 255 255 255 255
255 255 255 255 255 255 255 255 255 255 255 255 255 255 255 255 255
255 255 255 255 255 255 255 255 255 255 255 255 255 255 255 255 255
255 255 255 255 255 255 255 255 255 255 255 255 255 255 255 255 255
255 255 255 255 255 255 255 255 255 255 255 255 255 255 255 255 255
255 255 255 255 255 255 255 255 255 255 255 255 255 255 255 255 255
255 255 255 255 255 255 255 255 255 255 255 255 255 255 255 255 255
255 255 255 255 255 255 255 255 255 255 255 255 255 255 255 255 255
255 255 255 255 255 255 255 255 255 255 255 255 255 255 255 255 255
255 255 255 255 255 255 255 255 255 255 255 255 255 255 255 255 255
255 255 255 255 255 255 255 255 255 255 255 255 255 255 255 255 255
255 255 255 255 255 255 255 255 255 255 255 255 255 255 255 255 255
255 255 255 255 255 255 255 255 255 255 255 255 255 255 255 255 255
255 255 255 255 255 255 230 231 231 231 231 232 232 232 232 232 232
232 232 232 232 233 237 237 238 239 239 240 240 240 240 239 238 238
238 237 237 236 236 233 230 229 196 152 152 152 151 151 152 151 151
151 151 151 145 145 134 134 135 136 136 137 138 143 143 144 145 145
145 146 146 146 146 146 145 145 145 145 144 144 145 145 145 146 145
145 144 144 143 142 142 141 140 138 137 136 127 127 101 101 100 100
100 81 81 81 68 63 63 63 56 56 56 55 29 19 19 20 20
21 22 23 25 29 29 42 42 52 86 165 213 213 212 212 211 210
209 207 207 206 88 57 106 43 20 19 18 18 17 17 16 16 16
16 16 16 16 17 17 17 17 17 17 17 17 17 17 15 15 15
14 14 14 14 14 14 14 14 13 13 14 14 15 15 16 18 19
19 26 26 31 31 43 47 47 73 107 197 199 203 204 204 205 206
207 208 210 211 212 212 213 214 214 215 215 215 215 215 215 215 215
215 215 215 215 215 215 215 215 215 215 214 214 213 212 212 209 208
208 207 206 204 204 201 200 200 200 200 199 186 185 166 199 214 226
229 230 233 233 234 235 236 255 255 255 255 255 255 255 255 255 255
255 255 255 255 255 255 255 255 255 255 255 255 255 255 255 255 255
255 255 255 255 255 255 255 255 255 255 255 255 255 255 255 255 255
255 255 255 255 255 255 255 255 255 255 255 255 255 255 255 255 255
255 255 255 255 255 255 255 255 255 255 255 255 255 255 255 255 255
255 255 255 255 255 255 255 255 255 255 255 255 255 255 255 255 255
255 255 255 255 255 255 255 255 255 255 255 255 255 255 255 255 255
255 255 255 255 255 255 255 255 255 255 255 255 255 255 255 255 255
255 255 255 255 255 255 255 255 255 255 255 255 255 255 255 255 255
255 255 255 255 255 255 255 255 255 255 255 255 255 255 255 255 255
255 255 255 255 255 255 255 255 255 255 255 255 255 255 255 255 255
255 255 255 255 255 255 255 255 255 255 255 255 255 255 255 255 255
255 255 255 255 255 255 255 255 255 255 255 255 255 255 255 255 255
255 255 230 230 230 230 231 231 232 232 232 232 232 232 232 232 232
232 236 238 238 239 240 240 240 240 239 239 238 238 238 237 236 236
235 234 230 229 196 159 157 157 155 154 153 152 152 152 152 151 150
146 145 138 138 137 137 138 141 142 143 144 145 145 145 146 146 146
146 146 145 145 145 145 144 144 144 145 145 139 135 130 131 131 131
131 131 131 130 129 128 127 127 126 101 101 100 99 96 79 79 78
68 63 40 38 38 34 32 32 23 19 19 19 20 20 27 27 28
28 30 41 53 104 135 210 213 216 212 212 211 210 210 208 188 170
171 139 139 145 19 19 18 17 17 16 16 16 16 16 16 16 16
17 17 17 17 17 17 17 17 17 17 16 15 15 15 14 14 14
14 14 14 13 13 13 13 14 15 15 16 18 19 20 26 26 31
31 43 47 65 81 116 197 199 204 204 205 205 206 207 209 210 211
211 212 213 214 214 215 215 215 215 215 215 215 215 215 215 215 215
215 215 215 215 215 215 215 214 214 213 212 209 209 208 208 207 204
204 201 201 201 200 200 199 186 185 141 199 214 214 222 228 233 233
234 234 235 255 255 255 255 255 255 255 255 255 255 255 255 255 255
255 255 255 255 255 255 255 255 255 255 255 255 255 255 255 255 255
255 255 255 255 255 255 255 255 255 255 255 255 255 255 255 255 255
255 255 255 255 255 255 255 255 255 255 255 255 255 255 255 255 255
255 255 255 255 255 255 255 255 255 255 255 255 255 255 255 255 255
255 255 255 255 255 255 255 255 255 255 255 255 255 255 255 255 255
255 255 255 255 255 255 255 255 255 255 255 255 255 255 255 255 255
255 255 255 255 255 255 255 255 255 255 255 255 255 255 255 255 255
255 255 255 255 255 255 255 255 255 255 255 255 255 255 255 255 255
255 255 255 255 255 255 255 255 255 255 255 255 255 255 255 255 255
255 255 255 255 255 255 255 255 255 255 255 255 255 255 255 255 255
255 255 255 255 255 255 255 255 255 255 255 255 255 255 255 255 255
255 255 255 255 255 255 255 255 255 255 255 255 255 255 255 230 230
230 230 230 231 232 232 232 232 232 232 232 232 232 232 236 236 239
239 240 240 240 240 239 239 238 238 237 237 236 236 235 233 229 229
197 159 157 157 156 155 154 153 153 152 152 152 150 150 149 149 138
137 138 138 140 142 143 144 144 145 145 145 146 146 146 146 146 145
145 145 144 144 144 144 137 123 91 91 81 81 81 84 98 98 114
125 125 126 126 126 101 101 100 100 93 79 79 78 51 51 38 38
38 34 18 19 19 19 19 19 20 20 27 27 28 28 40 41 86
150 176 213 213 217 212 212 212 210 210 209 124 124 171 187 139 206
19 18 18 17 17 16 16 15 15 15 16 16 16 17 17 17 17
18 17 17 17 17 17 16 15 15 15 14 14 14 14 14 14 13
13 13 13 14 14 15 16 19 19 20 26 26 38 43 43 65 65
106 131 197 198 204 204 205 205 206 206 209 210 211 211 212 213 213
214 215 215 215 215 215 215 215 215 215 215 215 215 215 215 215 215
215 215 215 214 214 214 210 210 209 209 208 208 204 203 202 201 201
200 200 200 186 185 141 199 214 214 214 228 233 233 234 234 235 255
255 255 255 255 255 255 255 255 255 255 255 255 255 255 255 255 255
255 255 255 255 255 255 255 255 255 255 255 255 255 255 255 255 255
255 255 255 255 255 255 255 255 255 255 255 255 255 255 255 255 255
255 255 255 255 255 255 255 255 255 255 255 255 255 255 255 255 255
255 255 255 255 255 255 255 255 255 255 255 255 255 255 255 255 255
255 255 255 255 255 255 255 255 255 255 255 255 255 255 255 255 255
255 255 255 255 255 255 255 255 255 255 255 255 255 255 255 255 255
255 255 255 255 255 255 255 255 255 255 255 255 255 255 255 255 255
255 255 255 255 255 255 255 255 255 255 255 255 255 255 255 255 255
255 255 255 255 255 255 255 255 255 255 255 255 255 255 255 255 255
255 255 255 255 255 255 255 255 255 255 255 255 255 255 255 255 255
255 255 255 255 255 255 255 255 255 255 255 255 255 255 255 255 255
255 255 255 255 255 255 255 255 255 255 255 255 255 255 255 255 255
255 255 255 255 255 255 255 255 255 255 255 255 255 255 255 255 255
255 255 255 255 255 255 255 255 255 255 255 255 255 255 255 255 255
255 255 255 255 255 255 255 255 255 255 255 255 255 255 255 255 255
255 255 255 255 255 255 255 255 255 255 255 255 255 255 255 255 255
255 255 255 255 255 255 255 255 255 255 255 255 255 255 255 255 255
255 255 255 255 255 255 255 255 255 255 255 255 255 255 255 255 255
255 255 255 255 255 255 255 255 255 255 255 255 255 255 255 255 255
255 255 255 255 255 255 255 255 255 255 255 255 255 255 255 255 255
255 255 255 255 255 255 255 255 255 255 255 255 255 255 255 255 255
255 255 255 255 255 255 255 255 255 255 255 255 255 255 255 255 255
255 255 255 255 255 255 255 255 255 255 255 255 255 255 255 255 255
255 255 255 255 255 255 255 255 255 255 255 255 255 255 255 255 255
255 255 255 255 255 255 255 255 255 255 255 255 255 255 255 255 255
255 255 255 255 255 255 255 255 255 255 255 255 255 255 255 255 255
255 255 255 255 255 255 255 255 255 255 255 255 255 255 255 255 255
255 255 255 255 255 255 255 255 255 255 255 255 255 255 255 255 255
255 255 255 255 255 255 255 255 255 255 255 255 255 255 255 255 255
255 255 255 255 255 255 255 255 255 255 255 255 255 255 255 255 255
255 255 255 255 255 255 255 255 255 255 255 255 255 255 255 255 255
255 255 255 255 255 255 255 255 255 255 255 255 255 255 255 255 255
255 255 255 255 255 255 255 255 255 255 255 255 255 255 255 255 255
255 255 255 255 255 255 255 255 255 255 255 255 255 255 255 255 255
255 255 255 255 255 255 255 255 255 255 255 255 255 255 255 255 255
255 255 255 255 255 255 255 255 255 255 255 255 255 255 255 255 255
255 255 255 255 255 255 255 255 255 255 255 255 255 255 255 255 255
255 255 255 255 255 255 255 255 255 255 255 255 255 255 255 255 255
255 255 255 255 255 255 255 255 255 255 255 255 255 255 255 255 255
255 255 255 255 255 255 255 255 255 255 255 255 255 255 255 255 255
255 255 255 255 255 255 255 255 255 255 255 255 255 255 255 255 255
255 255 255 255 255 255 255 255 255 255 255 255 255 255 255 255 255
255 255 255 255 255 255 255 255 255 255 255 255 255 255 255 255 255
255 255 255 255 255 255 255 255 255 255 255 255 255 255 255 255 255
255 255 255 255 255 255 255 255 255 255 255 255 255 255 255 255 255
255 255 255 255 255 255 255 255 255 255 255 255 255 255 255 255 255
255 255 255 255 255 255 255 255 255 255 255 255 255 255 255 255 255
255 255 255 255 255 255 255 255 255 255 255 255 255 255 255 255 255
255 255 255 255 255 255 255 255 255 255 255 255 255 255 255 255 255
255 255 255 255 255 255 255 255 255 255 255 255 255 255 255 255 255
255 255 255 255 255 255 255 255 255 255 255 255 255 255 255 255 255
255 255 255 255 255 255 255 255 255 255 255 255 255 255 255 255 255
255 255 255 255 255 255 255 255 255 255 255 255 255 255 255 255 255
255 255 255 255 255 255 255 255 255 255 255 255 255 255 255 255 255
255 255 255 255 255 255 255 255 255 255 255 255 255 255 255 255 255
255 255 255 255 255 255 255 255 255 255 255 255 255 255 255 255 255
255 255 255 255 255 255 255 255 255 255 255 255 255 255 255 255 255
255 255 255 255 255 255 255 255 255 255 255 255 255 255 255 255 255
255 255 255 255 255 255 255 255 255 255 255 255 255 255 255 255 255
255 255 255 255 255 255 255 255 255 255 255 255 255 255 255 255 255
255 255 255 255 255 255 255 255 255 255 255 255 255 255 255 255 255
255 255 255 255 255 255 255 255 255 255 255 255 255 255 255 255 255
255 255 255 255 255 255 255 255 255 255 255 255 255 255 255 255 255
255 255 255 255 255 255 255 255 255 255 255 255 255 255 255 255 255
255 255 255 255 255 255 255 255 255 255 255 255 255 255 255 255 255
255 255 255 255 255 255 255 255 255 255 255 255 255 255 255 255 255
255 255 255 255 255 255 255 255 255 255 255 255 255 255 255 255 255
255 255 255 255 255 255 255 255 255 255 255 255 255 255 255 255 255
255 255 255 255 255 255 255 255 255 255 255 255 255 255 255 255 255
255 255 255 255 255 255 255 255 255 255 255 255 255 255 255 255 255
255 255 255 255 255 255 255 255 255 255 255 255 255 255 255 255 255
255 255 255 255 255 255 255 255 255 255 255 255 255 255 255 255 255
255 255 255 255 255 255 255 255 255 255 255 255 255 255 255 255 255
255 255 255 255 255 255 255 255 255 255 255 255 255 255 255 255 255
255 255 255 255 255 255 255 255 255 255 255 255 255 255 255 255 255
255 255 255 255 255 255 255 255 255 255 255 255 255 255 255 255 255
255 255 255 255 255 255 255 255 255 255 255 255 255 255 255 255 255
255 255 255 255 255 255 255 255 255 255 255 255 255 255 255 255 255
255 255 255 255 255 255 255 255 255 255 255 255 255 255 255 255 255
255 255 255 255 255 255 255 255 255 255 255 255 255 255 255 255 255
255 255 255 255 255 255 255 255 255 255 255 255 255 255 255 255 255
255 255 255 255 255 255 255 255 255 255 255 255 255 255 255 255 255
255 255 255 255 255 255 255 255 255 255 255 255 255 255 255 255 255
255 255 255 255 255 255 255 255 255 255 255 255 255 255 255 255 255
255 255 255 255 255 255 255 255 255 255 255 255 255 255 255 255 255
255 255 255 255 255 255 255 255 255 255 255 255 255 255 255 255 255
255 255 255 255 255 255 255 255 255 255 255 255 255 255 255 255 255
255 255 255 255 255 255 255 255 255 255 255 255 255 255 255 255 255
255 255 255 255 255 255 255 255 255 255 255 255 255 255 255 255 255
255 255 255 255 255 255 255 255 255 255 255 255 255 255 255 255 255
255 255 255 255 255 255 255 255 255 255 255 255 255 255 255 255 255
255 255 255 255 255 255 255 255 255 255 255 255 255 255 255 255 255
255 255 255 255 255 255 255 255 255 255 255 255 255 255 255 255 255
255 255 255 255 255 255 255 255 255 255 255 255 255 255 255 255 255
255 255 255 255 255 255 255 255 255 255 255 255 255 255 255 255 255
255 255 255 255 255 255 255 255 255 255 255 255 255 255 255 255 255
255 255 255 255 255 255 255 255 255 255 255 255 255 255 255 255 255
255 255 255 255 255 255 255 255 255 255 255 255 255 255 255 255 255
255 255 255 255 255 255 255 255 255 255 255 255 255 255 255 255 255
255 255 255 255 255 255 255 255 255 255 255 255 255 255 255 255 255
255 255 255 255 255 255 255 255 255 255 255 255 255 255 255 255 255
255 255 255 255 255 255 255 255 255 255 255 255 255 255 255 255 255
255 255 255 255 255 255 255 255 255 255 255 255 255 255 255 255 255
255 255 255 255 255 255 255 255 255 255 255 255 255 255 255 255 255
255 255 255 255 255 255 255 255 255 255 255 255 255 255 255 255 255
255 255 255 255 255 255 255 255 255 255 255 255 255 255 255 255 255
255 255 255 255 255 255 255 255 255 255 255 255 255 255 255 255 255
255 255 255 255 255 255 255 255 255 255 255 255 255 255 255 255 255
255 255 255 255 255 255 255 255 255 255 255 255 255 255 255 255 255
255 255 255 255 255 255 255 255 255 255 255 255 255 255 255 255 255
255 255 255 255 255 255 255 255 255 255 255 255 255 255 255 255 255
255 255 255 255 255 255 255 255 255 255 255 255 255 255 255 255 255
255 255 255 255 255 255 255 255 255 255 255 255 255 255 255 255 255
255 255 255 255 255 255 255 255 255 255 255 255 255 255 255 255 255
255 255 255 255 255 255 255 255 255 255 255 255 255 255 255 255 255
255 255 255 255 255 255 255 255 255 255 255 255 255 255 255 255 255
255 255 255 255 255 255 255 255 255 255 255 255 255 255 255 255 255
255 255 255 255 255 255 255 255 255 255 255 255 255 255 255 255 255
255 255 255 255 255 255 255 255 255 255 255 255 255 255 255 255 255
255 255 255 255 255 255 255 255 255 255 255 255 255 255 255 255 255
255 255 255 255 255 255 255 255 255 255 255 255 255 255 255 255 255
255 255 255 255 255 255 255 255 255 255 255 255 255 255 255 255 255
255 255 255 255 255 255 255 255 255 255 255 255 255 255 255 255 255
255 255 255 255 255 255 255 255 255 255 255 255 255 255 255 255 255
255 255 255 255 255 255 255 255 255 255 255 255 255 255 255 255 255
255 255 255 255 255 255 255 255 255 255 255 255 255 255 255 255 255
255 255 255 255 255 255 255 255 255 255 255 255 255 255 255 255 255
255 255 255 255 255 255 255 255 255 255 255 255 255 255 255 255 255
255 255 255 255 255 255 255 255 255 255 255 255 255 255 255 255 255
255 255 255 255 255 255 255 255 255 255 255 255 255 255 255 255 255
255 255 255 255 255 255 255 255 255 255 255 255 255 255 255 255 255
255 255 255 255 255 255 255 255 255 255 255 255 255 255 255 255 255
255 255 255 255 255 255 255 255 255 255 255 255 255 255 255 255 255
255 255 255 255 255 255 255 255 255 255 255 255 255 255 255 255 255
255 255 255 255 255 255 255 255 255 255 255 255 255 255 255 255 255
255 255 255 255 255 255 255 255 255 255 255 255 255 255 255 255 255
255 255 255 255 255 255 255 255 255 255 255 255 255 255 255 255 255
255 255 255 255 255 255 255 255 255 255 255 255 255 255 255 255 255
255 255 255 255 255 255 255 255 255 255 255 255 255 255 255 255 255
255 255 255 255 255 255 255 255 255 255 255 255 255 255 255 255 255
255 255 255 255 255 255 255 255 255 255 255 255 255 255 255 255 255
255 255 255 255 255 255 255 255 255 255 255 255 255 255 255 255 255
255 255 255 255 255 255 255 255 255 255 255 255 255 255 255 255 255
255 255 255 255 255 255 255 255 255 255 255 255 255 255 255 255 255
255 255 255 255 255 255 255 255 255 255 255 255 255 255 255 255 255
255 255 255 255 255 255 255 255 255 255 255 255 255 255 255 255 255
255 255 255 255 255 255 255 255 255 255 255 255 255 255 255 255 255
255 255 255 255 255 255 255 255 255 255 255 255 255 255 255 255 255
255 255 255 255 255 255 255 255 255 255 255 255 255 255 255 255 255
255 255 255 255 255 255 255 255 255 255 255 255 255 255 255 255 255
255 255 255 255 255 255 255 255 255 255 255 255 255 255 255 255 255
255 255 255 255 255 255 255 255 255 255 255 255 255 255 255 255 255
255 255 255 255 255 255 255 255 255 255 255 255 255 255 255 255 255
255 255 255 255 255 255 255 255 255 255 255 255 255 255 255 255 255
255 255 255 255 255 255 255 255 255 255 255 255 255 255 255 255 255
255 255 255 255 255 255 255 255 255 255 255 255 255 255 255 255 255
255 255 255 255 255 255 255 255 255 255 255 255 255 255 255 255 255
255 255 255 255 255 255 255 255 255 255 255 255 255 255 255 255 255
255 255 255 255 255 255 255 255 255 255 255 255 255 255 255 255 255
255 255 255 255 255 255 255 255 255 255 255 255 255 255 255 255 255
255 255 255 255 255 255 255 255 255 255 255 255 255 255 255 255 255
255 255 255 255 255 255 255 255 255 255 255 255 255 255 255 255 255
255 255 255 255 255 255 255 255 255 255 255 255 255 255 255 255 255
255 255 255 255 255 255 255 255 255 255 255 255 255 255 255 255 255
255 255 255 255 255 255 255 255 255 255 255 255 255 255 255 255 255
255 255 255 255 255 255 255 255 255 255 255 255 255 255 255 255 255
255 255 255 255 255 255 255 255 255 255 255 255 255 255 255 255 255
255 255 255 255 255 255 255 255 255 255 255 255 255 255 255 255 255
255 255 255 255 255 255 255 255 255 255 255 255 255 255 255 255 255
255 255 255 255 255 255 255 255 255 255 255 255 255 255 255 255 255
255 255 255 255 255 255 255 255 255 255 255 255 255 255 255 255 255
255 255 255 255 255 255 255 255 255 255 255 255 255 255 255 255 255
255 255 255 255 255 255 255 255 255 255 255 255 255 255 255 255 255
255 255 255 255 255 255 255 255 255 255 255 255 255 255 255 255 255
255 255 255 255 255 255 255 255 255 255 255 255 255 255 255 255 255
255 255 255 255 255 255 255 255 255 255 255 255 255 255 255 255 255
255 255 255 255 255 255 255 255 255 255 255 255 255 255 255 255 255
255 255 255 255 255 255 255 255 255 255 255 255 255 255 255 255 255
255 255 255 255 255 255 255 255 255 255 255 255 255 255 255 255 255
255 255 255 255 255 255 255 255 255 255 255 255 255 255 255 255 255
255 255 255 255 255 255 255 255 255 255 255 255 255 255 255 255 255
255 255 255 255 255 255 255 255 255 255 255 255 255 255 255 255 255
255 255 255 255 255 255 255 255 255 255 255 255 255 255 255 255 255
255 255 255 255 255 255 255 255 255 255 255 255 255 255 255 255 255
255 255 255 255 255 255 255 255 255 255 255 255 255 255 255 255 255
255 255 255 255 255 255 255 255 255 255 255 255 255 255 255 255 255
255 255 255 255 255 255 255 255 255 255 255 255 255 255 255 255 255
255 255 255 255 255 255 255 255 255 255 255 255 255 255 255 255 255
255 255 255 255 255 255 255 255 255 255 255 255 255 255 255 255 255
255 255 255 255 255 255 255 255 255 255 255 255 255 255 255 255 255
255 255 255 255 255 255 255 255 255 255 255 255 255 255 255 255 255
255 255 255 255 255 255 255 255 255 255 255 255 255 255 255 255 255
255 255 255 255 255 255 255 255 255 255 255 255 255 255 255 255 255
255 255 255 255 255 255 255 255 255 255 255 255 255 255 255 255 255
255 255 255 255 255 255 255 255 255 255 255 255 255 255 255 255 255
255 255 255 255 255 255 255 255 255 255 255 255 255 255 255 255 255
255 255 255 255 255 255 255 255 255 255 255 255 255 255 255 255 255
255 255 255 255 255 255 255 255 255 255 255 255 255 255 255 255 255
255 255 255 255 255 255 255 255 255 255 255 255 255 255 255 255 255
255 255 255 255 255 255 255 255 255 255 255 255 255 255 255 255 255
255 255 255 255 255 255 255 255 255 255 255 255 255 255 255 255 255
255 255 255 255 255 255 255 255 255 255 255 255 255 255 255 255 255
255 255 255 255 255 255 255 255 255 255 255 255 255 255 255 255 255
255 255 255 255 255 255 255 255 255 255 255 255 255 255 255 255 255
255 255 255 255 255 255 255 255 255 255 255 255 255 255 255 255 255
255 255 255 255 255 255 255 255 255 255 255 255 255 255 255 255 255
255 255 255 255 255 255 255 255 255 255 255 255 255 255 255 255 255
255 255 255 255 255 255 255 255 255 255 255 255 255 255 255 255 255
255 255 255 255 255 255 255 255 255 255 255 255 255 255 255 255 255
255 255 255 255 255 255 255 255 255 255 255 255 255 255 255 255 255
255 255 255 255 255 255 255 255 255 255 255 255 255 255 255 255 255
255 255 255 255 255 255 255 255 255 255 255 255 255 255 255 255 255
255 255 255 255 255 255 255 255 255 255 255 255 255 255 255 255 255
255 255 255 255 255 255 255 255 255 255 255 255 255 255 255 255 255
255 255 255 255 255 255 255 255 255 255 255 255 255 255 255 255 255
255 255 255 255 255 255 255 255 255 255 255 255 255 255 255 255 255
255 255 255 255 255 255 255 255 255 255 255 255 255 255 255 255 255
255 255 255 255 255 255 255 255 255 255 255 255 255 255 255 255 255
255 255 255 255 255 255 255 255 255 255 255 255 255 255 255 255 255
255 255 255 255 255 255 255 255 255 255 255 255 255 255 255 255 255
255 255 255 255 255 255 255 255 255 255 255 255 255 255 255 255 255
255 255 255 255 255 255 255 255 255 255 255 255 255 255 255 255 255
255 255 255 255 255 255 255 255 255 255 255 255 255 255 255 255 255
255 255 255 255 255 255 255 255 255 255 255 255 255 255 255 255 255
255 255 255 255 255 255 255 255 255 255 255 255 255 255 255 255 255
255 255 255 255 255 255 255 255 255 255 255 255 255 255 255 255 255
255 255 255 255 255 255 255 255 255 255 255 255 255 255 255 255 255
255 255 255 255 255 255 255 255 255 255 255 255 255 255 255 255 255
255 255 255 255 255 255 255 255 255 255 255 255 255 255 255 255 255
255 255 255 255 255 255 255 255 255 255 255 255 255 255 255 255 255
255 255 255 255 255 255 255 255 255 255 255 255 255 255 255 255 255
255 255 255 255 255 255 255 255 255 255 255 255 255 255 255 255 255
255 255 255 255 255 255 255 255 255 255 255 255 255 255 255 255 255
255 255 255 255 255 255 255 255 255 255 255 255 255 255 255 255 255
255 255 255 255 255 255 255 255 255 255 255 255 255 255 255 255 255
255 255 255 255 255 255 255 255 255 255 255 255 255 255 255 255 255
255 255 255 255 255 255 255 255 255 255 255 255 255 255 255 255 255
255 255 255 255 255 255 255 255 255 255 255 255 255 255 255 255 255
255 255 255 255 255 255 255 255 255 255 255 255 255 255 255 255 255
255 255 255 255 255 255 255 255 255 255 255 255 255 255 255 255 255
255 255 255 255 255 255 255 255 255 255 255 255 255 255 255 255 255
255 255 255 255 255 255 255 255 255 255 255 255 255 255 255 255 255
255 255 255 255 255 255 255 255 255 255 255 255 255 255 255 255 255
255 255 255 255 255 255 255 255 255 255 255 255 255 255 255 255 255
255 255 255 255 255 255 255 255 255 255 255 255 255 255 255 255 255
255 255 255 255 255 255 255 255 255 255 255 255 255 255 255 255 255
255 255 255 255 255 255 255 255 255 255 255 255 255 255 255 255 255
255 255 255 255 255 255 255 255 255 255 255 255 255 255 255 255 255
255 255 255 255 255 255 255 255 255 255 255 255 255 255 255 255 255
255 255 255 255 255 255 255 255 255 255 255 255 255 255 255 255 255
255 255 255 255 255 255 255 255 255 255 255 255 255 255 255 255 255
255 255 255 255 255 255 255 255 255 255 255 255 255 255 255 255 255
255 255 255 255 255 255 255 255 255 255 255 255 255 255 255 255 255
255 255 255 255 255 255 255 255 255 255 255 255 255 255 255 255 255
255 255 255 255 255 255 255 255 255 255 255 255 255 255 255 255 255
255 255 255 255 255 255 255 255 255 255 255 255 255 255 255 255 255
255 255 255 255 255 255 255 255 255 255 255 255 255 255 255 255 255
255 255 255 255 255 255 255 255 255 255 255 255 255 255 255 255 255
255 255 255 255 255 255 255 255 255 255 255 255 255 255 255 255 255
255 255 255 255 255 255 255 255 255 255 255 255 255 255 255 255 255
255 255 255 255 255 255 255 255 255 255 255 255 255 255 255 255 255
255 255 255 255 255 255 255 255 255 255 255 255 255 255 255 255 255
255 255 255 255 255 255 255 255 255 255 255 255 255 255 255 255 255
255 255 255 255 255 255 255 255 255 255 255 255 255 255 255 255 255
255 255 255 255 255 255 255 255 255 255 255 255 255 255 255 255 255
255 255 255 255 255 255 255 255 255 255 255 255 255 255 255 255 255
255 255 255 255 255 255 255 255 255 255 255 255 255 255 255 255 255
255 255 255 255 255 255 255 255 255 255 255 255 255 255 255 255 255
255 255 255 255 255 255 255 255 255 255 255 255 255 255 255 255 255
255 255 255 255 255 255 255 255 255 255 255 255 255 255 255 255 255
255 255 255 255 255 255 255 255 255 255 255 255 255 255 255 255 255
255 255 255 255 255 255 255 255 255 255 255 255 255 255 255 255 255
255 255 255 255 255 255 255 255 255 255 255 255 255 255 255 255 255
255 255 255 255 255 255 255 255 255 255 255 255 255 255 255 255 255
255 255 255 255 255 255 255 255 255 255 255 255 255 255 255 255 255
255 255 255 255 255 255 255 255 255 255 255 255 255 255 255 255 255
255 255 255 255 255 255 255 255 255 255 255 255 255 255 255 255 255
255 255 255 255 255 255 255 255 255 255 255 255 255 255 255 255 255
255 255 255 255 255 255 255 255 255 255 255 255 255 255 255 255 255
255 255 255 255 255 255 255 255 255 255 255 255 255 255 255 255 255
255 255 255 255 255 255 255 255 255 255 255 255 255 255 255 255 255
255 255 255 255 255 255 255 255 255 255 255 255 255 255 255 255 255
255 255 255 255 255 255 255 255 255 255 255 255 255 255 255 255 255
255 255 255 255 255 255 255 255 255 255 255 255 255 255 255 255 255
255 255 255 255 255 255 255 255 255 255 255 255 255 255 255 255 255
255 255 255 255 255 255 255 255 255 255 255 255 255 255 255 255 255
255 255 255 255 255 255 255 255 255 255 255 255 255 255 255 255 255
255 255 255 255 255 255 255 255 255 255 255 255 255 255 255 255 255
255 255 255 255 255 255 255 255 255 255 255 255 255 255 255 255 255
255 255 255 255 255 255 255 255 255 255 255 255 255 255 255 255 255
255 255 255 255 255 255 255 255 255 255 255 255 255 255 255 255 255
255 255 255 255 255 255 255 255 255 255 255 255 255 255 255 255 255
255 255 255 255 255 255 255 255 255 255 255 255 255 255 255 255 255
255 255 255 255 255 255 255 255 255 255 255 255 255 255 255 255 255
255 255 255 255 255 255 255 255 255 255 255 255 255 255 255 255 255
255 255 255 255 255 255 255 255 255 255 255 255 255 255 255 255 255
255 255 255 255 255 255 255 255 255 255 255 255 255 255 255 255 255
255 255 255 255 255 255 255 255 255 255 255 255 255 255 255 255 255
255 255 255 255 255 255 255 255 255 255 255 255 255 255 255 255 255
255 255 255 255 255 255 255 255 255 255 255 255 255 255 255 255 255
255 255 255 255 255 255 255 255 255 255 255 255 255 255 255 255 255
255 255 255 255 255 255 255 255 255 255 255 255 255 255 255 255 255
255 255 255 255 255 255 255 255 255 255 255 255 255 255 255 255 255
255 255 255 255 255 255 255 255 255 255 255 255 255 255 255 255 255
255 255 255 255 255 255 255 255 255 255 255 255 255 255 255 255 255
255 255 255 255 255 255 255 255 255 255 255 255 255 255 255 255 255
255 255 255 255 255 255 255 255 255 255 255 255 255 255 255 255 255
255 255 255 255 255 255 255 255 255 255 255 255 255 255 255 255 255
255 255 255 255 255 255 255 255 255 255 255 255 255 255 255 255 255
255 255 255 255 255 255 255 255 255 255 255 255 255 255 255 255 255
255 255 255 255 255 255 255 255 255 255 255 255 255 255 255 255 255
255 255 255 255 255 255 255 255 255 255 255 255 255 255 255 255 255
255 255 255 255 255 255 255 255 255 255 255 255 255 255 255 255 255
255 255 255 255 255 255 255 255 255 255 255 255 255 255 255 255 255
255 255 255 255 255 255 255 255 255 255 255 255 255 255 255 255 255
255 255 255 255 255 255 255 255 255 255 255 255 255 255 255 255 255
255 255 255 255 255 255 255 255 255 255 255 255 255 255 255 255 255
255 255 255 255 255 255 255 255 255 255 255 255 255 255 255 255 255
255 255 255 255 255 255 255 255 255 255 255 255 255 255 255 255 255
255 255 255 255 255 255 255 255 255 255 255 255 255 255 255 255 255
255 255 255 255 255 255 255 255 255 255 255 255 255 255 255 255 255
255 255 255 255 255 255 255 255 255 255 255 255 255 255 255 255 255
255 255 255 255 255 255 255 255 255 255 255 255 255 255 255 255 255
255 255 255 255 255 255 255 255 255 255 255 255 255 255 255 255 255
255 255 255 255 255 255 255 255 255 255 255 255 255 255 255 255 255
255 255 255 255 255 255 255 255 255 255 255 255 255 255 255 255 255
255 255 255 255 255 255 255 255 255 255 255 255 255 255 255 255 255
255 255 255 255 255 255 255 255 255 255 255 255 255 255 255 255 255
255 255 255 255 255 255 255 255 255 255 255 255 255 255 255 255 255
255 255 255 255 255 255 255 255 255 255 255 255 255 255 255 255 255
255 255 255 255 255 255 255 255 255 255 255 255 255 255 255 255 255
255 255 255 255 255 255 255 255 255 255 255 255 255 255 255 255 255
255 255 255 255 255 255 255 255 255 255 255 255 255 255 255 255 255
255 255 255 255 255 255 255 255 255 255 255 255 255 255 255 255 255
255 255 255 255 255 255 255 255 255 255 255 255 255 255 255 255 255
255 255 255 255 255 255 255 255 255 255 255 255 255 255 255 255 255
255 255 255 255 255 255 255 255 255 255 255 255 255 255 255 255 255
255 255 255 255 255 255 255 255 255 255 255 255 255 255 255 255 255
255 255 255 255 255 255 255 255 255 255 255 255 255 255 255 255 255
255 255 255 255 255 255 255 255 255 255 255 255 255 255 255 255 255
255 255 255 255 255 255 255 255 255 255 255 255 255 255 255 255 255
255 255 255 255 255 255 255 255 255 255 255 255 255 255 255 255 255
255 255 255 255 255 255 255 255 255 255 255 255 255 255 255 255 255
255 255 255 255 255 255 255 255 255 255 255 255 255 255 255 255 255
255 255 255 255 255 255 255 255 255 255 255 255 255 255 255 255 255
255 255 255 255 255 255 255 255 255 255 255 255 255 255 255 255 255
255 255 255 255 255 255 255 255 255 255 255 255 255 255 255 255 255
255 255 255 255 255 255 255 255 255 255 255 255 255 255 255 255 255
255 255 255 255 255 255 255 255 255 255 255 255 255 255 255 255 255
255 255 255 255 255 255 255 255 255 255 255 255 255 255 255 255 255
255 255 255 255 255 255 255 255 255 255 255 255 255 255 255 255 255
255 255 255 255 255 255 255 255 255 255 255 255 255 255 255 255 255
255 255 255 255 255 255 255 255 255 255 255 255 255 255 255 255 255
255 255 255 255 255 255 255 255 255 255 255 255 255 255 255 255 255
255 255 255 255 255 255 255 255 255 255 255 255 255 255 255 255 255
255 255 255 255 255 255 255 255 255 255 255 255 255 255 255 255 255
255 255 255 255 255 255 255 255 255 255 255 255 255 255 255 255 255
255 255 255 255 255 255 255 255 255 255 255 255 255 255 255 255 255
255 255 255 255 255 255 255 255 255 255 255 255 255 255 255 255 255
255 255 255 255 255 255 255 255 255 255 255 255 255 255 255 255 255
255 255 255 255 255 255 255 255 255 255 255 255 255 255 255 255 255
255 255 255 255 255 255 255 255 255 255 255 255 255 255 255 255 255
255 255 255 255 255 255 255 255 255 255 255 255 255 255 255 255 255
255 255 255 255 255 255 255 255 255 255 255 255 255 255 255 255 255
255 255 255 255 255 255 255 255 255 255 255 255 255 255 255 255 255
255 255 255 255 255 255 255 255 255 255 255 255 255 255 255 255 255
255 255 255 255 255 255 255 255 255 255 255 255 255 255 255 255 255
255 255 255 255 255 255 255 255 255 255 255 255 255 255 255 255 255
255 255 255 255 255 255 255 255 255 255 255 255 255 255 255 255 255
255 255 255 255 255 255 255 255 255 255 255 255 255 255 255 255 255
255 255 255 255 255 255 255 255 255 255 255 255 255 255 255 255 255
255 255 255 255 255 255 255 255 255 255 255 255 255 255 255 255 255
255 255 255 255 255 255 255 255 255 255 255 255 255 255 255 255 255
255 255 255 255 255 255 255 255 255 255 255 255 255 255 255 255 255
255 255 255 255 255 255 255 255 255 255 255 255 255 255 255 255 255
255 255 255 255 255 255 255 255 255 255 255 255 255 255 255 255 255
255 255 255 255 255 255 255 255 255 255 255 255 255 255 255 255 255
255 255 255 255 255 255 255 255 255 255 255 255 255 255 255 255 255
255 255 255 255 255 255 255 255 255 255 255 255 255 255 255 255 255
255 255 255 255 255 255 255 255 255 255 255 255 255 255 255 255 255
255 255 255 255 255 255 255 255 255 255 255 255 255 255 255 255 255
255 255 255 255 255 255 255 255 255 255 255 255 255 255 255 255 255
255 255 255 255 255 255 255 255 255 255 255 255 255 255 255 255 255
255 255 255 255 255 255 255 255 255 255 255 255 255 255 255 255 255
255 255 255 255 255 255 255 255 255 255 255 255 255 255 255 255 255
255 255 255 255 255 255 255 255 255 255 255 255 255 255 255 255 255
255 255 255 255 255 255 255 255 255 255 255 255 255 255 255 255 255
255 255 255 255 255 255 255 255 255 255 255 255 255 255 255 255 255
255 255 255 255 255 255 255 255 255 255 255 255 255 255 255 255 255
255 255 255 255 255 255 255 255 255 255 255 255 255 255 255 255 255
255 255 255 255 255 255 255 255 255 255 255 255 255 255 255 255 255
255 255 255 255 255 255 255 255 255 255 255 255 255 255 255 255 255
255 255 255 255 255 255 255 255 255 255 255 255 255 255 255 255 255
255 255 255 255 255 255 255 255 255 255 255 255 255 255 255 255 255
255 255 255 255 255 255 255 255 255 255 255 255 255 255 255 255 255
255 255 255 255 255 255 255 255 255 255 255 255 255 255 255 255 255
255 255 255 255 255 255 255 255 255 255 255 255 255 255 255 255 255
255 255 255 255 255 255 255 255 255 255 255 255 255 255 255 255 255
255 255 255 255 255 255 255 255 255 255 255 255 255 255 255 255 255
255 255 255 255 255 255 255 255 255 255 255 255 255 255 255 255 255
255 255 255 255 255 255 255 255 255 255 255 255 255 255 255 255 255
255 255 255 255 255 255 255 255 255 255 255 255 255 255 255 255 255
255 255 255 255 255 255 255 255 255 255 255 255 255 255 255 255 255
255 255 255 255 255 255 255 255 255 255 255 255 255 255 255 255 255
255 255 255 255 255 255 255 255 255 255 255 255 255 255 255 255 255
255 255 255 255 255 255 255 255 255 255 255 255 255 255 255 255 255
255 255 255 255 255 255 255 255 255 255 255 255 255 255 255 255 255
255 255 255 255 255 255 255 255 255 255 255 255 255 255 255 255 255
255 255 255 255 255 255 255 255 255 255 255 255 255 255 255 255 255
255 255 255 255 255 255 255 255 255 255 255 255 255 255 255 255 255
255 255 255 255 255 255 255 255 255 255 255 255 255 255 255 255 255
255 255 255 255 255 255 255 255 255 255 255 255 255 255 255 255 255
255 255 255 255 255 255 255 255 255 255 255 255 255 255 255 255 255
255 255 255 255 255 255 255 255 255 255 255 255 255 255 255 255 255
255 255 255 255 255 255 255 255 255 255 255 255 255 255 255 255 255
255 255 255 255 255 255 255 255 255 255 255 255 255 255 255 255 255
255 255 255 255 255 255 255 255 255 255 255 255 255 255 255 255 255
255 255 255 255 255 255 255 255 255 255 255 255 255 255 255 255 255
255 255 255 255 255 255 255 255 255 255 255 255 255 255 255 255 255
255 255 255 255 255 255 255 255 255 255 255 255 255 255 255 255 255
255 255 255 255 255 255 255 255 255 255 255 255 255 255 255 255 255
255 255 255 255 255 255 255 255 255 255 255 255 255 255 255 255 255
255 255 255 255 255 255 255 255 255 255 255 255 255 255 255 255 255
255 255 255 255 255 255 255 255 255 255 255 255 255 255 255 255 255
255 255 255 255 255 255 255 255 255 255 255 255 255 255 255 255 255
255 255 255 255 255 255 255 255 255 255 255 255 255 255 255 255 255
255 255 255 255 255 255 255 255 255 255 255 255 255 255 255 255 255
255 255 255 255 255 255 255 255 255 255 255 255 255 255 255 255 255
255 255 255 255 255 255 255 255 255 255 255 255 255 255 255 255 255
255 255 255 255 255 255 255 255 255 255 255 255 255 255 255 255 255
255 255 255 255 255 255 255 255 255 255 255 255 255 255 255 255 255
255 255 255 255 255 255 255 255 255 255 255 255 255 255 255 255 255
255 255 255 255 255 255 255 255 255 255 255 255 255 255 255 255 255
255 255 255 255 255 255 255 255 255 255 255 255 255 255 255 255 255
255 255 255 255 255 255 255 255 255 255 255 255 255 255 255 255 255
255 255 255 255 255 255 255 255 255 255 255 255 255 255 255 255 255
255 255 255 255 255 255 255 255 255 255 255 255 255 255 255 255 255
255 255 255 255 255 255 255 255 255 255 255 255 255 255 255 255 255
255 255 255 255 255 255 255 255 255 255 255 255 255 255 255 255 255
255 255 255 255 255 255 255 255 255 255 255 255 255 255 255 255 255
255 255 255 255 255 255 255 255 255 255 255 255 255 255 255 255 255
255 255 255 255 255 255 255 255 255 255 255 255 255 255 255 255 255
255 255 255 255 255 255 255 255 255 255 255 255 255 255 255 255 255
255 255 255 255 255 255 255 255 255 255 255 255 255 255 255 255 255
255 255 255 255 255 255 255 255 255 255 255 255 255 255 255 255 255
255 255 255 255 255 255 255 255 255 255 255 255 255 255 255 255 255
255 255 255 255 255 255 255 255 255 255 255 255 255 255 255 255 255
255 255 255 255 255 255 255 255 255 255 255 255 255 255 255 255 255
255 255 255 255 255 255 255 255 255 255 255 255 255 255 255 255 255
255 255 255 255 255 255 255 255 255 255 255 255 255 255 255 255 255
255 255 255 255 255 255 255 255 255 255 255 255 255 255 255 255 255
255 255 255 255 255 255 255 255 255 255 255 255 255 255 255 255 255
255 255 255 255 255 255 255 255 255 255 255 255 255 255 255 255 255
255 255 255 255 255 255 255 255 255 255 255 255 255 255 255 255 255
255 255 255 255 255 255 255 255 255 255 255 255 255 255 255 255 255
255 255 255 255 255 255 255 255 255 255 255 255 255 255 255 255 255
255 255 255 255 255 255 255 255 255 255 255 255 255 255 255 255 255
255 255 255 255 255 255 255 255 255 255 255 255 255 255 255 255 255
255 255 255 255 255 255 255 255 255 255 255 255 255 255 255 255 255
255 255 255 255 255 255 255 255 255 255 255 255 255 255 255 255 255
255 255 255 255 255 255 255 255 255 255 255 255 255 255 255 255 255
255 255 255 255 255 255 255 255 255 255 255 255 255 255 255 255 255
255 255 255 255 255 255 255 255 255 255 255 255 255 255 255 255 255
255 255 255 255 255 255 255 255 255 255 255 255 255 255 255 255 255
255 255 255 255 255 255 255 255 255 255 255 255 255 255 255 255 255
255 255 255 255 255 255 255 255 255 255 255 255 255 255 255 255 255
255 255 255 255 255 255 255 255 255 255 255 255 255 255 255 255 255
255 255 255 255 255 255 255 255 255 255 255 255 255 255 255 255 255
255 255 255 255 255 255 255 255 255 255 255 255 255 255 255 255 255
255 255 255 255 255 255 255 255 255 255 255 255 255 255 255 255 255
255 255 255 255 255 255 255 255 255 255 255 255 255 255 255 255 255
255 255 255 255 255 255 255 255 255 255 255 255 255 255 255 255 255
255 255 255 255 255 255 255 255 255 255 255 255 255 255 255 255 255
255 255 255 255 255 255 255 255 255 255 255 255 255 255 255 255 255
255 255 255 255 255 255 255 255 255 255 255 255 255 255 255 255 255
255 255 255 255 255 255 255 255 255 255 255 255 255 255 255 255 255
255 255 255 255 255 255 255 255 255 255 255 255 255 255 255 255 255
255 255 255 255 255 255 255 255 255 255 255 255 255 255 255 255 255
255 255 255 255 255 255 255 255 255 255 255 255 255 255 255 255 255
255 255 255 255 255 255 255 255 255 255 255 255 255 255 255 255 255
255 255 255 255 255 255 255 255 255 255 255 255 255 255 255 255 255
255 255 255 255 255 255 255 255 255 255 255 255 255 255 255 255 255
255 255 255 255 255 255 255 255 255 255 255 255 255 255 255 255 255
255 255 255 255 255 255 255 255 255 255 255 255 255 255 255 255 255
255 255 255 255 255 255 255 255 255 255 255 255 255 255 255 255 255
255 255 255 255 255 255 255 255 255 255 255 255 255 255 255 255 255
255 255 255 255 255 255 255 255 255 255 255 255 255 255 255 255 255
255 255 255 255 255 255 255 255 255 255 255 255 255 255 255 255 255
255 255 255 255 255 255 255 255 255 255 255 255 255 255 255 255 255
255 255 255 255 255 255 255 255 255 255 255 255 255 255 255 255 255
255 255 255 255 255 255 255 255 255 255 255 255 255 255 255 255 255
255 255 255 255 255 255 255 255 255 255 255 255 255 255 255 255 255
255 255 255 255 255 255 255 255 255 255 255 255 255 255 255 255 255
255 255 255 255 255 255 255 255 255 255 255 255 255 255 255 255 255
255 255 255 255 255 255 255 255 255 255 255 255 255 255 255 255 255
255 255 255 255 255 255 255 255 255 255 255 255 255 255 255 255 255
255 255 255 255 255 255 255 255 255 255 255 255 255 255 255 255 255
255 255 255 255 255 255 255 255 255 255 255 255 255 255 255 255 255
255 255 255 255 255 255 255 255 255 255 255 255 255 255 255 255 255
255 255 255 255 255 255 255 255 255 255 255 255 255 255 255 255 255
255 255 255 255 255 255 255 255 255 255 255 255 255 255 255 255 255
255 255 255 255 255 255 255 255 255 255 255 255 255 255 255 255 255
255 255 255 255 255 255 255 255 255 255 255 255 255 255 255 255 255
255 255 255 255 255 255 255 255 255 255 255 255 255 255 255 255 255
255 255 255 255 255 255 255 255 255 255 255 255 255 255 255 255 255
255 255 255 255 255 255 255 255 255 255 255 255 255 255 255 255 255
255 255 255 255 255 255 255 255 255 255 255 255 255 255 255 255 255
255 255 255 255 255 255 255 255 255 255 255 255 255 255 255 255 255
255 255 255 255 255 255 255 255 255 255 255 255 255 255 255 255 255
255 255 255 255 255 255 255 255 255 255 255 255 255 255 255 255 255
255 255 255 255 255 255 255 255 255 255 255 255 255 255 255 255 255
255 255 255 255 255 255 255 255 255 255 255 255 255 255 255 255 255
255 255 255 255 255 255 255 255 255 255 255 255 255 255 255 255 255
255 255 255 255 255 255 255 255 255 255 255 255 255 255 255 255 255
255 255 255 255 255 255 255 255 255 255 255 255 255 255 255 255 255
255 255 255 255 255 255 255 255 255 255 255 255 255 255 255 255 255
255 255 255 255 255 255 255 255 255 255 255 255 255 255 255 255 255
255 255 255 255 255 255 255 255 255 255 255 255 255 255 255 255 255
255 255 255 255 255 255 255 255 255 255 255 255 255 255 255 255 255
255 255 255 255 255 255 255 255 255 255 255 255 255 255 255 255 255
255 255 255 255 255 255 255 255 255 255 255 255 255 255 255 255 255
255 255 255 255 255 255 255 255 255 255 255 255 255 255 255 255 255
255 255 255 255 255 255 255 255 255 255 255 255 255 255 255 255 255
255 255 255 255 255 255 255 255 255 255 255 255 255 255 255 255 255
255 255 255 255 255 255 255 255 255 255 255 255 255 255 255 255 255
255 255 255 255 255 255 255 255 255 255 255 255 255 255 255 255 255
255 255 255 255 255 255 255 255 255 255 255 255 255 255 255 255 255
255 255 255 255 255 255 255 255 255 255 255 255 255 255 255 255 255
255 255 255 255 255 255 255 255 255 255 255 255 255 255 255 255 255
255 255 255 255 255 255 255 255 255 255 255 255 255 255 255 255 255
255 255 255 255 255 255 255 255 255 255 255 255 255 255 255 255 255
255 255 255 255 255 255 255 255 255 255 255 255 255 255 255 255 255
255 255 255 255 255 255 255 255 255 255 255 255 255 255 255 255 255
255 255 255 255 255 255 255 255 255 255 255 255 255 255 255 255 255
255 255 255 255 255 255 255 255 255 255 255 255 255 255 255 255 255
255 255 255 255 255 255 255 255 255 255 255 255 255 255 255 255 255
255 255 255 255 255 255 255 255 255 255 255 255 255 255 255 255 255
255 255 255 255 255 255 255 255 255 255 255 255 255 255 255 255 255
255 255 255 255 255 255 255 255 255 255 255 255 255 255 255 255 255
255 255 255 255 255 255 255 255 255 255 255 255 255 255 255 255 255
255 255 255 255 255 255 255 255 255 255 255 255 255 255 255 255 255
255 255 255 255 255 255 255 255 255 255 255 255 255 255 255 255 255
255 255 255 255 255 255 255 255 255 255 255 255 255 255 255 255 255
255 255 255 255 255 255 255 255 255 255 255 255 255 255 255 255 255
255 255 255 255 255 255 255 255 255 255 255 255 255 255 255 255 255
255 255 255 255 255 255 255 255 255 255 255 255 255 255 255 255 255
255 255 255 255 255 255 255 255 255 255 255 255 255 255 255 255 255
255 255 255 255 255 255 255 255 255 255 255 255 255 255 255 255 255
255 255 255 255 255 255 255 255 255 255 255 255 255 255 255 255 255
255 255 255 255 255 255 255 255 255 255 255 255 255 255 255 255 255
255 255 255 255 255 255 255 255 255 255 255 255 255 255 255 255 255
255 255 255 255 255 255 255 255 255 255 255 255 255 255 255 255 255
255 255 255 255 255 255 255 255 255 255 255 255 255 255 255 255 255
255 255 255 255 255 255 255 255 255 255 255 255 255 255 255 255 255
255 255 255 255 255 255 255 255 255 255 255 255 255 255 255 255 255
255 255 255 255 255 255 255 255 255 255 255 255 255 255 255 255 255
255 255 255 255 255 255 255 255 255 255 255 255 255 255 255 255 255
255 255 255 255 255 255 255 255 255 255 255 255 255 255 255 255 255
255 255 255 255 255 255 255 255 255 255 255 255 255 255 255 255 255
255 255 255 255 255 255 255 255 255 255 255 255 255 255 255 255 255
255 255 255 255 255 255 255 255 255 255 255 255 255 255 255 255 255
255 255 255 255 255 255 255 255 255 255 255 255 255 255 255 255 255
255 255 255 255 255 255 255 255 255 255 255 255 255 255 255 255 255
255 255 255 255 255 255 255 255 255 255 255 255 255 255 255 255 255
255 255 255 255 255 255 255 255 255 255 255 255 255 255 255 255 255
255 255 255 255 255 255 255 255 255 255 255 255 255 255 255 255 255
255 255 255 255 255 255 255 255 255 255 255 255 255 255 255 255 255
255 255 255 255 255 255 255 255 255 255 255 255 255 255 255 255 255
255 255 255 255 255 255 255 255 255 255 255 255 255 255 255 255 255
255 255 255 255 255 255 255 255 255 255 255 255 255 255 255 255 255
255 255 255 255 255 255 255 255 255 255 255 255 255 255 255 255 255
255 255 255 255 255 255 255 255 255 255 255 255 255 255 255 255 255
255 255 255 255 255 255 255 255 255 255 255 255 255 255 255 255 255
255 255 255 255 255 255 255 255 255 255 255 255 255 255 255 255 255
255 255 255 255 255 255 255 255 255 255 255 255 255 255 255 255 255
255 255 255 255 255 255 255 255 255 255 255 255 255 255 255 255 255
255 255 255 255 255 255 255 255 255 255 255 255 255 255 255 255 255
255 255 255 255 255 255 255 255 255 255 255 255 255 255 255 255 255
255 255 255 255 255 255 255 255 255 255 255 255 255 255 255 255 255
255 255 255 255 255 255 255 255 255 255 255 255 255 255 255 255 255
255 255 255 255 255 255 255 255 255 255 255 255 255 255 255 255 255
255 255 255 255 255 255 255 255 255 255 255 255 255 255 255 255 255
255 255 255 255 255 255 255 255 255 255 255 255 255 255 255 255 255
255 255 255 255 255 255 255 255 255 255 255 255 255 255 255 255 255
255 255 255 255 255 255 255 255 255 255 255 255 255 255 255 255 255
255 255 255 255 255 255 255 255 255 255 255 255 255 255 255 255 255
255 255 255 255 255 255 255 255 255 255 255 255 255 255 255 255 255
255 255 255 255 255 255 255 255 255 255 255 255 255 255 255 255 255
255 255 255 255 255 255 255 255 255 255 255 255 255 255 255 255 255
255 255 255 255 255 255 255 255 255 255 255 255 255 255 255 255 255
255 255 255 255 255 255 255 255 255 255 255 255 255 255 255 255 255
255 255 255 255 255 255 255 255 255 255 255 255 255 255 255 255 255
255 255 255 255 255 255 255 255 255 255 255 255 255 255 255 255 255
255 255 255 255 255 255 255 255 255 255 255 255 255 255 255 255 255
255 255 255 255 255 255 255 255 255 255 255 255 255 255 255 255 255
255 255 255 255 255 255 255 255 255 255 255 255 255 255 255 255 255
255 255 255 255 255 255 255 255 255 255 255 255 255 255 255 255 255
255 255 255 255 255 255 255 255 255 255 255 255 255 255 255 255 255
255 255 255 255 255 255 255 255 255 255 255 255 255 255 255 255 255
255 255 255 255 255 255 255 255 255 255 255 255 255 255 255 255 255
255 255 255 255 255 255 255 255 255 255 255 255 255 255 255 255 255
255 255 255 255 255 255 255 255 255 255 255 255 255 255 255 255 255
255 255 255 255 255 255 255 255 255 255 255 255 255 255 255 255 255
255 255 255 255 255 255 255 255 255 255 255 255 255 255 255 255 255
255 255 255 255 255 255 255 255 255 255 255 255 255 255 255 255 255
255 255 255 255 255 255 255 255 255 255 255 255 255 255 255 255 255
255 255 255 255 255 255 255 255 255 255 255 255 255 255 255 255 255
255 255 255 255 255 255 255 255 255 255 255 255 255 255 255 255 255
255 255 255 255 255 255 255 255 255 255 255 255 255 255 255 255 255
255 255 255 255 255 255 255 255 255 255 255 255 255 255 255 255 255
255 255 255 255 255 255 255 255 255 255 255 255 255 255 255 255 255
255 255 255 255 255 255 255 255 255 255 255 255 255 255 255 255 255
255 255 255 255 255 255 255 255 255 255 255 255 255 255 255 255 255
255 255 255 255 255 255 255 255 255 255 255 255 255 255 255 255 255
255 255 255 255 255 255 255 255 255 255 255 255 255 255 255 255 255
255 255 255 255 255 255 255 255 255 255 255 255 255 255 255 255 255
255 255 255 255 255 255 255 255 255 255 255 255 255 255 255 255 255
255 255 255 255 255 255 255 255 255 255 255 255 255 255 255 255 255
255 255 255 255 255 255 255 255 255 255 255 255 255 255 255 255 255
255 255 255 255 255 255 255 255 255 255 255 255 255 255 255 255 255
255 255 255 255 255 255 255 255 255 255 255 255 255 255 255 255 255
255 255 255 255 255 255 255 255 255 255 255 255 255 255 255 255 255
255 255 255 255 255 255 255 255 255 255 255 255 255 255 255 255 255
255 255 255 255 255 255 255 255 255 255 255 255 255 255 255 255 255
255 255 255 255 255 255 255 255 255 255 255 255 255 255 255 255 255
255 255 255 255 255 255 255 255 255 255 255 255 255 255 255 255 255
255 255 255 255 255 255 255 255 255 255 255 255 255 255 255 255 255
255 255 255 255 255 255 255 255 255 255 255 255 255 255 255 255 255
255 255 255 255 255 255 255 255 255 255 255 255 255 255 255 255 255
255 255 255 255 255 255 255 255 255 255 255 255 255 255 255 255 255
255 255 255 255 255 255 255 255 255 255 255 255 255 255 255 255 255
255 255 255 255 255 255 255 255 255 255 255 255 255 255 255 255 255
255 255 255 255 255 255 255 255 255 255 255 255 255 255 255 255 255
255 255 255 255 255 255 255 255 255 255 255 255 255 255 255 255 255
255 255 255 255 255 255 255 255 255 255 255 255 255 255 255 255 255
255 255 255 255 255 255 255 255 255 255 255 255 255 255 255 255 255
255 255 255 255 255 255 255 255 255 255 255 255 255 255 255 255 255
255 255 255 255 255 255 255 255 255 255 255 255 255 255 255 255 255
255 255 255 255 255 255 255 255 255 255 255 255 255 255 255 255 255
255 255 255 255 255 255 255 255 255 255 255 255 255 255 255 255 255
255 255 255 255 255 255 255 255 255 255 255 255 255 255 255 255 255
255 255 255 255 255 255 255 255 255 255 255 255 255 255 255 255 255
255 255 255 255 255 255 255 255 255 255 255 255 255 255 255 255 255
255 255 255 255 255 255 255 255 255 255 255 255 255 255 255 255 255
255 255 255 255 255 255 255 255 255 255 255 255 255 255 255 255 255
255 255 255 255 255 255 255 255 255 255 255 255 255 255 255 255 255
255 255 255 255 255 255 255 255 255 255 255 255 255 255 255 255 255
255 255 255 255 255 255 255 255 255 255 255 255 255 255 255 255 255
255 255 255 255 255 255 255 255 255 255 255 255 255 255 255 255 255
255 255 255 255 255 255 255 255 255 255 255 255 255 255 255 255 255
255 255 255 255 255 255 255 255 255 255 255 255 255 255 255 255 255
255 255 255 255 255 255 255 255 255 255 255 255 255 255 255 255 255
255 255 255 255 255 255 255 255 255 255 255 255 255 255 255 255 255
255 255 255 255 255 255 255 255 255 255 255 255 255 255 255 255 255
255 255 255 255 255 255 255 255 255 255 255 255 255 255 255 255 255
255 255 255 255 255 255 255 255 255 255 255 255 255 255 255 255 255
255 255 255 255 255 255 255 255 255 255 255 255 255 255 255 255 255
255 255 255 255 255 255 255 255 255 255 255 255 255 255 255 255 255
255 255 255 255 255 255 255 255 255 255 255 255 255 255 255 255 255
255 255 255 255 255 255 255 255 255 255 255 255 255 255 255 255 255
255 255 255 255 255 255 255 255 255 255 255 255 255 255 255 255 255
255 255 255 255 255 255 255 255 255 255 255 255 255 255 255 255 255
255 255 255 255 255 255 255 255 255 255 255 255 255 255 255 255 255
255 255 255 255 255 255 255 255 255 255 255 255 255 255 255 255 255
255 255 255 255 255 255 255 255 255 255 255 255 255 255 255 255 255
255 255 255 255 255 255 255 255 255 255 255 255 255 255 255 255 255
255 255 255 255 255 255 255 255 255 255 255 255 255 255 255 255 255
255 255 255 255 255 255 255 255 255 255 255 255 255 255 255 255 255
255 255 255 255 255 255 255 255 255 255 255 255 255 255 255 255 255
255 255 255 255 255 255 255 255 255 255 255 255 255 255 255 255 255
255 255 255 255 255 255 255 255 255 255 255 255 255 255 255 255 255
255 255 255 255 255 255 255 255 255 255 255 255 255 255 255 255 255
255 255 255 255 255 255 255 255 255 255 255 255 255 255 255 255 255
255 255 255 255 255 255 255 255 255 255 255 255 255 255 255 255 255
255 255 255 255 255 255 255 255 255 255 255 255 255 255 255 255 255
255 255 255 255 255 255 255 255 255 255 255 255 255 255 255 255 255
255 255 255 255 255 255 255 255 255 255 255 255 255 255 255 255 255
255 255 255 255 255 255 255 255 255 255 255 255 255 255 255 255 255
255 255 255 255 255 255 255 255 255 255 255 255 255 255 255 255 255
255 255 255 255 255 255 255 255 255 255 255 255 255 255 255 255 255
255 255 255 255 255 255 255 255 255 255 255 255 255 255 255 255 255
255 255 255 255 255 255 255 255 255 255 255 255 255 255 255 255 255
255 255 255 255 255 255 255 255 255 255 255 255 255 255 255 255 255
255 255 255 255 255 255 255 255 255 255 255 255 255 255 255 255 255
255 255 255 255 255 255 255 255 255 255 255 255 255 255 255 255 255
255 255 255 255 255 255 255 255 255 255 255 255 255 255 255 255 255
255 255 255 255 255 255 255 255 255 255 255 255 255 255 255 255 255
255 255 255 255 255 255 255 255 255 255 255 255 255 255 255 255 255
255 255 255 255 255 255 255 255 255 255 255 255 255 255 255 255 255
255 255 255 255 255 255 255 255 255 255 255 255 255 255 255 255 255
255 255 255 255 255 255 255 255 255 255 255 255 255 255 255 255 255
255 255 255 255 255 255 255 255 255 255 255 255 255 255 255 255 255
255 255 255 255 255 255 255 255 255 255 255 255 255 255 255 255 255
255 255 255 255 255 255 255 255 255 255 255 255 255 255 255 255 255
255 255 255 255 255 255 255 255 255 255 255 255 255 255 255 255 255
255 255 255 255 255 255 255 255 255 255 255 255 255 255 255 255 255
255 255 255 255 255 255 255 255 255 255 255 255 255 255 255 255 255
255 255 255 255 255 255 255 255 255 255 255 255 255 255 255 255 255
255 255 255 255 255 255 255 255 255 255 255 255 255 255 255 255 255
255 255 255 255 255 255 255 255 255 255 255 255 255 255 255 255 255
255 255 255 255 255 255 255 255 255 255 255 255 255 255 255 255 255
255 255 255 255 255 255 255 255 255 255 255 255 255 255 255 255 255
255 255 255 255 255 255 255 255 255 255 255 255 255 255 255 255 255
255 255 255 255 255 255 255 255 255 255 255 255 255 255 255 255 255
255 255 255 255 255 255 255 255 255 255 255 255 255 255 255 255 255
255 255 255 255 255 255 255 255 255 255 255 255 255 255 255 255 255
255 255 255 255 255 255 255 255 255 255 255 255 255 255 255 255 255
255 255 255 255 255 255 255 255 255 255 255 255 255 255 255 255 255
255 255 255 255 255 255 255 255 255 255 255 255 255 255 255 255 255
255 255 255 255 255 255 255 255 255 255 255 255 255 255 255 255 255
255 255 255 255 255 255 255 255 255 255 255 255 255 255 255 255 255
255 255 255 255 255 255 255 255 255 255 255 255 255 255 255 255 255
255 255 255 255 255 255 255 255 255 255 255 255 255 255 255 255 255
255 255 255 255 255 255 255 255 255 255 255 255 255 255 255 255 255
255 255 255 255 255 255 255 255 255 255 255 255 255 255 255 255 255
255 255 255 255 255 255 255 255 255 255 255 255 255 255 255 255 255
255 255 255 255 255 255 255 255 255 255 255 255 255 255 255 255 255
255 255 255 255 255 255 255 255 255 255 255 255 255 255 255 255 255
255 255 255 255 255 255 255 255 255 255 255 255 255 255 255 255 255
255 255 255 255 255 255 255 255 255 255 255 255 255 255 255 255 255
255 255 255 255 255 255 255 255 255 255 255 255 255 255 255 255 255
255 255 255 255 255 255 255 255 255 255 255 255 255 255 255 255 255
255 255 255 255 255 255 255 255 255 255 255 255 255 255 255 255 255
255 255 255 255 255 255 255 255 255 255 255 255 255 255 255 255 255
255 255 255 255 255 255 255 255 255 255 255 255 255 255 255 255 255
255 255 255 255 255 255 255 255 255 255 255 255 255 255 255 255 255
255 255 255 255 255 255 255 255 255 255 255 255 255 255 255 255 255
255 255 255 255 255 255 255 255 255 255 255 255 255 255 255 255 255
255 255 255 255 255 255 255 255 255 255 255 255 255 255 255 255 255
255 255 255 255 255 255 255 255 255 255 255 255 255 255 255 255 255
255 255 255 255 255 255 255 255 255 255 255 255 255 255 255 255 255
255 255 255 255 255 255 255 255 255 255 255 255 255 255 255 255 255
255 255 255 255 255 255 255 255 255 255 255 255 255 255 255 255 255
255 255 255 255 255 255 255 255 255 255 255 255 255 255 255 255 255
255 255 255 255 255 255 255 255 255 255 255 255 255 255 255 255 255
255 255 255 255 255 255 255 255 255 255 255 255 255 255 255 255 255
255 255 255 255 255 255 255 255 255 255 255 255 255 255 255 255 255
255 255 255 255 255 255 255 255 255 255 255 255 255 255 255 255 255
255 255 255 255 255 255 255 255 255 255 255 255 255 255 255 255 255
255 255 255 255 255 255 255 255 255 255 255 255 255 255 255 255 255
255 255 255 255 255 255 255 255 255 255 255 255 255 255 255 255 255
255 255 255 255 255 255 255 255 255 255 255 255 255 255 255 255 255
255 255 255 255 255 255 255 255 255 255 255 255 255 255 255 255 255
255 255 255 255 255 255 255 255 255 255 255 255 255 255 255 255 255
255 255 255 255 255 255 255 255 255 255 255 255 255 255 255 255 255
255 255 255 255 255 255 255 255 255 255 255 255 255 255 255 255 255
255 255 255 255 255 255 255 255 255 255 255 255 255 255 255 255 255
255 255 255 255 255 255 255 255 255 255 255 255 255 255 255 255 255
255 255 255 255 255 255 255 255 255 255 255 255 255 255 255 255 255
255 255 255 255 255 255 255 255 255 255 255 255 255 255 255 255 255
255 255 255 255 255 255 255 255 255 255 255 255 255 255 255 255 255
255 255 255 255 255 255 255 255 255 255 255 255 255 255 255 255 255
255 255 255 255 255 255 255 255 255 255 255 255 255 255 255 255 255
255 255 255 255 255 255 255 255 255 255 255 255 255 255 255 255 255
255 255 255 255 255 255 255 255 255 255 255 255 255 255 255 255 255
255 255 255 255 255 255 255 255 255 255 255 255 255 255 255 255 255
255 255 255 255 255 255 255 255 255 255 255 255 255 255 255 255 255
255 255 255 255 255 255 255 255 255 255 255 255 255 255 255 255 255
255 255 255 255 255 255 255 255 255 255 255 255 255 255 255 255 255
255 255 255 255 255 255 255 255 255 255 255 255 255 255 255 255 255
255 255 255 255 255 255 255 255 255 255 255 255 255 255 255 255 255
255 255 255 255 255 255 255 255 255 255 255 255 255 255 255 255 255
255 255 255 255 255 255 255 255 255 255 255 255 255 255 255 255 255
255 255 255 255 255 255 255 255 255 255 255 255 255 255 255 255 255
255 255 255 255 255 255 255 255 255 255 255 255 255 255 255 255 255
255 255 255 255 255 255 255 255 255 255 255 255 255 255 255 255 255
255 255 255 255 255 255 255 255 255 255 255 255 255 255 255 255 255
255 255 255 255 255 255 255 255 255 255 255 255 255 255 255 255 255
255 255 255 255 255 255 255 255 255 255 255 255 255 255 255 255 255
255 255 255 255 255 255 255 255 255 255 255 255 255 255 255 255 255
255 255 255 255 255 255 255 255 255 255 255 255 255 255 255 255 255
255 255 255 255 255 255 255 255 255 255 255 255 255 255 255 255 255
255 255 255 255 255 255 255 255 255 255 255 255 255 255 255 255 255
255 255 255 255 255 255 255 255 255 255 255 255 255 255 255 255 255
255 255 255 255 255 255 255 255 255 255 255 255 255 255 255 255 255
255 255 255 255 255 255 255 255 255 255 255 255 255 255 255 255 255
255 255 255 255 255 255 255 255 255 255 255 255 255 255 255 255 255
255 255 255 255 255 255 255 255 255 255 255 255 255 255 255 255 255
255 255 255 255 255 255 255 255 255 255 255 255 255 255 255 255 255
255 255 255 255 255 255 255 255 255 255 255 255 255 255 255 255 255
255 255 255 255 255 255 255 255 255 255 255 255 255 255 255 255 255
255 255 255 255 255 255 255 255 255 255 255 255 255 255 255 255 255
255 255 255 255 255 255 255 255 255 255 255 255 255 255 255 255 255
255 255 255 255 255 255 255 255 255 255 255 255 255 255 255 255 255
255 255 255 255 255 255 255 255 255 255 255 255 255 255 255 255 255
255 255 255 255 255 255 255 255 255 255 255 255 255 255 255 255 255
255 255 255 255 255 255 255 255 255 255 255 255 255 255 255 255 255
255 255 255 255 255 255 255 255 255 255 255 255 255 255 255 255 255
255 255 255 255 255 255 255 255 255 255 255 255 255 255 255 255 255
255 255 255 255 255 255 255 255 255 255 255 255 255 255 255 255 255
255 255 255 255 255 255 255 255 255 255 255 255 255 255 255 255 255
255 255 255 255 255 255 255 255 255 255 255 255 255 255 255 255 255
255 255 255 255 255 255 255 255 255 255 255 255 255 255 255 255 255
255 255 255 255 255 255 255 255 255 255 255 255 255 255 255 255 255
255 255 255 255 255 255 255 255 255 255 255 255 255 255 255 255 255
255 255 255 255 255 255 255 255 255 255 255 255 255 255 255 255 255
255 255 255 255 255 255 255 255 255 255 255 255 255 255 255 255 255
255 255 255 255 255 255 255 255 255 255 255 255 255 255 255 255 255
255 255 255 255 255 255 255 255 255 255 255 255 255 255 255 255 255
255 255 255 255 255 255 255 255 255 255 255 255 255 255 255 255 255
255 255 255 255 255 255 255 255 255 255 255 255 255 255 255 255 255
255 255 255 255 255 255 255 255 255 255 255 255 255 255 255 255 255
255 255 255 255 255 255 255 255 255 255 255 255 255 255 255 255 255
255 255 255 255 255 255 255 255 255 255 255 255 255 255 255 255 255
255 255 255 255 255 255 255 255 255 255 255 255 255 255 255 255 255
255 255 255 255 255 255 255 255 255 255 255 255 255 255 255 255 255
255 255 255 255 255 255 255 255 255 255 255 255 255 255 255 255 255
255 255 255 255 255 255 255 255 255 255 255 255 255 255 255 255 255
255 255 255 255 255 255 255 255 255 255 255 255 255 255 255 255 255
255 255 255 255 255 255 255 255 255 255 255 255 255 255 255 255 255
255 255 255 255 255 255 255 255 255 255 255 255 255 255 255 255 255
255 255 255 255 255 255 255 255 255 255 255 255 255 255 255 255 255
255 255 255 255 255 255 255 255 255 255 255 255 255 255 255 255 255
255 255 255 255 255 255 255 255 255 255 255 255 255 255 255 255 255
255 255 255 255 255 255 255 255 255 255 255 255 255 255 255 255 255
255 255 255 255 255 255 255 255 255 255 255 255 255 255 255 255 255
255 255 255 255 255 255 255 255 255 255 255 255 255 255 255 255 255
255 255 255 255 255 255 255 255 255 255 255 255 255 255 255 255 255
255 255 255 255 255 255 255 255 255 255 255 255 255 255 255 255 255
255 255 255 255 255 255 255 255 255 255 255 255 255 255 255 255 255
255 255 255 255 255 255 255 255 255 255 255 255 255 255 255 255 255
255 255 255 255 255 255 255 255 255 255 255 255 255 255 255 255 255
255 255 255 255 255 255 255 255 255 255 255 255 255 255 255 255 255
255 255 255 255 255 255 255 255 255 255 255 255 255 255 255 255 255
255 255 255 255 255 255 255 255 255 255 255 255 255 255 255 255 255
255 255 255 255 255 255 255 255 255 255 255 255 255 255 255 255 255
255 255 255 255 255 255 255 255 255 255 255 255 255 255 255 255 255
255 255 255 255 255 255 255 255 255 255 255 255 255 255 255 255 255
255 255 255 255 255 255 255 255 255 255 255 255 255 255 255 255 255
255 255 255 255 255 255 255 255 255 255 255 255 255 255 255 255 255
255 255 255 255 255 255 255 255 255 255 255 255 255 255 255 255 255
255 255 255 255 255 255 255 255 255 255 255 255 255 255 255 255 255
255 255 255 255 255 255 255 255 255 255 255 255 255 255 255 255 255
255 255 255 255 255 255 255 255 255 255 255 255 255 255 255 255 255
255 255 255 255 255 255 255 255 255 255 255 255 255 255 255 255 255
255 255 255 255 255 255 255 255 255 255 255 255 255 255 255 255 255
255 255 255 255 255 255 255 255 255 255 255 255 255 255 255 255 255
255 255 255 255 255 255 255 255 255 255 255 255 255 255 255 255 255
255 255 255 255 255 255 255 255 255 255 255 255 255 255 255 255 255
255 255 255 255 255 255 255 255 255 255 255 255 255 255 255 255 255
255 255 255 255 255 255 255 255 255 255 255 255 255 255 255 255 255
255 255 255 255 255 255 255 255 255 255 255 255 255 255 255 255 255
255 255 255 255 255 255 255 255 255 255 255 255 255 255 255 255 255
255 255 255 255 255 255 255 255 255 255 255 255 255 255 255 255 255
255 255 255 255 255 255 255 255 255 255 255 255 255 255 255 255 255
255 255 255 255 255 255 255 255 255 255 255 255 255 255 255 255 255
255 255 255 255 255 255 255 255 255 255 255 255 255 255 255 255 255
255 255 255 255 255 255 255 255 255 255 255 255 255 255 255 255 255
255 255 255 255 255 255 255 255 255 255 255 255 255 255 255 255 255
255 255 255 255 255 255 255 255 255 255 255 255 255 255 255 255 255
255 255 255 255 255 255 255 255 255 255 255 255 255 255 255 255 255
255 255 255 255 255 255 255 255 255 255 255 255 255 255 255 255 255
255 255 255 255 255 255 255 255 255 255 255 255 255 255 255 255 255
255 255 255 255 255 255 255 255 255 255 255 255 255 255 255 255 255
255 255 255 255 255 255 255 255 255 255 255 255 255 255 255 255 255
255 255 255 255 255 255 255 255 255 255 255 255 255 255 255 255 255
255 255 255 255 255 255 255 255 255 255 255 255 255 255 255 255 255
255 255 255 255 255 255 255 255 255 255 255 255 255 255 255 255 255
255 255 255 255 255 255 255 255 255 255 255 255 255 255 255 255 255
255 255 255 255 255 255 255 255 255 255 255 255 255 255 255 255 255
255 255 255 255 255 255 255 255 255 255 255 255 255 255 255 255 255
255 255 255 255 255 255 255 255 255 255 255 255 255 255 255 255 255
255 255 255 255 255 255 255 255 255 255 255 255 255 255 255 255 255
255 255 255 255 255 255 255 255 255 255 255 255 255 255 255 255 255
255 255 255 255 255 255 255 255 255 255 255 255 255 255 255 255 255
255 255 255 255 255 255 255 255 255 255 255 255 255 255 255 255 255
255 255 255 255 255 255 255 255 255 255 255 255 255 255 255 255 255
255 255 255 255 255 255 255 255 255 255 255 255 255 255 255 255 255
255 255 255 255 255 255 255 255 255 255 255 255 255 255 255 255 255
255 255 255 255 255 255 255 255 255 255 255 255 255 255 255 255 255
255 255 255 255 255 255 255 255 255 255 255 255 255 255 255 255 255
255 255 255 255 255 255 255 255 255 255 255 255 255 255 255 255 255
255 255 255 255 255 255 255 255 255 255 255 255 255 255 255 255 255
255 255 255 255 255 255 255 255 255 255 255 255 255 255 255 255 255
255 255 255 255 255 255 255 255 255 255 255 255 255 255 255 255 255
255 255 255 255 255 255 255 255 255 255 255 255 255 255 255 255 255
255 255 255 255 255 255 255 255 255 255 255 255 255 255 255 255 255
255 255 255 255 255 255 255 255 255 255 255 255 255 255 255 255 255
255 255 255 255 255 255 255 255 255 255 255 255 255 255 255 255 255
255 255 255 255 255 255 255 255 255 255 255 255 255 255 255 255 255
255 255 255 255 255 255 255 255 255 255 255 255 255 255 255 255 255
255 255 255 255 255 255 255 255 255 255 255 255 255 255 255 255 255
255 255 255 255 255 255 255 255 255 255 255 255 255 255 255 255 255
255 255 255 255 255 255 255 255 255 255 255 255 255 255 255 255 255
255 255 255 255 255 255 255 255 255 255 255 255 255 255 255 255 255
255 255 255 255 255 255 255 255 255 255 255 255 255 255 255 255 255
255 255 255 255 255 255 255 255 255 255 255 255 255 255 255 255 255
255 255 255 255 255 255 255 255 255 255 255 255 255 255 255 255 255
255 255 255 255 255 255 255 255 255 255 255 255 255 255 255 255 255
255 255 255 255 255 255 255 255 255 255 255 255 255 255 255 255 255
255 255 255 255 255 255 255 255 255 255 255 255 255 255 255 255 255
255 255 255 255 255 255 255 255 255 255 255 255 255 255 255 255 255
255 255 255 255 255 255 255 255 255 255 255 255 255 255 255 255 255
255 255 255 255 255 255 255 255 255 255 255 255 255 255 255 255 255
255 255 255 255 255 255 255 255 255 255 255 255 255 255 255 255 255
255 255 255 255 255 255 255 255 255 255 255 255 255 255 255 255 255
255 255 255 255 255 255 255 255 255 255 255 255 255 255 255 255 255
255 255 255 255 255 255 255 255 255 255 255 255 255 255 255 255 255
255 255 255 255 255 255 255 255 255 255 255 255 255 255 255 255 255
255 255 255 255 255 255 255 255 255 255 255 255 255 255 255 255 255
255 255 255 255 255 255 255 255 255 255 255 255 255 255 255 255 255
255 255 255 255 255 255 255 255 255 255 255 255 255 255 255 255 255
255 255 255 255 255 255 255 255 255 255 255 255 255 255 255 255 255
255 255 255 255 255 255 255 255 255 255 255 255 255 255 255 255 255
255 255 255 255 255 255 255 255 255 255 255 255 255 255 255 255 255
255 255 255 255 255 255 255 255 255 255 255 255 255 255 255 255 255
255 255 255 255 255 255 255 255 255 255 255 255 255 255 255 255 255
255 255 255 255 255 255 255 255 255 255 255 255 255 255 255 255 255
255 255 255 255 255 255 255 255 255 255 255 255 255 255 255 255 255
255 255 255 255 255 255 255 255 255 255 255 255 255 255 255 255 255
255 255 255 255 255 255 255 255 255 255 255 255 255 255 255 255 255
255 255 255 255 255 255 255 255 255 255 255 255 255 255 255 255 255
255 255 255 255 255 255 255 255 255 255 255 255 255 255 255 255 255
255 255 255 255 255 255 255 255 255 255 255 255 255 255 255 255 255
255 255 255 255 255 255 255 255 255 255 255 255 255 255 255 255 255
255 255 255 255 255 255 255 255 255 255 255 255 255 255 255 255 255
255 255 255 255 255 255 255 255 255 255 255 255 255 255 255 255 255
255 255 255 255 255 255 255 255 255 255 255 255 255 255 255 255 255
255 255 255 255 255 255 255 255 255 255 255 255 255 255 255 255 255
255 255 255 255 255 255 255 255 255 255 255 255 255 255 255 255 255
255 255 255 255 255 255 255 255 255 255 255 255 255 255 255 255 255
255 255 255 255 255 255 255 255 255 255 255 255 255 255 255 255 255
255 255 255 255 255 255 255 255 255 255 255 255 255 255 255 255 255
255 255 255 255 255 255 255 255 255 255 255 255 255 255 255 255 255
255 255 255 255 255 255 255 255 255 255 255 255 255 255 255 255 255
255 255 255 255 255 255 255 255 255 255 255 255 255 255 255 255 255
255 255 255 255 255 255 255 255 255 255 255 255 255 255 255 255 255
255 255 255 255 255 255 255 255 255 255 255 255 255 255 255 255 255
255 255 255 255 255 255 255 255 255 255 255 255 255 255 255 255 255
255 255 255 255 255 255 255 255 255 255 255 255 255 255 255 255 255
255 255 255 255 255 255 255 255 255 255 255 255 255 255 255 255 255
255 255 255 255 255 255 255 255 255 255 255 255 255 255 255 255 255
255 255 255 255 255 255 255 255 255 255 255 255 255 255 255 255 255
255 255 255 255 255 255 255 255 255 255 255 255 255 255 255 255 255
255 255 255 255 255 255 255 255 255 255 255 255 255 255 255 255 255
255 255 255 255 255 255 255 255 255 255 255 255 255 255 255 255 255
255 255 255 255 255 255 255 255 255 255 255 255 255 255 255 255 255
255 255 255 255 255 255 255 255 255 255 255 255 255 255 255 255 255
255 255 255 255 255 255 255 255 255 255 255 255 255 255 255 255 255
255 255 255 255 255 255 255 255 255 255 255 255 255 255 255 255 255
255 255 255 255 255 255 255 255 255 255 255 255 255 255 255 255 255
255 255 255 255 255 255 255 255 255 255 255 255 255 255 255 255 255
255 255 255 255 255 255 255 255 255 255 255 255 255 255 255 255 255
255 255 255 255 255 255 255 255 255 255 255 255 255 255 255 255 255
255 255 255 255 255 255 255 255 255 255 255 255 255 255 255 255 255
255 255 255 255 255 255 255 255 255 255 255 255 255 255 255 255 255
255 255 255 255 255 255 255 255 255 255 255 255 255 255 255 255 255
255 255 255 255 255 255 255 255 255 255 255 255 255 255 255 255 255
255 255 255 255 255 255 255 255 255 255 255 255 255 255 255 255 255
255 255 255 255 255 255 255 255 255 255 255 255 255 255 255 255 255
255 255 255 255 255 255 255 255 255 255 255 255 255 255 255 255 255
255 255 255 255 255 255 255 255 255 255 255 255 255 255 255 255 255
255 255 255 255 255 255 255 255 255 255 255 255 255 255 255 255 255
255 255 255 255 255 255 255 255 255 255 255 255 255 255 255 255 255
255 255 255 255 255 255 255 255 255 255 255 255 255 255 255 255 255
255 255 255 255 255 255 255 255 255 255 255 255 255 255 255 255 255
255 255 255 255 255 255 255 255 255 255 255 255 255 255 255 255 255
255 255 255 255 255 255 255 255 255 255 255 255 255 255 255 255 255
255 255 255 255 255 255 255 255 255 255 255 255 255 255 255 255 255
255 255 255 255 255 255 255 255 255 255 255 255 255 255 255 255 255
255 255 255 255 255 255 255 255 255 255 255 255 255 255 255 255 255
255 255 255 255 255 255 255 255 255 255 255 255 255 255 255 255 255
255 255 255 255 255 255 255 255 255 255 255 255 255 255 255 255 255
255 255 255 255 255 255 255 255 255 255 255 255 255 255 255 255 255
255 255 255 255 255 255 255 255 255 255 255 255 255 255 255 255 255
255 255 255 255 255 255 255 255 255 255 255 255 255 255 255 255 255
255 255 255 255 255 255 255 255 255 255 255 255 255 255 255 255 255
255 255 255 255 255 255 255 255 255 255 255 255 255 255 255 255 255
255 255 255 255 255 255 255 255 255 255 255 255 255 255 255 255 255
255 255 255 255 255 255 255 255 255 255 255 255 255 255 255 255 255
255 255 255 255 255 255 255 255 255 255 255 255 255 255 255 255 255
255 255 255 255 255 255 255 255 255 255 255 255 255 255 255 255 255
255 255 255 255 255 255 255 255 255 255 255 255 255 255 255 255 255
255 255 255 255 255 255 255 255 255 255 255 255 255 255 255 255 255
255 255 255 255 255 255 255 255 255 255 255 255 255 255 255 255 255
255 255 255 255 255 255 255 255 255 255 255 255 255 255 255 255 255
255 255 255 255 255 255 255 255 255 255 255 255 255 255 255 255 255
255 255 255 255 255 255 255 255 255 255 255 255 255 255 255 255 255
255 255 255 255 255 255 255 255 255 255 255 255 255 255 255 255 255
255 255 255 255 255 255 255 255 255 255 255 255 255 255 255 255 255
255 255 255 255 255 255 255 255 255 255 255 255 255 255 255 255 255
255 255 255 255 255 255 255 255 255 255 255 255 255 255 255 255 255
255 255 255 255 255 255 255 255 255 255 255 255 255 255 255 255 255
255 255 255 255 255 255 255 255 255 255 255 255 255 255 255 255 255
255 255 255 255 255 255 255 255 255 255 255 255 255 255 255 255 255
255 255 255 255 255 255 255 255 255 255 255 255 255 255 255 255 255
255 255 255 255 255 255 255 255 255 255 255 255 255 255 255 255 255
255 255 255 255 255 255 255 255 255 255 255 255 255 255 255 255 255
255 255 255 255 255 255 255 255 255 255 255 255 255 255 255 255 255
255 255 255 255 255 255 255 255 255 255 255 255 255 255 255 255 255
255 255 255 255 255 255 255 255 255 255 255 255 255 255 255 255 255
255 255 255 255 255 255 255 255 255 255 255 255 255 255 255 255 255
255 255 255 255 255 255 255 255 255 255 255 255 255 255 255 255 255
255 255 255 255 255 255 255 255 255 255 255 255 255 255 255 255 255
255 255 255 255 255 255 255 255 255 255 255 255 255 255 255 255 255
255 255 255 255 255 255 255 255 255 255 255 255 255 255 255 255 255
255 255 255 255 255 255 255 255 255 255 255 255 255 255 255 255 255
255 255 255 255 255 255 255 255 255 255 255 255 255 255 255 255 255
255 255 255 255 255 255 255 255 255 255 255 255 255 255 255 255 255
255 255 255 255 255 255 255 255 255 255 255 255 255 255 255 255 255
255 255 255 255 255 255 255 255 255 255 255 255 255 255 255 255 255
255 255 255 255 255 255 255 255 255 255 255 255 255 255 255 255 255
255 255 255 255 255 255 255 255 255 255 255 255 255 255 255 255 255
255 255 255 255 255 255 255 255 255 255 255 255 255 255 255 255 255
255 255 255 255 255 255 255 255 255 255 255 255 255 255 255 255 255
255 255 255 255 255 255 255 255 255 255 255 255 255 255 255 255 255
255 255 255 255 255 255 255 255 255 255 255 255 255 255 255 255 255
255 255 255 255 255 255 255 255 255 255 255 255 255 255 255 255 255
255 255 255 255 255 255 255 255 255 255 255 255 255 255 255 255 255
255 255 255 255 255 255 255 255 255 255 255 255 255 255 255 255 255
255 255 255 255 255 255 255 255 255 255 255 255 255 255 255 255 255
255 255 255 255 255 255 255 255 255 255 255 255 255 255 255 255 255
255 255 255 255 255 255 255 255 255 255 255 255 255 255 255 255 255
255 255 255 255 255 255 255 255 255 255 255 255 255 255 255 255 255
255 255 255 255 255 255 255 255 255 255 255 255 255 255 255 255 255
255 255 255 255 255 255 255 255 255 255 255 255 255 255 255 255 255
255 255 255 255 255 255 255 255 255 255 255 255 255 255 255 255 255
255 255 255 255 255 255 255 255 255 255 255 255 255 255 255 255 255
255 255 255 255 255 255 255 255 255 255 255 255 255 255 255 255 255
255 255 255 255 255 255 255 255 255 255 255 255 255 255 255 255 255
255 255 255 255 255 255 255 255 255 255 255 255 255 255 255 255 255
255 255 255 255 255 255 255 255 255 255 255 255 255 255 255 255 255
255 255 255 255 255 255 255 255 255 255 255 255 255 255 255 255 255
255 255 255 255 255 255 255 255 255 255 255 255 255 255 255 255 255
255 255 255 255 255 255 255 255 255 255 255 255 255 255 255 255 255
255 255 255 255 255 255 255 255 255 255 255 255 255 255 255 255 255
255 255 255 255 255 255 255 255 255 255 255 255 255 255 255 255 255
255 255 255 255 255 255 255 255 255 255 255 255 255 255 255 255 255
255 255 255 255 255 255 255 255 255 255 255 255 255 255 255 255 255
255 255 255 255 255 255 255 255 255 255 255 255 255 255 255 255 255
255 255 255 255 255 255 255 255 255 255 255 255 255 255 255 255 255
255 255 255 255 255 255 255 255 255 255 255 255 255 255 255 255 255
255 255 255 255 255 255 255 255 255 255 255 255 255 255 255 255 255
255 255 255 255 255 255 255 255 255 255 255 255 255 255 255 255 255
255 255 255 255 255 255 255 255 255 255 255 255 255 255 255 255 255
255 255 255 255 255 255 255 255 255 255 255 255 255 255 255 255 255
255 255 255 255 255 255 255 255 255 255 255 255 255 255 255 255 255
255 255 255 255 255 255 255 255 255 255 255 255 255 255 255 255 255
255 255 255 255 255 255 255 255 255 255 255 255 255 255 255 255 255
255 255 255 255 255 255 255 255 255 255 255 255 255 255 255 255 255
255 255 255 255 255 255 255 255 255 255 255 255 255 255 255 255 255
255 255 255 255 255 255 255 255 255 255 255 255 255 255 255 255 255
255 255 255 255 255 255 255 255 255 255 255 255 255 255 255 255 255
255 255 255 255 255 255 255 255 255 255 255 255 255 255 255 255 255
255 255 255 255 255 255 255 255 255 255 255 255 255 255 255 255 255
255 255 255 255 255 255 255 255 255 255 255 255 255 255 255 255 255
255 255 255 255 255 255 255 255 255 255 255 255 255 255 255 255 255
255 255 255 255 255 255 255 255 255 255 255 255 255 255 255 255 255
255 255 255 255 255 255 255 255 255 255 255 255 255 255 255 255 255
255 255 255 255 255 255 255 255 255 255 255 255 255 255 255 255 255
255 255 255 255 255 255 255 255 255 255 255 255 255 255 255 255 255
255 255 255 255 255 255 255 255 255 255 255 255 255 255 255 255 255
255 255 255 255 255 255 255 255 255 255 255 255 255 255 255 255 255
255 255 255 255 255 255 255 255 255 255 255 255 255 255 255 255 255
255 255 255 255 255 255 255 255 255 255 255 255 255 255 255 255 255
255 255 255 255 255 255 255 255 255 255 255 255 255 255 255 255 255
255 255 255 255 255 255 255 255 255 255 255 255 255 255 255 255 255
255 255 255 255 255 255 255 255 255 255 255 255 255 255 255 255 255
255 255 255 255 255 255 255 255 255 255 255 255 255 255 255 255 255
255 255 255 255 255 255 255 255 255 255 255 255 255 255 255 255 255
255 255 255 255 255 255 255 255 255 255 255 255 255 255 255 255 255
255 255 255 255 255 255 255 255 255 255 255 255 255 255 255 255 255
255 255 255 255 255 255 255 255 255 255 255 255 255 255 255 255 255
255 255 255 255 255 255 255 255 255 255 255 255 255 255 255 255 255
255 255 255 255 255 255 255 255 255 255 255 255 255 255 255 255 255
255 255 255 255 255 255 255 255 255 255 255 255 255 255 255 255 255
255 255 255 255 255 255 255 255 255 255 255 255 255 255 255 255 255
255 255 255 255 255 255 255 255 255 255 255 255 255 255 255 255 255
255 255 255 255 255 255 255 255 255 255 255 255 255 255 255 255 255
255 255 255 255 255 255 255 255 255 255 255 255 255 255 255 255 255
255 255 255 255 255 255 255 255 255 255 255 255 255 255 255 255 255
255 255 255 255 255 255 255 255 255 255 255 255 255 255 255 255 255
255 255 255 255 255 255 255 255 255 255 255 255 255 255 255 255 255
255 255 255 255 255 255 255 255 255 255 255 255 255 255 255 255 255
255 255 255 255 255 255 255 255 255 255 255 255 255 255 255 255 255
255 255 255 255 255 255 255 255 255 255 255 255 255 255 255 255 255
255 255 255 255 255 255 255 255 255 255 255 255 255 255 255 255 255
255 255 255 255 255 255 255 255 255 255 255 255 255 255 255 255 255
255 255 255 255 255 255 255 255 255 255 255 255 255 255 255 255 255
255 255 255 255 255 255 255 255 255 255 255 255 255 255 255 255 255
255 255 255 255 255 255 255 255 255 255 255 255 255 255 255 255 255
255 255 255 255 255 255 255 255 255 255 255 255 255 255 255 255 255
255 255 255 255 255 255 255 255 255 255 255 255 255 255 255 255 255
255 255 255 255 255 255 255 255 255 255 255 255 255 255 255 255 255
255 255 255 255 255 255 255 255 255 255 255 255 255 255 255 255 255
255 255 255 255 255 255 255 255 255 255 255 255 255 255 255 255 255
255 255 255 255 255 255 255 255 255 255 255 255 255 255 255 255 255
255 255 255 255 255 255 255 255 255 255 255 255 255 255 255 255 255
255 255 255 255 255 255 255 255 255 255 255 255 255 255 255 255 255
255 255 255 255 255 255 255 255 255 255 255 255 255 255 255 255 255
255 255 255 255 255 255 255 255 255 255 255 255 255 255 255 255 255
255 255 255 255 255 255 255 255 255 255 255 255 255 255 255 255 255
255 255 255 255 255 255 255 255 255 255 255 255 255 255 255 255 255
255 255 255 255 255 255 255 255 255 255 255 255 255 255 255 255 255
255 255 255 255 255 255 255 255 255 255 255 255 255 255 255 255 255
255 255 255 255 255 255 255 255 255 255 255 255 255 255 255 255 255
255 255 255 255 255 255 255 255 255 255 255 255 255 255 255 255 255
255 255 255 255 255 255 255 255 255 255 255 255 255 255 255 255 255
255 255 255 255 255 255 255 255 255 255 255 255 255 255 255 255 255
255 255 255 255 255 255 255 255 255 255 255 255 255 255 255 255 255
255 255 255 255 255 255 255 255 255 255 255 255 255 255 255 255 255
255 255 255 255 255 255 255 255 255 255 255 255 255 255 255 255 255
255 255 255 255 255 255 255 255 255 255 255 255 255 255 255 255 255
255 255 255 255 255 255 255 255 255 255 255 255 255 255 255 255 255
255 255 255 255 255 255 255 255 255 255 255 255 255 255 255 255 255
255 255 255 255 255 255 255 255 255 255 255 255 255 255 255 255 255
255 255 255 255 255 255 255 255 255 255 255 255 255 255 255 255 255
255 255 255 255 255 255 255 255 255 255 255 255 255 255 255 255 255
255 255 255 255 255 255 255 255 255 255 255 255 255 255 255 255 255
255 255 255 255 255 255 255 255 255 255 255 255 255 255 255 255 255
255 255 255 255 255 255 255 255 255 255 255 255 255 255 255 255 255
255 255 255 255 255 255 255 255 255 255 255 255 255 255 255 255 255
255 255 255 255 255 255 255 255 255 255 255 255 255 255 255 255 255
255 255 255 255 255 255 255 255 255 255 255 255 255 255 255 255 255
255 255 255 255 255 255 255 255 255 255 255 255 255 255 255 255 255
255 255 255 255 255 255 255 255 255 255 255 255 255 255 255 255 255
255 255 255 255 255 255 255 255 255 255 255 255 255 255 255 255 255
255 255 255 255 255 255 255 255 255 255 255 255 255 255 255 255 255
255 255 255 255 255 255 255 255 255 255 255 255 255 255 255 255 255
255 255 255 255 255 255 255 255 255 255 255 255 255 255 255 255 255
255 255 255 255 255 255 255 255 255 255 255 255 255 255 255 255 255
255 255 255 255 255 255 255 255 255 255 255 255 255 255 255 255 255
255 255 255 255 255 255 255 255 255 255 255 255 255 255 255 255 255
255 255 255 255 255 255 255 255 255 255 255 255 255 255 255 255 255
255 255 255 255 255 255 255 255 255 255 255 255 255 255 255 255 255
255 255 255 255 255 255 255 255 255 255 255 255 255 255 255 255 255
255 255 255 255 255 255 255 255 255 255 255 255 255 255 255 255 255
255 255 255 255 255 255 255 255 255 255 255 255 255 255 255 255 255
255 255 255 255 255 255 255 255 255 255 255 255 255 255 255 255 255
255 255 255 255 255 255 255 255 255 255 255 255 255 255 255 255 255
255 255 255 255 255 255 255 255 255 255 255 255 255 255 255 255 255
255 255 255 255 255 255 255 255 255 255 255 255 255 255 255 255 255
255 255 255 255 255 255 255 255 255 255 255 255 255 255 255 255 255
255 255 255 255 255 255 255 255 255 255 255 255 255 255 255 255 255
255 255 255 255 255 255 255 255 255 255 255 255 255 255 255 255 255
255 255 255 255 255 255 255 255 255 255 255 255 255 255 255 255 255
255 255 255 255 255 255 255 255 255 255 255 255 255 255 255 255 255
255 255 255 255 255 255 255 255 255 255 255 255 255 255 255 255 255
255 255 255 255 255 255 255 255 255 255 255 255 255 255 255 255 255
255 255 255 255 255 255 255 255 255 255 255 255 255 255 255 255 255
255 255 255 255 255 255 255 255 255 255 255 255 255 255 255 255 255
255 255 255 255 255 255 255 255 255 255 255 255 255 255 255 255 255
255 255 255 255 255 255 255 255 255 255 255 255 255 255 255 255 255
255 255 255 255 255 255 255 255 255 255 255 255 255 255 255 255 255
255 255 255 255 255 255 255 255 255 255 255 255 255 255 255 255 255
255 255 255 255 255 255 255 255 255 255 255 255 255 255 255 255 255
255 255 255 255 255 255 255 255 255 255 255 255 255 255 255 255 255
255 255 255 255 255 255 255 255 255 255 255 255 255 255 255 255 255
255 255 255 255 255 255 255 255 255 255 255 255 255 255 255 255 255
255 255 255 255 255 255 255 255 255 255 255 255 255 255 255 255 255
255 255 255 255 255 255 255 255 255 255 255 255 255 255 255 255 255
255 255 255 255 255 255 255 255 255 255 255 255 255 255 255 255 255
255 255 255 255 255 255 255 255 255 255 255 255 255 255 255 255 255
255 255 255 255 255 255 255 255 255 255 255 255 255 255 255 255 255
255 255 255 255 255 255 255 255 255 255 255 255 255 255 255 255 255
255 255 255 255 255 255 255 255 255 255 255 255 255 255 255 255 255
255 255 255 255 255 255 255 255 255 255 255 255 255 255 255 255 255
255 255 255 255 255 255 255 255 255 255 255 255 255 255 255 255 255
255 255 255 255 255 255 255 255 255 255 255 255 255 255 255 255 255
255 255 255 255 255 255 255 255 255 255 255 255 255 255 255 255 255
255 255 255 255 255 255 255 255 255 255 255 255 255 255 255 255 255
255 255 255 255 255 255 255 255 255 255 255 255 255 255 255 255 255
255 255 255 255 255 255 255 255 255 255 255 255 255 255 255 255 255
255 255 255 255 255 255 255 255 255 255 255 255 255 255 255 255 255
255 255 255 255 255 255 255 255 255 255 255 255 255 255 255 255 255
255 255 255 255 255 255 255 255 255 255 255 255 255 255 255 255 255
255 255 255 255 255 255 255 255 255 255 255 255 255 255 255 255 255
255 255 255 255 255 255 255 255 255 255 255 255 255 255 255 255 255
255 255 255 255 255 255 255 255 255 255 255 255 255 255 255 255 255
255 255 255 255 255 255 255 255 255 255 255 255 255 255 255 255 255
255 255 255 255 255 255 255 255 255 255 255 255 255 255 255 255 255
255 255 255 255 255 255 255 255 255 255 255 255 255 255 255 255 255
255 255 255 255 255 255 255 255 255 255 255 255 255 255 255 255 255
255 255 255 255 255 255 255 255 255 255 255 255 255 255 255 255 255
255 255 255 255 255 255 255 255 255 255 255 255 255 255 255 255 255
255 255 255 255 255 255 255 255 255 255 255 255 255 255 255 255 255
255 255 255 255 255 255 255 255 255 255 255 255 255 255 255 255 255
255 255 255 255 255 255 255 255 255 255 255 255 255 255 255 255 255
255 255 255 255 255 255 255 255 255 255 255 255 255 255 255 255 255
255 255 255 255 255 255 255 255 255 255 255 255 255 255 255 255 255
255 255 255 255 255 255 255 255 255 255 255 255 255 255 255 255 255
255 255 255 255 255 255 255 255 255 255 255 255 255 255 255 255 255
255 255 255 255 255 255 255 255 255 255 255 255 255 255 255 255 255
255 255 255 255 255 255 255 255 255 255 255 255 255 255 255 255 255
255 255 255 255 255 255 255 255 255 255 255 255 255 255 255 255 255
255 255 255 255 255 255 255 255 255 255 255 255 255 255 255 255 255
255 255 255 255 255 255 255 255 255 255 255 255 255 255 255 255 255
255 255 255 255 255 255 255 255 255 255 255 255 255 255 255 255 255
255 255 255 255 255 255 255 255 255 255 255 255 255 255 255 255 255
255 255 255 255 255 255 255 255 255 255 255 255 255 255 255 255 255
255 255 255 255 255 255 255 255 255 255 255 255 255 255 255 255 255
255 255 255 255 255 255 255 255 255 255 255 255 255 255 255 255 255
255 255 255 255 255 255 255 255 255 255 255 255 255 255 255 255 255
255 255 255 255 255 255 255 255 255 255 255 255 255 255 255 255 255
255 255 255 255 255 255 255 255 255 255 255 255 255 255 255 255 255
255 255 255 255 255 255 255 255 255 255 255 255 255 255 255 255 255
255 255 255 255 255 255 255 255 255 255 255 255 255 255 255 255 255
255 255 255 255 255 255 255 255 255 255 255 255 255 255 255 255 255
255 255 255 255 255 255 255 255 255 255 255 255 255 255 255 255 255
255 255 255 255 255 255 255 255 255 255 255 255 255 255 255 255 255
255 255 255 255 255 255 255 255 255 255 255 255 255 255 255 255 255
255 255 255 255 255 255 255 255 255 255 255 255 255 255 255 255 255
255 255 255 255 255 255 255 255 255 255 255 255 255 255 255 255 255
255 255 255 255 255 255 255 255 255 255 255 255 255 255 255 255 255
255 255 255 255 255 255 255 255 255 255 255 255 255 255 255 255 255
255 255 255 255 255 255 255 255 255 255 255 255 255 255 255 255 255
255 255 255 255 255 255 255 255 255 255 255 255 255 255 255 255 255
255 255 255 255 255 255 255 255 255 255 255 255 255 255 255 255 255
255 255 255 255 255 255 255 255 255 255 255 255 255 255 255 255 255
255 255 255 255 255 255 255 255 255 255 255 255 255 255 255 255 255
255 255 255 255 255 255 255 255 255 255 255 255 255 255 255 255 255
255 255 255 255 255 255 255 255 255 255 255 255 255 255 255 255 255
255 255 255 255 255 255 255 255 255 255 255 255 255 255 255 255 255
255 255 255 255 255 255 255 255 255 255 255 255 255 255 255 255 255
255 255 255 255 255 255 255 255 255 255 255 255 255 255 255 255 255
255 255 255 255 255 255 255 255 255 255 255 255 255 255 255 255 255
255 255 255 255 255 255 255 255 255 255 255 255 255 255 255 255 255
255 255 255 255 255 255 255 255 255 255 255 255 255 255 255 255 255
255 255 255 255 255 255 255 255 255 255 255 255 255 255 255 255 255
255 255 255 255 255 255 255 255 255 255 255 255 255 255 255 255 255
255 255 255 255 255 255 255 255 255 255 255 255 255 255 255 255 255
255 255 255 255 255 255 255 255 255 255 255 255 255 255 255 255 255
255 255 255 255 255 255 255 255 255 255 255 255 255 255 255 255 255
255 255 255 255 255 255 255 255 255 255 255 255 255 255 255 255 255
255 255 255 255 255 255 255 255 255 255 255 255 255 255 255 255 255
255 255 255 255 255 255 255 255 255 255 255 255 255 255 255 255 255
255 255 255 255 255 255 255 255 255 255 255 255 255 255 255 255 255
255 255 255 255 255 255 255 255 255 255 255 255 255 255 255 255 255
255 255 255 255 255 255 255 255 255 255 255 255 255 255 255 255 255
255 255 255 255 255 255 255 255 255 255 255 255 255 255 255 255 255
255 255 255 255 255 255 255 255 255 255 255 255 255 255 255 255 255
255 255 255 255 255 255 255 255 255 255 255 255 255 255 255 255 255
255 255 255 255 255 255 255 255 255 255 255 255 255 255 255 255 255
255 255 255 255 255 255 255 255 255 255 255 255 255 255 255 255 255
255 255 255 255 255 255 255 255 255 255 255 255 255 255 255 255 255
255 255 255 255 255 255 255 255 255 255 255 255 255 255 255 255 255
255 255 255 255 255 255 255 255 255 255 255 255 255 255 255 255 255
255 255 255 255 255 255 255 255 255 255 255 255 255 255 255 255 255
255 255 255 255 255 255 255 255 255 255 255 255 255 255 255 255 255
255 255 255 255 255 255 255 255 255 255 255 255 255 255 255 255 255
255 255 255 255 255 255 255 255 255 255 255 255 255 255 255 255 255
255 255 255 255 255 255 255 255 255 255 255 255 255 255 255 255 255
255 255 255 255 255 255 255 255 255 255 255 255 255 255 255 255 255
255 255 255 255 255 255 255 255 255 255 255 255 255 255 255 255 255
255 255 255 255 255 255 255 255 255 255 255 255 255 255 255 255 255
255 255 255 255 255 255 255 255 255 255 255 255 255 255 255 255 255
255 255 255 255 255 255 255 255 255 255 255 255 255 255 255 255 255
255 255 255 255 255 255 255 255 255 255 255 255 255 255 255 255 255
255 255 255 255 255 255 255 255 255 255 255 255 255 255 255 255 255
255 255 255 255 255 255 255 255 255 255 255 255 255 255 255 255 255
255 255 255 255 255 255 255 255 255 255 255 255 255 255 255 255 255
255 255 255 255 255 255 255 255 255 255 255 255 255 255 255 255 255
255 255 255 255 255 255 255 255 255 255 255 255 255 255 255 255 255
255 255 255 255 255 255 255 255 255 255 255 255 255 255 255 255 255
255 255 255 255 255 255 255 255 255 255 255 255 255 255 255 255 255
255 255 255 255 255 255 255 255 255 255 255 255 255 255 255 255 255
255 255 255 255 255 255 255 255 255 255 255 255 255 255 255 255 255
255 255 255 255 255 255 255 255 255 255 255 255 255 255 255 255 255
255 255 255 255 255 255 255 255 255 255 255 255 255 255 255 255 255
255 255 255 255 255 255 255 255 255 255 255 255 255 255 255 255 255
255 255 255 255 255 255 255 255 255 255 255 255 255 255 255 255 255
255 255 255 255 255 255 255 255 255 255 255 255 255 255 255 255 255
255 255 255 255 255 255 255 255 255 255 255 255 255 255 255 255 255
255 255 255 255 255 255 255 255 255 255 255 255 255 255 255 255 255
255 255 255 255 255 255 255 255 255 255 255 255 255 255 255 255 255
255 255 255 255 255 255 255 255 255 255 255 255 255 255 255 255 255
255 255 255 255 255 255 255 255 255 255 255 255 255 255 255 255 255
255 255 255 255 255 255 255 255 255 255 255 255 255 255 255 255 255
255 255 255 255 255 255 255 255 255 255 255 255 255 255 255 255 255
255 255 255 255 255 255 255 255 255 255 255 255 255 255 255 255 255
255 255 255 255 255 255 255 255 255 255 255 255 255 255 255 255 255
255 255 255 255 255 255 255 255 255 255 255 255 255 255 255 255 255
255 255 255 255 255 255 255 255 255 255 255 255 255 255 255 255 255
255 255 255 255 255 255 255 255 255 255 255 255 255 255 255 255 255
255 255 255 255 255 255 255 255 255 255 255 255 255 255 255 255 255
255 255 255 255 255 255 255 255 255 255 255 255 255 255 255 255 255
255 255 255 255 255 255 255 255 255 255 255 255 255 255 255 255 255
255 255 255 255 255 255 255 255 255 255 255 255 255 255 255 255 255
255 255 255 255 255 255 255 255 255 255 255 255 255 255 255 255 255
255 255 255 255 255 255 255 255 255 255 255 255 255 255 255 255 255
255 255 255 255 255 255 255 255 255 255 255 255 255 255 255 255 255
255 255 255 255 255 255 255 255 255 255 255 255 255 255 255 255 255
255 255 255 255 255 255 255 255 255 255 255 255 255 255 255 255 255
255 255 255 255 255 255 255 255 255 255 255 255 255 255 255 255 255
255 255 255 255 255 255 255 255 255 255 255 255 255 255 255 255 255
255 255 255 255 255 255 255 255 255 255 255 255 255 255 255 255 255
255 255 255 255 255 255 255 255 255 255 255 255 255 255 255 255 255
255 255 255 255 255 255 255 255 255 255 255 255 255 255 255 255 255
255 255 255 255 255 255 255 255 255 255 255 255 255 255 255 255 255
255 255 255 255 255 255 255 255 255 255 255 255 255 255 255 255 255
255 255 255 255 255 255 255 255 255 255 255 255 255 255 255 255 255
255 255 255 255 255 255 255 255 255 255 255 255 255 255 255 255 255
255 255 255 255 255 255 255 255 255 255 255 255 255 255 255 255 255
255 255 255 255 255 255 255 255 255 255 255 255 255 255 255 255 255
255 255 255 255 255 255 255 255 255 255 255 255 255 255 255 255 255
255 255 255 255 255 255 255 255 255 255 255 255 255 255 255 255 255
255 255 255 255 255 255 255 255 255 255 255 255 255 255 255 255 255
255 255 255 255 255 255 255 255 255 255 255 255 255 255 255 255 255
255 255 255 255 255 255 255 255 255 255 255 255 255 255 255 255 255
255 255 255 255 255 255 255 255 255 255 255 255 255 255 255 255 255
255 255 255 255 255 255 255 255 255 255 255 255 255 255 255 255 255
255 255 255 255 255 255 255 255 255 255 255 255 255 255 255 255 255
255 255 255 255 255 255 255 255 255 255 255 255 255 255 255 255 255
255 255 255 255 255 255 255 255 255 255 255 255 255 255 255 255 255
255 255 255 255 255 255 255 255 255 255 255 255 255 255 255 255 255
255 255 255 255 255 255 255 255 255 255 255 255 255 255 255 255 255
255 255 255 255 255 255 255 255 255 255 255 255 255 255 255 255 255
255 255 255 255 255 255 255 255 255 255 255 255 255 255 255 255 255
255 255 255 255 255 255 255 255 255 255 255 255 255 255 255 255 255
255 255 255 255 255 255 255 255 255 255 255 255 255 255 255 255 255
255 255 255 255 255 255 255 255 255 255 255 255 255 255 255 255 255
255 255 255 255 255 255 255 255 255 255 255 255 255 255 255 255 255
255 255 255 255 255 255 255 255 255 255 255 255 255 255 255 255 255
255 255 255 255 255 255 255 255 255 255 255 255 255 255 255 255 255
255 255 255 255 255 255 255 255 255 255 255 255 255 255 255 255 255
255 255 255 255 255 255 255 255 255 255 255 255 255 255 255 255 255
255 255 255 255 255 255 255 255 255 255 255 255 255 255 255 255 255
255 255 255 255 255 255 255 255 255 255 255 255 255 255 255 255 255
255 255 255 255 255 255 255 255 255 255 255 255 255 255 255 255 255
255 255 255 255 255 255 255 255 255 255 255 255 255 255 255 255 255
255 255 255 255 255 255 255 255 255 255 255 255 255 255 255 255 255
255 255 255 255 255 255 255 255 255 255 255 255 255 255 255 255 255
255 255 255 255 255 255 255 255 255 255 255 255 255 255 255 255 255
255 255 255 255 255 255 255 255 255 255 255 255 255 255 255 255 255
255 255 255 255 255 255 255 255 255 255 255 255 255 255 255 255 255
255 255 255 255 255 255 255 255 255 255 255 255 255 255 255 255 255
255 255 255 255 255 255 255 255 255 255 255 255 255 255 255 255 255
255 255 255 255 255 255 255 255 255 255 255 255 255 255 255 255 255
255 255 255 255 255 255 255 255 255 255 255 255 255 255 255 255 255
255 255 255 255 255 255 255 255 255 255 255 255 255 255 255 255 255
255 255 255 255 255 255 255 255 255 255 255 255 255 255 255 255 255
255 255 255 255 255 255 255 255 255 255 255 255 255 255 255 255 255
255 255 255 255 255 255 255 255 255 255 255 255 255 255 255 255 255
255 255 255 255 255 255 255 255 255 255 255 255 255 255 255 255 255
255 255 255 255 255 255 255 255 255 255 255 255 255 255 255 255 255
255 255 255 255 255 255 255 255 255 255 255 255 255 255 255 255 255
255 255 255 255 255 255 255 255 255 255 255 255 255 255 255 255 255
255 255 255 255 255 255 255 255 255 255 255 255 255 255 255 255 255
255 255 255 255 255 255 255 255 255 255 255 255 255 255 255 255 255
255 255 255 255 255 255 255 255 255 255 255 255 255 255 255 255 255
255 255 255 255 255 255 255 255 255 255 255 255 255 255 255 255 255
255 255 255 255 255 255 255 255 255 255 255 255 255 255 255 255 255
255 255 255 255 255 255 255 255 255 255 255 255 255 255 255 255 255
255 255 255 255 255 255 255 255 255 255 255 255 255 255 255 255 255
255 255 255 255 255 255 255 255 255 255 255 255 255 255 255 255 255
255 255 255 255 255 255 255 255 255 255 255 255 255 255 255 255 255
255 255 255 255 255 255 255 255 255 255 255 255 255 255 255 255 255
255 255 255 255 255 255 255 255 255 255 255 255 255 255 255 255 255
255 255 255 255 255 255 255 255 255 255 255 255 255 255 255 255 255
255 255 255 255 255 255 255 255 255 255 255 255 255 255 255 255 255
255 255 255 255 255 255 255 255 255 255 255 255 255 255 255 255 255
255 255 255 255 255 255 255 255 255 255 255 255 255 255 255 255 255
255 255 255 255 255 255 255 255 255 255 255 255 255 255 255 255 255
255 255 255 255 255 255 255 255 255 255 255 255 255 255 255 255 255
255 255 255 255 255 255 255 255 255 255 255 255 255 255 255 255 255
255 255 255 255 255 255 255 255 255 255 255 255 255 255 255 255 255
255 255 255 255 255 255 255 255 255 255 255 255 255 255 255 255 255
255 255 255 255 255 255 255 255 255 255 255 255 255 255 255 255 255
255 255 255 255 255 255 255 255 255 255 255 255 255 255 255 255 255
255 255 255 255 255 255 255 255 255 255 255 255 255 255 255 255 255
255 255 255 255 255 255 255 255 255 255 255 255 255 255 255 255 255
255 255 255 255 255 255 255 255 255 255 255 255 255 255 255 255 255
255 255 255 255 255 255 255 255 255 255 255 255 255 255 255 255 255
255 255 255 255 255 255 255 255 255 255 255 255 255 255 255 255 255
255 255 255 255 255 255 255 255 255 255 255 255 255 255 255 255 255
255 255 255 255 255 255 255 255 255 255 255 255 255 255 255 255 255
255 255 255 255 255 255 255 255 255 255 255 255 255 255 255 255 255
255 255 255 255 255 255 255 255 255 255 255 255 255 255 255 255 255
255 255 255 255 255 255 255 255 255 255 255 255 255 255 255 255 255
255 255 255 255 255 255 255 255 255 255 255 255 255 255 255 255 255
255 255 255 255 255 255 255 255 255 255 255 255 255 255 255 255 255
255 255 255 255 255 255 255 255 255 255 255 255 255 255 255 255 255
255 255 255 255 255 255 255 255 255 255 255 255 255 255 255 255 255
255 255 255 255 255 255 255 255 255 255 255 255 255 255 255 255 255
255 255 255 255 255 255 255 255 255 255 255 255 255 255 255 255 255
255 255 255 255 255 255 255 255 255 255 255 255 255 255 255 255 255
255 255 255 255 255 255 255 255 255 255 255 255 255 255 255 255 255
255 255 255 255 255 255 255 255 255 255 255 255 255 255 255 255 255
255 255 255 255 255 255 255 255 255 255 255 255 255 255 255 255 255
255 255 255 255 255 255 255 255 255 255 255 255 255 255 255 255 255
255 255 255 255 255 255 255 255 255 255 255 255 255 255 255 255 255
255 255 255 255 255 255 255 255 255 255 255 255 255 255 255 255 255
255 255 255 255 255 255 255 255 255 255 255 255 255 255 255 255 255
255 255 255 255 255 255 255 255 255 255 255 255 255 255 255 255 255
255 255 255 255 255 255 255 255 255 255 255 255 255 255 255 255 255
255 255 255 255 255 255 255 255 255 255 255 255 255 255 255 255 255
255 255 255 255 255 255 255 255 255 255 255 255 255 255 255 255 255
255 255 255 255 255 255 255 255 255 255 255 255 255 255 255 255 255
255 255 255 255 255 255 255 255 255 255 255 255 255 255 255 255 255
255 255 255 255 255 255 255 255 255 255 255 255 255 255 255 255 255
255 255 255 255 255 255 255 255 255 255 255 255 255 255 255 255 255
255 255 255 255 255 255 255 255 255 255 255 255 255 255 255 255 255
255 255 255 255 255 255 255 255 255 255 255 255 255 255 255 255 255
255 255 255 255 255 255 255 255 255 255 255 255 255 255 255 255 255
255 255 255 255 255 255 255 255 255 255 255 255 255 255 255 255 255
255 255 255 255 255 255 255 255 255 255 255 255 255 255 255 255 255
255 255 255 255 255 255 255 255 255 255 255 255 255 255 255 255 255
255 255 255 255 255 255 255 255 255 255 255 255 255 255 255 255 255
255 255 255 255 255 255 255 255 255 255 255 255 255 255 255 255 255
255 255 255 255 255 255 255 255 255 255 255 255 255 255 255 255 255
255 255 255 255 255 255 255 255 255 255 255 255 255 255 255 255 255
255 255 255 255 255 255 255 255 255 255 255 255 255 255 255 255 255
255 255 255 255 255 255 255 255 255 255 255 255 255 255 255 255 255
255 255 255 255 255 255 255 255 255 255 255 255 255 255 255 255 255
255 255 255 255 255 255 255 255 255 255 255 255 255 255 255 255 255
255 255 255 255 255 255 255 255 255 255 255 255 255 255 255 255 255
255 255 255 255 255 255 255 255 255 255 255 255 255 255 255 255 255
255 255 255 255 255 255 255 255 255 255 255 255 255 255 255 255 255
255 255 255 255 255 255 255 255 255 255 255 255 255 255 255 255 255
255 255 255 255 255 255 255 255 255 255 255 255 255 255 255 255 255
255 255 255 255 255 255 255 255 255 255 255 255 255 255 255 255 255
255 255 255 255 255 255 255 255 255 255 255 255 255 255 255 255 255
255 255 255 255 255 255 255 255 255 255 255 255 255 255 255 255 255
255 255 255 255 255 255 255 255 255 255 255 255 255 255 255 255 255
255 255 255 255 255 255 255 255 255 255 255 255 255 255 255 255 255
255 255 255 255 255 255 255 255 255 255 255 255 255 255 255 255 255
255 255 255 255 255 255 255 255 255 255 255 255 255 255 255 255 255
255 255 255 255 255 255 255 255 255 255 255 255 255 255 255 255 255
255 255 255 255 255 255 255 255 255 255 255 255 255 255 255 255 255
255 255 255 255 255 255 255 255 255 255 255 255 255 255 255 255 255
255 255 255 255 255 255 255 255 255 255 255 255 255 255 255 255 255
255 255 255 255 255 255 255 255 255 255 255 255 255 255 255 255 255
255 255 255 255 255 255 255 255 255 255 255 255 255 255 255 255 255
255 255 255 255 255 255 255 255 255 255 255 255 255 255 255 255 255
255 255 255 255 255 255 255 255 255 255 255 255 255 255 255 255 255
255 255 255 255 255 255 255 255 255 255 255 255 255 255 255 255 255
255 255 255 255 255 255 255 255 255 255 255 255 255 255 255 255 255
255 255 255 255 255 255 255 255 255 255 255 255 255 255 255 255 255
255 255 255 255 255 255 255 255 255 255 255 255 255 255 255 255 255
255 255 255 255 255 255 255 255 255 255 255 255 255 255 255 255 255
255 255 255 255 255 255 255 255 255 255 255 255 255 255 255 255 255
255 255 255 255 255 255 255 255 255 255 255 255 255 255 255 255 255
255 255 255 255 255 255 255 255 255 255 255 255 255 255 255 255 255
255 255 255 255 255 255 255 255 255 255 255 255 255 255 255 255 255
255 255 255 255 255 255 255 255 255 255 255 255 255 255 255 255 255
255 255 255 255 255 255 255 255 255 255 255 255 255 255 255 255 255
255 255 255 255 255 255 255 255 255 255 255 255 255 255 255 255 255
255 255 255 255 255 255 255 255 255 255 255 255 255 255 255 255 255
255 255 255 255 255 255 255 255 255 255 255 255 255 255 255 255 255
255 255 255 255 255 255 255 255 255 255 255 255 255 255 255 255 255
255 255 255 255 255 255 255 255 255 255 255 255 255 255 255 255 255
255 255 255 255 255 255 255 255 255 255 255 255 255 255 255 255 255
255 255 255 255 255 255 255 255 255 255 255 255 255 255 255 255 255
255 255 255 255 255 255 255 255 255 255 255 255 255 255 255 255 255
255 255 255 255 255 255 255 255 255 255 255 255 255 255 255 255 255
255 255 255 255 255 255 255 255 255 255 255 255 255 255 255 255 255
255 255 255 255 255 255 255 255 255 255 255 255 255 255 255 255 255
255 255 255 255 255 255 255 255 255 255 255 255 255 255 255 255 255
255 255 255 255 255 255 255 255 255 255 255 255 255 255 255 255 255
255 255 255 255 255 255 255 255 255 255 255 255 255 255 255 255 255
255 255 255 255 255 255 255 255 255 255 255 255 255 255 255 255 255
255 255 255 255 255 255 255 255 255 255 255 255 255 255 255 255 255
255 255 255 255 255 255 255 255 255 255 255 255 255 255 255 255 255
255 255 255 255 255 255 255 255 255 255 255 255 255 255 255 255 255
255 255 255 255 255 255 255 255 255 255 255 255 255 255 255 255 255
255 255 255 255 255 255 255 255 255 255 255 255 255 255 255 255 255
255 255 255 255 255 255 255 255 255 255 255 255 255 255 255 255 255
255 255 255 255 255 255 255 255 255 255 255 255 255 255 255 255 255
255 255 255 255 255 255 255 255 255 255 255 255 255 255 255 255 255
255 255 255 255 255 255 255 255 255 255 255 255 255 255 255 255 255
255 255 255 255 255 255 255 255 255 255 255 255 255 255 255 255 255
255 255 255 255 255 255 255 255 255 255 255 255 255 255 255 255 255
255 255 255 255 255 255 255 255 255 255 255 255 255 255 255 255 255
255 255 255 255 255 255 255 255 255 255 255 255 255 255 255 255 255
255 255 255 255 255 255 255 255 255 255 255 255 255 255 255 255 255
255 255 255 255 255 255 255 255 255 255 255 255 255 255 255 255 255
255 255 255 255 255 255 255 255 255 255 255 255 255 255 255 255 255
255 255 255 255 255 255 255 255 255 255 255 255 255 255 255 255 255
255 255 255 255 255 255 255 255 255 255 255 255 255 255 255 255 255
255 255 255 255 255 255 255 255 255 255 255 255 255 255 255 255 255
255 255 255 255 255 255 255 255 255 255 255 255 255 255 255 255 255
255 255 255 255 255 255 255 255 255 255 255 255 255 255 255 255 255
255 255 255 255 255 255 255 255 255 255 255 255 255 255 255 255 255
255 255 255 255 255 255 255 255 255 255 255 255 255 255 255 255 255
255 255 255 255 255 255 255 255 255 255 255 255 255 255 255 255 255
255 255 255 255 255 255 255 255 255 255 255 255 255 255 255 255 255
255 255 255 255 255 255 255 255 255 255 255 255 255 255 255 255 255
255 255 255 255 255 255 255 255 255 255 255 255 255 255 255 255 255
255 255 255 255 255 255 255 255 255 255 255 255 255 255 255 255 255
255 255 255 255 255 255 255 255 255 255 255 255 255 255 255 255 255
255 255 255 255 255 255 255 255 255 255 255 255 255 255 255 255 255
255 255 255 255 255 255 255 255 255 255 255 255 255 255 255 255 255
255 255 255 255 255 255 255 255 255 255 255 255 255 255 255 255 255
255 255 255 255 255 255 255 255 255 255 255 255 255 255 255 255 255
255 255 255 255 255 255 255 255 255 255 255 255 255 255 255 255 255
255 255 255 255 255 255 255 255 255 255 255 255 255 255 255 255 255
255 255 255 255 255 255 255 255 255 255 255 255 255 255 255 255 255
255 255 255 255 255 255 255 255 255 255 255 255 255 255 255 255 255
255 255 255 255 255 255 255 255 255 255 255 255 255 255 255 255 255
255 255 255 255 255 255 255 255 255 255 255 255 255 255 255 255 255
255 255 255 255 255 255 255 255 255 255 255 255 255 255 255 255 255
255 255 255 255 255 255 255 255 255 255 255 255 255 255 255 255 255
255 255 255 255 255 255 255 255 255 255 255 255 255 255 255 255 255
255 255 255 255 255 255 255 255 255 255 255 255 255 255 255 255 255
255 255 255 255 255 255 255 255 255 255 255 255 255 255 255 255 255
255 255 255 255 255 255 255 255 255 255 255 255 255 255 255 255 255
255 255 255 255 255 255 255 255 255 255 255 255 255 255 255 255 255
255 255 255 255 255 255 255 255 255 255 255 255 255 255 255 255 255
255 255 255 255 255 255 255 255 255 255 255 255 255 255 255 255 255
255 255 255 255 255 255 255 255 255 255 255 255 255 255 255 255 255
255 255 255 255 255 255 255 255 255 255 255 255 255 255 255 255 255
255 255 255 255 255 255 255 255 255 255 255 255 255 255 255 255 255
255 255 255 255 255 255 255 255 255 255 255 255 255 255 255 255 255
255 255 255 255 255 255 255 255 255 255 255 255 255 255 255 255 255
255 255 255 255 255 255 255 255 255 255 255 255 255 255 255 255 255
255 255 255 255 255 255 255 255 255 255 255 255 255 255 255 255 255
255 255 255 255 255 255 255 255 255 255 255 255 255 255 255 255 255
255 255 255 255 255 255 255 255 255 255 255 255 255 255 255 255 255
255 255 255 255 255 255 255 255 255 255 255 255 255 255 255 255 255
255 255 255 255 255 255 255 255 255 255 255 255 255 255 255 255 255
255 255 255 255 255 255 255 255 255 255 255 255 255 255 255 255 255
255 255 255 255 255 255 255 255 255 255 255 255 255 255 255 255 255
255 255 255 255 255 255 255 255 255 255 255 255 255 255 255 255 255
255 255 255 255 255 255 255 255 255 255 255 255 255 255 255 255 255
255 255 255 255 255 255 255 255 255 255 255 255 255 255 255 255 255
255 255 255 255 255 255 255 255 255 255 255 255 255 255 255 255 255
255 255 255 255 255 255 255 255 255 255 255 255 255 255 255 255 255
255 255 255 255 255 255 255 255 255 255 255 255 255 255 255 255 255
255 255 255 255 255 255 255 255 255 255 255 255 255 255 255 255 255
255 255 255 255 255 255 255 255 255 255 255 255 255 255 255 255 255
255 255 255 255 255 255 255 255 255 255 255 255 255 255 255 255 255
255 255 255 255 255 255 255 255 255 255 255 255 255 255 255 255 255
255 255 255 255 255 255 255 255 255 255 255 255 255 255 255 255 255
255 255 255 255 255 255 255 255 255 255 255 255 255 255 255 255 255
255 255 255 255 255 255 255 255 255 255 255 255 255 255 255 255 255
255 255 255 255 255 255 255 255 255 255 255 255 255 255 255 255 255
255 255 255 255 255 255 255 255 255 255 255 255 255 255 255 255 255
255 255 255 255 255 255 255 255 255 255 255 255 255 255 255 255 255
255 255 255 255 255 255 255 255 255 255 255 255 255 255 255 255 255
255 255 255 255 255 255 255 255 255 255 255 255 255 255 255 255 255
255 255 255 255 255 255 255 255 255 255 255 255 255 255 255 255 255
255 255 255 255 255 255 255 255 255 255 255 255 255 255 255 255 255
255 255 255 255 255 255 255 255 255 255 255 255 255 255 255 255 255
255 255 255 255 255 255 255 255 255 255 255 255 255 255 255 255 255
255 255 255 255 255 255 255 255 255 255 255 255 255 255 255 255 255
255 255 255 255 255 255 255 255 255 255 255 255 255 255 255 255 255
255 255 255 255 255 255 255 255 255 255 255 255 255 255 255 255 255
255 255 255 255 255 255 255 255 255 255 255 255 255 255 255 255 255
255 255 255 255 255 255 255 255 255 255 255 255 255 255 255 255 255
255 255 255 255 255 255 255 255 255 255 255 255 255 255 255 255 255
255 255 255 255 255 255 255 255 255 255 255 255 255 255 255 255 255
255 255 255 255 255 255 255 255 255 255 255 255 255 255 255 255 255
255 255 255 255 255 255 255 255 255 255 255 255 255 255 255 255 255
255 255 255 255 255 255 255 255 255 255 255 255 255 255 255 255 255
255 255 255 255 255 255 255 255 255 255 255 255 255 255 255 255 255
255 255 255 255 255 255 255 255 255 255 255 255 255 255 255 255 255
255 255 255 255 255 255 255 255 255 255 255 255 255 255 255 255 255
255 255 255 255 255 255 255 255 255 255 255 255 255 255 255 255 255
255 255 255 255 255 255 255 255 255 255 255 255 255 255 255 255 255
255 255 255 255 255 255 255 255 255 255 255 255 255 255 255 255 255
255 255 255 255 255 255 255 255 255 255 255 255 255 255 255 255 255
255 255 255 255 255 255 255 255 255 255 255 255 255 255 255 255 255
255 255 255 255 255 255 255 255 255 255 255 255 255 255 255 255 255
255 255 255 255 255 255 255 255 255 255 255 255 255 255 255 255 255
255 255 255 255 255 255 255 255 255 255 255 255 255 255 255 255 255
255 255 255 255 255 255 255 255 255 255 255 255 255 255 255 255 255
255 255 255 255 255 255 255 255 255 255 255 255 255 255 255 255 255
255 255 255 255 255 255 255 255 255 255 255 255 255 255 255 255 255
255 255 255 255 255 255 255 255 255 255 255 255 255 255 255 255 255
255 255 255 255 255 255 255 255 255 255 255 255 255 255 255 255 255
255 255 255 255 255 255 255 255 255 255 255 255 255 255 255 255 255
255 255 255 255 255 255 255 255 255 255 255 255 255 255 255 255 255
255 255 255 255 255 255 255 255 255 255 255 255 255 255 255 255 255
255 255 255 255 255 255 255 255 255 255 255 255 255 255 255 255 255
255 255 255 255 255 255 255 255 255 255 255 255 255 255 255 255 255
255 255 255 255 255 255 255 255 255 255 255 255 255 255 255 255 255
255 255 255 255 255 255 255 255 255 255 255 255 255 255 255 255 255
255 255 255 255 255 255 255 255 255 255 255 255 255 255 255 255 255
255 255 255 255 255 255 255 255 255 255 255 255 255 255 255 255 255
255 255 255 255 255 255 255 255 255 255 255 255 255 255 255 255 255
255 255 255 255 255 255 255 255 255 255 255 255 255 255 255 255 255
255 255 255 255 255 255 255 255 255 255 255 255 255 255 255 255 255
255 255 255 255 255 255 255 255 255 255 255 255 255 255 255 255 255
255 255 255 255 255 255 255 255 255 255 255 255 255 255 255 255 255
255 255 255 255 255 255 255 255 255 255 255 255 255 255 255 255 255
255 255 255 255 255 255 255 255 255 255 255 255 255 255 255 255 255
255 255 255 255 255 255 255 255 255 255 255 255 255 255 255 255 255
255 255 255 255 255 255 255 255 255 255 255 255 255 255 255 255 255
255 255 255 255 255 255 255 255 255 255 255 255 255 255 255 255 255
255 255 255 255 255 255 255 255 255 255 255 255 255 255 255 255 255
255 255 255 255 255 255 255 255 255 255 255 255 255 255 255 255 255
255 255 255 255 255 255 255 255 255 255 255 255 255 255 255 255 255
255 255 255 255 255 255 255 255 255 255 255 255 255 255 255 255 255
255 255 255 255 255 255 255 255 255 255 255 255 255 255 255 255 255
255 255 255 255 255 255 255 255 255 255 255 255 255 255 255 255 255
255 255 255 255 255 255 255 255 255 255 255 255 255 255 255 255 255
255 255 255 255 255 255 255 255 255 255 255 255 255 255 255 255 255
255 255 255 255 255 255 255 255 255 255 255 255 255 255 255 255 255
255 255 255 255 255 255 255 255 255 255 255 255 255 255 255 255 255
255 255 255 255 255 255 255 255 255 255 255 255 255 255 255 255 255
255 255 255 255 255 255 255 255 255 255 255 255 255 255 255 255 255
255 255 255 255 255 255 255 255 255 255 255 255 255 255 255 255 255
255 255 255 255 255 255 255 255 255 255 255 255 255 255 255 255 255
255 255 255 255 255 255 255 255 255 255 255 255 255 255 255 255 255
255 255 255 255 255 255 255 255 255 255 255 255 255 255 255 255 255
255 255 255 255 255 255 255 255 255 255 255 255 255 255 255 255 255
255 255 255 255 255 255 255 255 255 255 255 255 255 255 255 255 255
255 255 255 255 255 255 255 255 255 255 255 255 255 255 255 255 255
255 255 255 255 255 255 255 255 255 255 255 255 255 255 255 255 255
255 255 255 255 255 255 255 255 255 255 255 255 255 255 255 255 255
255 255 255 255 255 255 255 255 255 255 255 255 255 255 255 255 255
255 255 255 255 255 255 255 255 255 255 255 255 255 255 255 255 255
255 255 255 255 255 255 255 255 255 255 255 255 255 255 255 255 255
255 255 255 255 255 255 255 255 255 255 255 255 255 255 255 255 255
255 255 255 255 255 255 255 255 255 255 255 255 255 255 255 255 255
255 255 255 255 255 255 255 255 255 255 255 255 255 255 255 255 255
255 255 255 255 255 255 255 255 255 255 255 255 255 255 255 255 255
255 255 255 255 255 255 255 255 255 255 255 255 255 255 255 255 255
255 255 255 255 255 255 255 255 255 255 255 255 255 255 255 255 255
255 255 255 255 255 255 255 255 255 255 255 255 255 255 255 255 255
255 255 255 255 255 255 255 255 255 255 255 255 255 255 255 255 255
255 255 255 255 255 255 255 255 255 255 255 255 255 255 255 255 255
255 255 255 255 255 255 255 255 255 255 255 255 255 255 255 255 255
255 255 255 255 255 255 255 255 255 255 255 255 255 255 255 255 255
255 255 255 255 255 255 255 255 255 255 255 255 255 255 255 255 255
255 255 255 255 255 255 255 255 255 255 255 255 255 255 255 255 255
255 255 255 255 255 255 255 255 255 255 255 255 255 255 255 255 255
255 255 255 255 255 255 255 255 255 255 255 255 255 255 255 255 255
255 255 255 255 255 255 255 255 255 255 255 255 255 255 255 255 255
255 255 255 255 255 255 255 255 255 255 255 255 255 255 255 255 255
255 255 255 255 255 255 255 255 255 255 255 255 255 255 255 255 255
255 255 255 255 255 255 255 255 255 255 255 255 255 255 255 255 255
255 255 255 255 255 255 255 255 255 255 255 255 255 255 255 255 255
255 255 255 255 255 255 255 255 255 255 255 255 255 255 255 255 255
255 255 255 255 255 255 255 255 255 255 255 255 255 255 255 255 255
255 255 255 255 255 255 255 255 255 255 255 255 255 255 255 255 255
255 255 255 255 255 255 255 255 255 255 255 255 255 255 255 255 255
255 255 255 255 255 255 255 255 255 255 255 255 255 255 255 255 255
255 255 255 255 255 255 255 255 255 255 255 255 255 255 255 255 255
255 255 255 255 255 255 255 255 255 255 255 255 255 255 255 255 255
255 255 255 255 255 255 255 255 255 255 255 255 255 255 255 255 255
255 255 255 255 255 255 255 255 255 255 255 255 255 255 255 255 255
255 255 255 255 255 255 255 255 255 255 255 255 255 255 255 255 255
255 255 255 255 255 255 255 255 255 255 255 255 255 255 255 255 255
255 255 255 255 255 255 255 255 255 255 255 255 255 255 255 255 255
255 255 255 255 255 255 255 255 255 255 255 255 255 255 255 255 255
255 255 255 255 255 255 255 255 255 255 255 255 255 255 255 255 255
255 255 255 255 255 255 255 255 255 255 255 255 255 255 255 255 255
255 255 255 255 255 255 255 255 255 255 255 255 255 255 255 255 255
255 255 255 255 255 255 255 255 255 255 255 255 255 255 255 255 255
255 255 255 255 255 255 255 255 255 255 255 255 255 255 255 255 255
255 255 255 255 255 255 255 255 255 255 255 255 255 255 255 255 255
255 255 255 255 255 255 255 255 255 255 255 255 255 255 255 255 255
255 255 255 255 255 255 255 255 255 255 255 255 255 255 255 255 255
255 255 255 255 255 255 255 255 255 255 255 255 255 255 255 255 255
255 255 255 255 255 255 255 255 255 255 255 255 255 255 255 255 255
255 255 255 255 255 255 255 255 255 255 255 255 255 255 255 255 255
255 255 255 255 255 255 255 255 255 255 255 255 255 255 255 255 255
255 255 255 255 255 255 255 255 255 255 255 255 255 255 255 255 255
255 255 255 255 255 255 255 255 255 255 255 255 255 255 255 255 255
255 255 255 255 255 255 255 255 255 255 255 255 255 255 255 255 255
255 255 255 255 255 255 255 255 255 255 255 255 255 255 255 255 255
255 255 255 255 255 255 255 255 255 255 255 255 255 255 255 255 255
255 255 255 255 255 255 255 255 255 255 255 255 255 255 255 255 255
255 255 255 255 255 255 255 255 255 255 255 255 255 255 255 255 255
255 255 255 255 255 255 255 255 255 255 255 255 255 255 255 255 255
255 255 255 255 255 255 255 255 255 255 255 255 255 255 255 255 255
255 255 255 255 255 255 255 255 255 255 255 255 255 255 255 255 255
255 255 255 255 255 255 255 255 255 255 255 255 255 255 255 255 255
255 255 255 255 255 255 255 255 255 255 255 255 255 255 255 255 255
255 255 255 255 255 255 255 255 255 255 255 255 255 255 255 255 255
255 255 255 255 255 255 255 255 255 255 255 255 255 255 255 255 255
255 255 255 255 255 255 255 255 255 255 255 255 255 255 255 255 255
255 255 255 255 255 255 255 255 255 255 255 255 255 255 255 255 255
255 255 255 255 255 255 255 255 255 255 255 255 255 255 255 255 255
255 255 255 255 255 255 255 255 255 255 255 255 255 255 255 255 255
255 255 255 255 255 255 255 255 255 255 255 255 255 255 255 255 255
255 255 255 255 255 255 255 255 255 255 255 255 255 255 255 255 255
255 255 255 255 255 255 255 255 255 255 255 255 255 255 255 255 255
255 255 255 255 255 255 255 255 255 255 255 255 255 255 255 255 255
255 255 255 255 255 255 255 255 255 255 255 255 255 255 255 255 255
255 255 255 255 255 255 255 255 255 255 255 255 255 255 255 255 255
255 255 255 255 255 255 255 255 255 255 255 255 255 255 255 255 255
255 255 255 255 255 255 255 255 255 255 255 255 255 255 255 255 255
255 255 255 255 255 255 255 255 255 255 255 255 255 255 255 255 255
255 255 255 255 255 255 255 255 255 255 255 255 255 255 255 255 255
255 255 255 255 255 255 255 255 255 255 255 255 255 255 255 255 255
255 255 255 255 255 255 255 255 255 255 255 255 255 255 255 255 255
255 255 255 255 255 255 255 255 255 255 255 255 255 255 255 255 255
255 255 255 255 255 255 255 255 255 255 255 255 255 255 255 255 255
255 255 255 255 255 255 255 255 255 255 255 255 255 255 255 255 255
255 255 255 255 255 255 255 255 255 255 255 255 255 255 255 255 255
255 255 255 255 255 255 255 255 255 255 255 255 255 255 255 255 255
255 255 255 255 255 255 255 255 255 255 255 255 255 255 255 255 255
255 255 255 255 255 255 255 255 255 255 255 255 255 255 255 255 255
255 255 255 255 255 255 255 255 255 255 255 255 255 255 255 255 255
255 255 255 255 255 255 255 255 255 255 255 255 255 255 255 255 255
255 255 255 255 255 255 255 255 255 255 255 255 255 255 255 255 255
255 255 255 255 255 255 255 255 255 255 255 255 255 255 255 255 255
255 255 255 255 255 255 255 255 255 255 255 255 255 255 255 255 255
255 255 255 255 255 255 255 255 255 255 255 255 255 255 255 255 255
255 255 255 255 255 255 255 255 255 255 255 255 255 255 255 255 255
255 255 255 255 255 255 255 255 255 255 255 255 255 255 255 255 255
255 255 255 255 255 255 255 255 255 255 255 255 255 255 255 255 255
255 255 255 255 255 255 255 255 255 255 255 255 255 255 255 255 255
255 255 255 255 255 255 255 255 255 255 255 255 255 255 255 255 255
255 255 255 255 255 255 255 255 255 255 255 255 255 255 255 255 255
255 255 255 255 255 255 255 255 255 255 255 255 255 255 255 255 255
255 255 255 255 255 255 255 255 255 255 255 255 255 255 255 255 255
255 255 255 255 255 255 255 255 255 255 255 255 255 255 255 255 255
255 255 255 255 255 255 255 255 255 255 255 255 255 255 255 255 255
255 255 255 255 255 255 255 255 255 255 255 255 255 255 255 255 255
255 255 255 255 255 255 255 255 255 255 255 255 255 255 255 255 255
255 255 255 255 255 255 255 255 255 255 255 255 255 255 255 255 255
255 255 255 255 255 255 255 255 255 255 255 255 255 255 255 255 255
255 255 255 255 255 255 255 255 255 255 255 255 255 255 255 255 255
255 255 255 255 255 255 255 255 255 255 255 255 255 255 255 255 255
255 255 255 255 255 255 255 255 255 255 255 255 255 255 255 255 255
255 255 255 255 255 255 255 255 255 255 255 255 255 255 255 255 255
255 255 255 255 255 255 255 255 255 255 255 255 255 255 255 255 255
255 255 255 255 255 255 255 255 255 255 255 255 255 255 255 255 255
255 255 255 255 255 255 255 255 255 255 255 255 255 255 255 255 255
255 255 255 255 255 255 255 255 255 255 255 255 255 255 255 255 255
255 255 255 255 255 255 255 255 255 255 255 255 255 255 255 255 255
255 255 255 255 255 255 255 255 255 255 255 255 255 255 255 255 255
255 255 255 255 255 255 255 255 255 255 255 255 255 255 255 255 255
255 255 255 255 255 255 255 255 255 255 255 255 255 255 255 255 255
255 255 255 255 255 255 255 255 255 255 255 255 255 255 255 255 255
255 255 255 255 255 255 255 255 255 255 255 255 255 255 255 255 255
255 255 255 255 255 255 255 255 255 255 255 255 255 255 255 255 255
255 255 255 255 255 255 255 255 255 255 255 255 255 255 255 255 255
255 255 255 255 255 255 255 255 255 255 255 255 255 255 255 255 255
255 255 255 255 255 255 255 255 255 255 255 255 255 255 255 255 255
255 255 255 255 255 255 255 255 255 255 255 255 255 255 255 255 255
255 255 255 255 255 255 255 255 255 255 255 255 255 255 255 255 255
255 255 255 255 255 255 255 255 255 255 255 255 255 255 255 255 255
255 255 255 255 255 255 255 255 255 255 255 255 255 255 255 255 255
255 255 255 255 255 255 255 255 255 255 255 255 255 255 255 255 255
255 255 255 255 255 255 255 255 255 255 255 255 255 255 255 255 255
255 255 255 255 255 255 255 255 255 255 255 255 255 255 255 255 255
255 255 255 255 255 255 255 255 255 255 255 255 255 255 255 255 255
255 255 255 255 255 255 255 255 255 255 255 255 255 255 255 255 255
255 255 255 255 255 255 255 255 255 255 255 255 255 255 255 255 255
255 255 255 255 255 255 255 255 255 255 255 255 255 255 255 255 255
255 255 255 255 255 255 255 255 255 255 255 255 255 255 255 255 255
255 255 255 255 255 255 255 255 255 255 255 255 255 255 255 255 255
255 255 255 255 255 255 255 255 255 255 255 255 255 255 255 255 255
255 255 255 255 255 255 255 255 255 255 255 255 255 255 255 255 255
255 255 255 255 255 255 255 255 255 255 255 255 255 255 255 255 255
255 255 255 255 255 255 255 255 255 255 255 255 255 255 255 255 255
255 255 255 255 255 255 255 255 255 255 255 255 255 255 255 255 255
255 255 255 255 255 255 255 255 255 255 255 255 255 255 255 255 255
255 255 255 255 255 255 255 255 255 255 255 255 255 255 255 255 255
255 255 255 255 255 255 255 255 255 255 255 255 255 255 255 255 255
255 255 255 255 255 255 255 255 255 255 255 255 255 255 255 255 255
255 255 255 255 255 255 255 255 255 255 255 255 255 255 255 255 255
255 255 255 255 255 255 255 255 255 255 255 255 255 255 255 255 255
255 255 255 255 255 255 255 255 255 255 255 255 255 255 255 255 255
255 255 255 255 255 255 255 255 255 255 255 255 255 255 255 255 255
255 255 255 255 255 255 255 255 255 255 255 255 255 255 255 255 255
255 255 255 255 255 255 255 255 255 255 255 255 255 255 255 255 255
255 255 255 255 255 255 255 255 255 255 255 255 255 255 255 255 255
255 255 255 255 255 255 255 255 255 255 255 255 255 255 255 255 255
255 255 255 255 255 255 255 255 255 255 255 255 255 255 255 255 255
255 255 255 255 255 255 255 255 255 255 255 255 255 255 255 255 255
255 255 255 255 255 255 255 255 255 255 255 255 255 255 255 255 255
255 255 255 255 255 255 255 255 255 255 255 255 255 255 255 255 255
255 255 255 255 255 255 255 255 255 255 255 255 255 255 255 255 255
255 255 255 255 255 255 255 255 255 255 255 255 255 255 255 255 255
255 255 255 255 255 255 255 255 255 255 255 255 255 255 255 255 255
255 255 255 255 255 255 255 255 255 255 255 255 255 255 255 255 255
255 255 255 255 255 255 255 255 255 255 255 255 255 255 255 255 255
255 255 255 255 255 255 255 255 255 255 255 255 255 255 255 255 255
255 255 255 255 255 255 255 255 255 255 255 255 255 255 255 255 255
255 255 255 255 255 255 255 255 255 255 255 255 255 255 255 255 255
255 255 255 255 255 255 255 255 255 255 255 255 255 255 255 255 255
255 255 255 255 255 255 255 255 255 255 255 255 255 255 255 255 255
255 255 255 255 255 255 255 255 255 255 255 255 255 255 255 255 255
255 255 255 255 255 255 255 255 255 255 255 255 255 255 255 255 255
255 255 255 255 255 255 255 255 255 255 255 255 255 255 255 255 255
255 255 255 255 255 255 255 255 255 255 255 255 255 255 255 255 255
255 255 255 255 255 255 255 255 255 255 255 255 255 255 255 255 255
255 255 255 255 255 255 255 255 255 255 255 255 255 255 255 255 255
255 255 255 255 255 255 255 255 255 255 255 255 255 255 255 255 255
255 255 255 255 255 255 255 255 255 255 255 255 255 255 255 255 255
255 255 255 255 255 255 255 255 255 255 255 255 255 255 255 255 255
255 255 255 255 255 255 255 255 255 255 255 255 255 255 255 255 255
255 255 255 255 255 255 255 255 255 255 255 255 255 255 255 255 255
255 255 255 255 255 255 255 255 255 255 255 255 255 255 255 255 255
255 255 255 255 255 255 255 255 255 255 255 255 255 255 255 255 255
255 255 255 255 255 255 255 255 255 255 255 255 255 255 255 255 255
255 255 255 255 255 255 255 255 255 255 255 255 255 255 255 255 255
255 255 255 255 255 255 255 255 255 255 255 255 255 255 255 255 255
255 255 255 255 255 255 255 255 255 255 255 255 255 255 255 255 255
255 255 255 255 255 255 255 255 255 255 255 255 255 255 255 255 255
255 255 255 255 255 255 255 255 255 255 255 255 255 255 255 255 255
255 255 255 255 255 255 255 255 255 255 255 255 255 255 255 255 255
255 255 255 255 255 255 255 255 255 255 255 255 255 255 255 255 255
255 255 255 255 255 255 255 255 255 255 255 255 255 255 255 255 255
255 255 255 255 255 255 255 255 255 255 255 255 255 255 255 255 255
255 255 255 255 255 255 255 255 255 255 255 255 255 255 255 255 255
255 255 255 255 255 255 255 255 255 255 255 255 255 255 255 255 255
255 255 255 255 255 255 255 255 255 255 255 255 255 255 255 255 255
255 255 255 255 255 255 255 255 255 255 255 255 255 255 255 255 255
255 255 255 255 255 255 255 255 255 255 255 255 255 255 255 255 255
255 255 255 255 255 255 255 255 255 255 255 255 255 255 255 255 255
255 255 255 255 255 255 255 255 255 255 255 255 255 255 255 255 255
255 255 255 255 255 255 255 255 255 255 255 255 255 255 255 255 255
255 255 255 255 255 255 255 255 255 255 255 255 255 255 255 255 255
255 255 255 255 255 255 255 255 255 255 255 255 255 255 255 255 255
255 255 255 255 255 255 255 255 255 255 255 255 255 255 255 255 255
255 255 255 255 255 255 255 255 255 255 255 255 255 255 255 255 255
255 255 255 255 255 255 255 255 255 255 255 255 255 255 255 255 255
255 255 255 255 255 255 255 255 255 255 255 255 255 255 255 255 255
255 255 255 255 255 255 255 255 255 255 255 255 255 255 255 255 255
255 255 255 255 255 255 255 255 255 255 255 255 255 255 255 255 255
255 255 255 255 255 255 255 255 255 255 255 255 255 255 255 255 255
255 255 255 255 255 255 255 255 255 255 255 255 255 255 255 255 255
255 255 255 255 255 255 255 255 255 255 255 255 255 255 255 255 255
255 255 255 255 255 255 255 255 255 255 255 255 255 255 255 255 255
255 255 255 255 255 255 255 255 255 255 255 255 255 255 255 255 255
255 255 255 255 255 255 255 255 255 255 255 255 255 255 255 255 255
255 255 255 255 255 255 255 255 255 255 255 255 255 255 255 255 255
255 255 255 255 255 255 255 255 255 255 255 255 255 255 255 255 255
255 255 255 255 255 255 255 255 255 255 255 255 255 255 255 255 255
255 255 255 255 255 255 255 255 255 255 255 255 255 255 255 255 255
255 255 255 255 255 255 255 255 255 255 255 255 255 255 255 255 255
255 255 255 255 255 255 255 255 255 255 255 255 255 255 255 255 255
255 255 255 255 255 255 255 255 255 255 255 255 255 255 255 255 255
255 255 255 255 255 255 255 255 255 255 255 255 255 255 255 255 255
255 255 255 255 255 255 255 255 255 255 255 255 255 255 255 255 255
255 255 255 255 255 255 255 255 255 255 255 255 255 255 255 255 255
255 255 255 255 255 255 255 255 255 255 255 255 255 255 255 255 255
255 255 255 255 255 255 255 255 255 255 255 255 255 255 255 255 255
255 255 255 255 255 255 255 255 255 255 255 255 255 255 255 255 255
255 255 255 255 255 255 255 255 255 255 255 255 255 255 255 255 255
255 255 255 255 255 255 255 255 255 255 255 255 255 255 255 255 255
255 255 255 255 255 255 255 255 255 255 255 255 255 255 255 255 255
255 255 255 255 255 255 255 255 255 255 255 255 255 255 255 255 255
255 255 255 255 255 255 255 255 255 255 255 255 255 255 255 255 255
255 255 255 255 255 255 255 255 255 255 255 255 255 255 255 255 255
255 255 255 255 255 255 255 255 255 255 255 255 255 255 255 255 255
255 255 255 255 255 255 255 255 255 255 255 255 255 255 255 255 255
255 255 255 255 255 255 255 255 255 255 255 255 255 255 255 255 255
255 255 255 255 255 255 255 255 255 255 255 255 255 255 255 255 255
255 255 255 255 255 255 255 255 255 255 255 255 255 255 255 255 255
255 255 255 255 255 255 255 255 255 255 255 255 255 255 255 255 255
255 255 255 255 255 255 255 255 255 255 255 255 255 255 255 255 255
255 255 255 255 255 255 255 255 255 255 255 255 255 255 255 255 255
255 255 255 255 255 255 255 255 255 255 255 255 255 255 255 255 255
255 255 255 255 255 255 255 255 255 255 255 255 255 255 255 255 255
255 255 255 255 255 255 255 255 255 255 255 255 255 255 255 255 255
255 255 255 255 255 255 255 255 255 255 255 255 255 255 255 255 255
255 255 255 255 255 255 255 255 255 255 255 255 255 255 255 255 255
255 255 255 255 255 255 255 255 255 255 255 255 255 255 255 255 255
255 255 255 255 255 255 255 255 255 255 255 255 255 255 255 255 255
255 255 255 255 255 255 255 255 255 255 255 255 255 255 255 255 255
255 255 255 255 255 255 255 255 255 255 255 255 255 255 255 255 255
255 255 255 255 255 255 255 255 255 255 255 255 255 255 255 255 255
255 255 255 255 255 255 255 255 255 255 255 255 255 255 255 255 255
255 255 255 255 255 255 255 255 255 255 255 255 255 255 255 255 255
255 255 255 255 255 255 255 255 255 255 255 255 255 255 255 255 255
255 255 255 255 255 255 255 255 255 255 255 255 255 255 255 255 255
255 255 255 255 255 255 255 255 255 255 255 255 255 255 255 255 255
255 255 255 255 255 255 255 255 255 255 255 255 255 255 255 255 255
255 255 255 255 255 255 255 255 255 255 255 255 255 255 255 255 255
255 255 255 255 255 255 255 255 255 255 255 255 255 255 255 255 255
255 255 255 255 255 255 255 255 255 255 255 255 255 255 255 255 255
255 255 255 255 255 255 255 255 255 255 255 255 255 255 255 255 255
255 255 255 255 255 255 255 255 255 255 255 255 255 255 255 255 255
255 255 255 255 255 255 255 255 255 255 255 255 255 255 255 255 255
255 255 255 255 255 255 255 255 255 255 255 255 255 255 255 255 255
255 255 255 255 255 255 255 255 255 255 255 255 255 255 255 255 255
255 255 255 255 255 255 255 255 255 255 255 255 255 255 255 255 255
255 255 255 255 255 255 255 255 255 255 255 255 255 255 255 255 255
255 255 255 255 255 255 255 255 255 255 255 255 255 255 255 255 255
255 255 255 255 255 255 255 255 255 255 255 255 255 255 255 255 255
255 255 255 255 255 255 255 255 255 255 255 255 255 255 255 255 255
255 255 255 255 255 255 255 255 255 255 255 255 255 255 255 255 255
255 255 255 255 255 255 255 255 255 255 255 255 255 255 255 255 255
255 255 255 255 255 255 255 255 255 255 255 255 255 255 255 255 255
255 255 255 255 255 255 255 255 255 255 255 255 255 255 255 255 255
255 255 255 255 255 255 255 255 255 255 255 255 255 255 255 255 255
255 255 255 255 255 255 255 255 255 255 255 255 255 255 255 255 255
255 255 255 255 255 255 255 255 255 255 255 255 255 255 255 255 255
255 255 255 255 255 255 255 255 255 255 255 255 255 255 255 255 255
255 255 255 255 255 255 255 255 255 255 255 255 255 255 255 255 255
255 255 255 255 255 255 255 255 255 255 255 255 255 255 255 255 255
255 255 255 255 255 255 255 255 255 255 255 255 255 255 255 255 255
255 255 255 255 255 255 255 255 255 255 255 255 255 255 255 255 255
255 255 255 255 255 255 255 255 255 255 255 255 255 255 255 255 255
255 255 255 255 255 255 255 255 255 255 255 255 255 255 255 255 255
255 255 255 255 255 255 255 255 255 255 255 255 255 255 255 255 255
255 255 255 255 255 255 255 255 255 255 255 255 255 255 255 255 255
255 255 255 255 255 255 255 255 255 255 255 255 255 255 255 255 255
255 255 255 255 255 255 255 255 255 255 255 255 255 255 255 255 255
255 255 255 255 255 255 255 255 255 255 255 255 255 255 255 255 255
255 255 255 255 255 255 255 255 255 255 255 255 255 255 255 255 255
255 255 255 255 255 255 255 255 255 255 255 255 255 255 255 255 255
255 255 255 255 255 255 255 255 255 255 255 255 255 255 255 255 255
255 255 255 255 255 255 255 255 255 255 255 255 255 255 255 255 255
255 255 255 255 255 255 255 255 255 255 255 255 255 255 255 255 255
255 255 255 255 255 255 255 255 255 255 255 255 255 255 255 255 255
255 255 255 255 255 255 255 255 255 255 255 255 255 255 255 255 255
255 255 255 255 255 255 255 255 255 255 255 255 255 255 255 255 255
255 255 255 255 255 255 255 255 255 255 255 255 255 255 255 255 255
255 255 255 255 255 255 255 255 255 255 255 255 255 255 255 255 255
255 255 255 255 255 255 255 255 255 255 255 255 255 255 255 255 255
255 255 255 255 255 255 255 255 255 255 255 255 255 255 255 255 255
255 255 255 255 255 255 255 255 255 255 255 255 255 255 255 255 255
255 255 255 255 255 255 255 255 255 255 255 255 255 255 255 255 255
255 255 255 255 255 255 255 255 255 255 255 255 255 255 255 255 255
255 255 255 255 255 255 255 255 255 255 255 255 255 255 255 255 255
255 255 255 255 255 255 255 255 255 255 255 255 255 255 255 255 255
255 255 255 255 255 255 255 255 255 255 255 255 255 255 255 255 255
255 255 255 255 255 255 255 255 255 255 255 255 255 255 255 255 255
255 255 255 255 255 255 255 255 255 255 255 255 255 255 255 255 255
255 255 255 255 255 255 255 255 255 255 255 255 255 255 255 255 255
255 255 255 255 255 255 255 255 255 255 255 255 255 255 255 255 255
255 255 255 255 255 255 255 255 255 255 255 255 255 255 255 255 255
255 255 255 255 255 255 255 255 255 255 255 255 255 255 255 255 255
255 255 255 255 255 255 255 255 255 255 255 255 255 255 255 255 255
255 255 255 255 255 255 255 255 255 255 255 255 255 255 255 255 255
255 255 255 255 255 255 255 255 255 255 255 255 255 255 255 255 255
255 255 255 255 255 255 255 255 255 255 255 255 255 255 255 255 255
255 255 255 255 255 255 255 255 255 255 255 255 255 255 255 255 255
255 255 255 255 255 255 255 255 255 255 255 255 255 255 255 255 255
255 255 255 255 255 255 255 255 255 255 255 255 255 255 255 255 255
255 255 255 255 255 255 255 255 255 255 255 255 255 255 255 255 255
255 255 255 255 255 255 255 255 255 255 255 255 255 255 255 255 255
255 255 255 255 255 255 255 255 255 255 255 255 255 255 255 255 255
255 255 255 255 255 255 255 255 255 255 255 255 255 255 255 255 255
255 255 255 255 255 255 255 255 255 255 255 255 255 255 255 255 255
255 255 255 255 255 255 255 255 255 255 255 255 255 255 255 255 255
255 255 255 255 255 255 255 255 255 255 255 255 255 255 255 255 255
255 255 255 255 255 255 255 255 255 255 255 255 255 255 255 255 255
255 255 255 255 255 255 255 255 255 255 255 255 255 255 255 255 255
255 255 255 255 255 255 255 255 255 255 255 255 255 255 255 255 255
255 255 255 255 255 255 255 255 255 255 255 255 255 255 255 255 255
255 255 255 255 255 255 255 255 255 255 255 255 255 255 255 255 255
255 255 255 255 255 255 255 255 255 255 255 255 255 255 255 255 255
255 255 255 255 255 255 255 255 255 255 255 255 255 255 255 255 255
255 255 255 255 255 255 255 255 255 255 255 255 255 255 255 255 255
255 255 255 255 255 255 255 255 255 255 255 255 255 255 255 255 255
255 255 255 255 255 255 255 255 255 255 255 255 255 255 255 255 255
255 255 255 255 255 255 255 255 255 255 255 255 255 255 255 255 255
255 255 255 255 255 255 255 255 255 255 255 255 255 255 255 255 255
255 255 255 255 255 255 255 255 255 255 255 255 255 255 255 255 255
255 255 255 255 255 255 255 255 255 255 255 255 255 255 255 255 255
255 255 255 255 255 255 255 255 255 255 255 255 255 255 255 255 255
255 255 255 255 255 255 255 255 255 255 255 255 255 255 255 255 255
255 255 255 255 255 255 255 255 255 255 255 255 255 255 255 255 255
255 255 255 255 255 255 255 255 255 255 255 255 255 255 255 255 255
255 255 255 255 255 255 255 255 255 255 255 255 255 255 255 255 255
255 255 255 255 255 255 255 255 255 255 255 255 255 255 255 255 255
255 255 255 255 255 255 255 255 255 255 255 255 255 255 255 255 255
255 255 255 255 255 255 255 255 255 255 255 255 255 255 255 255 255
255 255 255 255 255 255 255 255 255 255 255 255 255 255 255 255 255
255 255 255 255 255 255 255 255 255 255 255 255 255 255 255 255 255
255 255 255 255 255 255 255 255 255 255 255 255 255 255 255 255 255
255 255 255 255 255 255 255 255 255 255 255 255 255 255 255 255 255
255 255 255 255 255 255 255 255 255 255 255 255 255 255 255 255 255
255 255 255 255 255 255 255 255 255 255 255 255 255 255 255 255 255
255 255 255 255 255 255 255 255 255 255 255 255 255 255 255 255 255
255 255 255 255 255 255 255 255 255 255 255 255 255 255 255 255 255
255 255 255 255 255 255 255 255 255 255 255 255 255 255 255 255 255
255 255 255 255 255 255 255 255 255 255 255 255 255 255 255 255 255
255 255 255 255 255 255 255 255 255 255 255 255 255 255 255 255 255
255 255 255 255 255 255 255 255 255 255 255 255 255 255 255 255 255
255 255 255 255 255 255 255 255 255 255 255 255 255 255 255 255 255
255 255 255 255 255 255 255 255 255 255 255 255 255 255 255 255 255
255 255 255 255 255 255 255 255 255 255 255 255 255 255 255 255 255
255 255 255 255 255 255 255 255 255 255 255 255 255 255 255 255 255
255 255 255 255 255 255 255 255 255 255 255 255 255 255 255 255 255
255 255 255 255 255 255 255 255 255 255 255 255 255 255 255 255 255
255 255 255 255 255 255 255 255 255 255 255 255 255 255 255 255 255
255 255 255 255 255 255 255 255 255 255 255 255 255 255 255 255 255
255 255 255 255 255 255 255 255 255 255 255 255 255 255 255 255 255
255 255 255 255 255 255 255 255 255 255 255 255 255 255 255 255 255
255 255 255 255 255 255 255 255 255 255 255 255 255 255 255 255 255
255 255 255 255 255 255 255 255 255 255 255 255 255 255 255 255 255
255 255 255 255 255 255 255 255 255 255 255 255 255 255 255 255 255
255 255 255 255 255 255 255 255 255 255 255 255 255 255 255 255 255
255 255 255 255 255 255 255 255 255 255 255 255 255 255 255 255 255
255 255 255 255 255 255 255 255 255 255 255 255 255 255 255 255 255
255 255 255 255 255 255 255 255 255 255 255 255 255 255 255 255 255
255 255 255 255 255 255 255 255 255 255 255 255 255 255 255 255 255
255 255 255 255 255 255 255 255 255 255 255 255 255 255 255 255 255
255 255 255 255 255 255 255 255 255 255 255 255 255 255 255 255 255
255 255 255 255 255 255 255 255 255 255 255 255 255 255 255 255 255
255 255 255 255 255 255 255 255 255 255 255 255 255 255 255 255 255
255 255 255 255 255 255 255 255 255 255 255 255 255 255 255 255 255
255 255 255 255 255 255 255 255 255 255 255 255 255 255 255 255 255
255 255 255 255 255 255 255 255 255 255 255 255 255 255 255 255 255
255 255 255 255 255 255 255 255 255 255 255 255 255 255 255 255 255
255 255 255 255 255 255 255 255 255 255 255 255 255 255 255 255 255
255 255 255 255 255 255 255 255 255 255 255 255 255 255 255 255 255
255 255 255 255 255 255 255 255 255 255 255 255 255 255 255 255 255
255 255 255 255 255 255 255 255 255 255 255 255 255 255 255 255 255
255 255 255 255 255 255 255 255 255 255 255 255 255 255 255 255 255
255 255 255 255 255 255 255 255 255 255 255 255 255 255 255 255 255
255 255 255 255 255 255 255 255 255 255 255 255 255 255 255 255 255
255 255 255 255 255 255 255 255 255 255 255 255 255 255 255 255 255
255 255 255 255 255 255 255 255 255 255 255 255 255 255 255 255 255
255 255 255 255 255 255 255 255 255 255 255 255 255 255 255 255 255
255 255 255 255 255 255 255 255 255 255 255 255 255 255 255 255 255
255 255 255 255 255 255 255 255 255 255 255 255 255 255 255 255 255
255 255 255 255 255 255 255 255 255 255 255 255 255 255 255 255 255
255 255 255 255 255 255 255 255 255 255 255 255 255 255 255 255 255
255 255 255 255 255 255 255 255 255 255 255 255 255 255 255 255 255
255 255 255 255 255 255 255 255 255 255 255 255 255 255 255 255 255
255 255 255 255 255 255 255 255 255 255 255 255 255 255 255 255 255
255 255 255 255 255 255 255 255 255 255 255 255 255 255 255 255 255
255 255 255 255 255 255 255 255 255 255 255 255 255 255 255 255 255
255 255 255 255 255 255 255 255 255 255 255 255 255 255 255 255 255
255 255 255 255 255 255 255 255 255 255 255 255 255 255 255 255 255
255 255 255 255 255 255 255 255 255 255 255 255 255 255 255 255 255
255 255 255 255 255 255 255 255 255 255 255 255 255 255 255 255 255
255 255 255 255 255 255 255 255 255 255 255 255 255 255 255 255 255
255 255 255 255 255 255 255 255 255 255 255 255 255 255 255 255 255
255 255 255 255 255 255 255 255 255 255 255 255 255 255 255 255 255
255 255 255 255 255 255 255 255 255 255 255 255 255 255 255 255 255
255 255 255 255 255 255 255 255 255 255 255 255 255 255 255 255 255
255 255 255 255 255 255 255 255 255 255 255 255 255 255 255 255 255
255 255 255 255 255 255 255 255 255 255 255 255 255 255 255 255 255
255 255 255 255 255 255 255 255 255 255 255 255 255 255 255 255 255
255 255 255 255 255 255 255 255 255 255 255 255 255 255 255 255 255
255 255 255 255 255 255 255 255 255 255 255 255 255 255 255 255 255
255 255 255 255 255 255 255 255 255 255 255 255 255 255 255 255 255
255 255 255 255 255 255 255 255 255 255 255 255 255 255 255 255 255
255 255 255 255 255 255 255 255 255 255 255 255 255 255 255 255 255
255 255 255 255 255 255 255 255 255 255 255 255 255 255 255 255 255
255 255 255 255 255 255 255 255 255 255 255 255 255 255 255 255 255
255 255 255 255 255 255 255 255 255 255 255 255 255 255 255 255 255
255 255 255 255 255 255 255 255 255 255 255 255 255 255 255 255 255
255 255 255 255 255 255 255 255 255 255 255 255 255 255 255 255 255
255 255 255 255 255 255 255 255 255 255 255 255 255 255 255 255 255
255 255 255 255 255 255 255 255 255 255 255 255 255 255 255 255 255
255 255 255 255 255 255 255 255 255 255 255 255 255 255 255 255 255
255 255 255 255 255 255 255 255 255 255 255 255 255 255 255 255 255
255 255 255 255 255 255 255 255 255 255 255 255 255 255 255 255 255
255 255 255 255 255 255 255 255 255 255 255 255 255 255 255 255 255
255 255 255 255 255 255 255 255 255 255 255 255 255 255 255 255 255
255 255 255 255 255 255 255 255 255 255 255 255 255 255 255 255 255
255 255 255 255 255 255 255 255 255 255 255 255 255 255 255 255 255
255 255 255 255 255 255 255 255 255 255 255 255 255 255 255 255 255
255 255 255 255 255 255 255 255 255 255 255 255 255 255 255 255 255
255 255 255 255 255 255 255 255 255 255 255 255 255 255 255 255 255
255 255 255 255 255 255 255 255 255 255 255 255 255 255 255 255 255
255 255 255 255 255 255 255 255 255 255 255 255 255 255 255 255 255
255 255 255 255 255 255 255 255 255 255 255 255 255 255 255 255 255
255 255 255 255 255 255 255 255 255 255 255 255 255 255 255 255 255
255 255 255 255 255 255 255 255 255 255 255 255 255 255 255 255 255
255 255 255 255 255 255 255 255 255 255 255 255 255 255 255 255 255
255 255 255 255 255 255 255 255 255 255 255 255 255 255 255 255 255
255 255 255 255 255 255 255 255 255 255 255 255 255 255 255 255 255
255 255 255 255 255 255 255 255 255 255 255 255 255 255 255 255 255
255 255 255 255 255 255 255 255 255 255 255 255 255 255 255 255 255
255 255 255 255 255 255 255 255 255 255 255 255 255 255 255 255 255
255 255 255 255 255 255 255 255 255 255 255 255 255 255 255 255 255
255 255 255 255 255 255 255 255 255 255 255 255 255 255 255 255 255
255 255 255 255 255 255 255 255 255 255 255 255 255 255 255 255 255
255 255 255 255 255 255 255 255 255 255 255 255 255 255 255 255 255
255 255 255 255 255 255 255 255 255 255 255 255 255 255 255 255 255
255 255 255 255 255 255 255 255 255 255 255 255 255 255 255 255 255
255 255 255 255 255 255 255 255 255 255 255 255 255 255 255 255 255
255 255 255 255 255 255 255 255 255 255 255 255 255 255 255 255 255
255 255 255 255 255 255 255 255 255 255 255 255 255 255 255 255 255
255 255 255 255 255 255 255 255 255 255 255 255 255 255 255 255 255
255 255 255 255 255 255 255 255 255 255 255 255 255 255 255 255 255
255 255 255 255 255 255 255 255 255 255 255 255 255 255 255 255 255
255 255 255 255 255 255 255 255 255 255 255 255 255 255 255 255 255
255 255 255 255 255 255 255 255 255 255 255 255 255 255 255 255 255
255 255 255 255 255 255 255 255 255 255 255 255 255 255 255 255 255
255 255 255 255 255 255 255 255 255 255 255 255 255 255 255 255 255
255 255 255 255 255 255 255 255 255 255 255 255 255 255 255 255 255
255 255 255 255 255 255 255 255 255 255 255 255 255 255 255 255 255
255 255 255 255 255 255 255 255 255 255 255 255 255 255 255 255 255
255 255 255 255 255 255 255 255 255 255 255 255 255 255 255 255 255
255 255 255 255 255 255 255 255 255 255 255 255 255 255 255 255 255
255 255 255 255 255 255 255 255 255 255 255 255 255 255 255 255 255
255 255 255 255 255 255 255 255 255 255 255 255 255 255 255 255 255
255 255 255 255 255 255 255 255 255 255 255 255 255 255 255 255 255
255 255 255 255 255 255 255 255 255 255 255 255 255 255 255 255 255
255 255 255 255 255 255 255 255 255 255 255 255 255 255 255 255 255
255 255 255 255 255 255 255 255 255 255 255 255 255 255 255 255 255
255 255 255 255 255 255 255 255 255 255 255 255 255 255 255 255 255
255 255 255 255 255 255 255 255 255 255 255 255 255 255 255 255 255
255 255 255 255 255 255 255 255 255 255 255 255 255 255 255 255 255
255 255 255 255 255 255 255 255 255 255 255 255 255 255 255 255 255
255 255 255 255 255 255 255 255 255 255 255 255 255 255 255 255 255
255 255 255 255 255 255 255 255 255 255 255 255 255 255 255 255 255
255 255 255 255 255 255 255 255 255 255 255 255 255 255 255 255 255
255 255 255 255 255 255 255 255 255 255 255 255 255 255 255 255 255
255 255 255 255 255 255 255 255 255 255 255 255 255 255 255 255 255
255 255 255 255 255 255 255 255 255 255 255 255 255 255 255 255 255
255 255 255 255 255 255 255 255 255 255 255 255 255 255 255 255 255
255 255 255 255 255 255 255 255 255 255 255 255 255 255 255 255 255
255 255 255 255 255 255 255 255 255 255 255 255 255 255 255 255 255
255 255 255 255 255 255 255 255 255 255 255 255 255 255 255 255 255
255 255 255 255 255 255 255 255 255 255 255 255 255 255 255 255 255
255 255 255 255 255 255 255 255 255 255 255 255 255 255 255 255 255
255 255 255 255 255 255 255 255 255 255 255 255 255 255 255 255 255
255 255 255 255 255 255 255 255 255 255 255 255 255 255 255 255 255
255 255 255 255 255 255 255 255 255 255 255 255 255 255 255 255 255
255 255 255 255 255 255 255 255 255 255 255 255 255 255 255 255 255
255 255 255 255 255 255 255 255 255 255 255 255 255 255 255 255 255
255 255 255 255 255 255 255 255 255 255 255 255 255 255 255 255 255
255 255 255 255 255 255 255 255 255 255 255 255 255 255 255 255 255
255 255 255 255 255 255 255 255 255 255 255 255 255 255 255 255 255
255 255 255 255 255 255 255 255 255 255 255 255 255 255 255 255 255
255 255 255 255 255 255 255 255 255 255 255 255 255 255 255 255 255
255 255 255 255 255 255 255 255 255 255 255 255 255 255 255 255 255
255 255 255 255 255 255 255 255 255 255 255 255 255 255 255 255 255
255 255 255 255 255 255 255 255 255 255 255 255 255 255 255 255 255
255 255 255 255 255 255 255 255 255 255 255 255 255 255 255 255 255
255 255 255 255 255 255 255 255 255 255 255 255 255 255 255 255 255
255 255 255 255 255 255 255 255 255 255 255 255 255 255 255 255 255
255 255 255 255 255 255 255 255 255 255 255 255 255 255 255 255 255
255 255 255 255 255 255 255 255 255 255 255 255 255 255 255 255 255
255 255 255 255 255 255 255 255 255 255 255 255 255 255 255 255 255
255 255 255 255 255 255 255 255 255 255 255 255 255 255 255 255 255
255 255 255 255 255 255 255 255 255 255 255 255 255 255 255 255 255
255 255 255 255 255 255 255 255 255 255 255 255 255 255 255 255 255
255 255 255 255 255 255 255 255 255 255 255 255 255 255 255 255 255
255 255 255 255 255 255 255 255 255 255 255 255 255 255 255 255 255
255 255 255 255 255 255 255 255 255 255 255 255 255 255 255 255 255
255 255 255 255 255 255 255 255 255 255 255 255 255 255 255 255 255
255 255 255 255 255 255 255 255 255 255 255 255 255 255 255 255 255
255 255 255 255 255 255 255 255 255 255 255 255 255 255 255 255 255
255 255 255 255 255 255 255 255 255 255 255 255 255 255 255 255 255
255 255 255 255 255 255 255 255 255 255 255 255 255 255 255 255 255
255 255 255 255 255 255 255 255 255 255 255 255 255 255 255 255 255
255 255 255 255 255 255 255 255 255 255 255 255 255 255 255 255 255
255 255 255 255 255 255 255 255 255 255 255 255 255 255 255 255 255
255 255 255 255 255 255 255 255 255 255 255 255 255 255 255 255 255
255 255 255 255 255 255 255 255 255 255 255 255 255 255 255 255 255
255 255 255 255 255 255 255 255 255 255 255 255 255 255 255 255 255
255 255 255 255 255 255 255 255 255 255 255 255 255 255 255 255 255
255 255 255 255 255 255 255 255 255 255 255 255 255 255 255 255 255
255 255 255 255 255 255 255 255 255 255 255 255 255 255 255 255 255
255 255 255 255 255 255 255 255 255 255 255 255 255 255 255 255 255
255 255 255 255 255 255 255 255 255 255 255 255 255 255 255 255 255
255 255 255 255 255 255 255 255 255 255 255 255 255 255 255 255 255
255 255 255 255 255 255 255 255 255 255 255 255 255 255 255 255 255
255 255 255 255 255 255 255 255 255 255 255 255 255 255 255 255 255
255 255 255 255 255 255 255 255 255 255 255 255 255 255 255 255 255
255 255 255 255 255 255 255 255 255 255 255 255 255 255 255 255 255
255 255 255 255 255 255 255 255 255 255 255 255 255 255 255 255 255
255 255 255 255 255 255 255 255 255 255 255 255 255 255 255 255 255
255 255 255 255 255 255 255 255 255 255 255 255 255 255 255 255 255
255 255 255 255 255 255 255 255 255 255 255 255 255 255 255 255 255
255 255 255 255 255 255 255 255 255 255 255 255 255 255 255 255 255
255 255 255 255 255 255 255 255 255 255 255 255 255 255 255 255 255
255 255 255 255 255 255 255 255 255 255 255 255 255 255 255 255 255
255 255 255 255 255 255 255 255 255 255 255 255 255 255 255 255 255
255 255 255 255 255 255 255 255 255 255 255 255 255 255 255 255 255
255 255 255 255 255 255 255 255 255 255 255 255 255 255 255 255 255
255 255 255 255 255 255 255 255 255 255 255 255 255 255 255 255 255
255 255 255 255 255 255 255 255 255 255 255 255 255 255 255 255 255
255 255 255 255 255 255 255 255 255 255 255 255 255 255 255 255 255
255 255 255 255 255 255 255 255 255 255 255 255 255 255 255 255 255
255 255 255 255 255 255 255 255 255 255 255 255 255 255 255 255 255
255 255 255 255 255 255 255 255 255 255 255 255 255 255 255 255 255
255 255 255 255 255 255 255 255 255 255 255 255 255 255 255 255 255
255 255 255 255 255 255 255 255 255 255 255 255 255 255 255 255 255
255 255 255 255 255 255 255 255 255 255 255 255 255 255 255 255 255
255 255 255 255 255 255 255 255 255 255 255 255 255 255 255 255 255
255 255 255 255 255 255 255 255 255 255 255 255 255 255 255 255 255
255 255 255 255 255 255 255 255 255 255 255 255 255 255 255 255 255
255 255 255 255 255 255 255 255 255 255 255 255 255 255 255 255 255
255 255 255 255 255 255 255 255 255 255 255 255 255 255 255 255 255
255 255 255 255 255 255 255 255 255 255 255 255 255 255 255 255 255
255 255 255 255 255 255 255 255 255 255 255 255 255 255 255 255 255
255 255 255 255 255 255 255 255 255 255 255 255 255 255 255 255 255
255 255 255 255 255 255 255 255 255 255 255 255 255 255 255 255 255
255 255 255 255 255 255 255 255 255 255 255 255 255 255 255 255 255
255 255 255 255 255 255 255 255 255 255 255 255 255 255 255 255 255
255 255 255 255 255 255 255 255 255 255 255 255 255 255 255 255 255
255 255 255 255 255 255 255 255 255 255 255 255 255 255 255 255 255
255 255 255 255 255 255 255 255 255 255 255 255 255 255 255 255 255
255 255 255 255 255 255 255 255 255 255 255 255 255 255 255 255 255
255 255 255 255 255 255 255 255 255 255 255 255 255 255 255 255 255
255 255 255 255 255 255 255 255 255 255 255 255 255 255 255 255 255
255 255 255 255 255 255 255 255 255 255 255 255 255 255 255 255 255
255 255 255 255 255 255 255 255 255 255 255 255 255 255 255 255 255
255 255 255 255 255 255 255 255 255 255 255 255 255 255 255 255 255
255 255 255 255 255 255 255 255 255 255 255 255 255 255 255 255 255
255 255 255 255 255 255 255 255 255 255 255 255 255 255 255 255 255
255 255 255 255 255 255 255 255 255 255 255 255 255 255 255 255 255
255 255 255 255 255 255 255 255 255 255 255 255 255 255 255 255 255
255 255 255 255 255 255 255 255 255 255 255 255 255 255 255 255 255
255 255 255 255 255 255 255 255 255 255 255 255 255 255 255 255 255
255 255 255 255 255 255 255 255 255 255 255 255 255 255 255 255 255
255 255 255 255 255 255 255 255 255 255 255 255 255 255 255 255 255
255 255 255 255 255 255 255 255 255 255 255 255 255 255 255 255 255
255 255 255 255 255 255 255 255 255 255 255 255 255 255 255 255 255
255 255 255 255 255 255 255 255 255 255 255 255 255 255 255 255 255
255 255 255 255 255 255 255 255 255 255 255 255 255 255 255 255 255
255 255 255 255 255 255 255 255 255 255 255 255 255 255 255 255 255
255 255 255 255 255 255 255 255 255 255 255 255 255 255 255 255 255
255 255 255 255 255 255 255 255 255 255 255 255 255 255 255 255 255
255 255 255 255 255 255 255 255 255 255 255 255 255 255 255 255 255
255 255 255 255 255 255 255 255 255 255 255 255 255 255 255 255 255
255 255 255 255 255 255 255 255 255 255 255 255 255 255 255 255 255
255 255 255 255 255 255 255 255 255 255 255 255 255 255 255 255 255
255 255 255 255 255 255 255 255 255 255 255 255 255 255 255 255 255
255 255 255 255 255 255 255 255 255 255 255 255 255 255 255 255 255
255 255 255 255 255 255 255 255 255 255 255 255 255 255 255 255 255
255 255 255 255 255 255 255 255 255 255 255 255 255 255 255 255 255
255 255 255 255 255 255 255 255 255 255 255 255 255 255 255 255 255
255 255 255 255 255 255 255 255 255 255 255 255 255 255 255 255 255
255 255 255 255 255 255 255 255 255 255 255 255 255 255 255 255 255
255 255 255 255 255 255 255 255 255 255 255 255 255 255 255 255 255
255 255 255 255 255 255 255 255 255 255 255 255 255 255 255 255 255
255 255 255 255 255 255 255 255 255 255 255 255 255 255 255 255 255
255 255 255 255 255 255 255 255 255 255 255 255 255 255 255 255 255
255 255 255 255 255 255 255 255 255 255 255 255 255 255 255 255 255
255 255 255 255 255 255 255 255 255 255 255 255 255 255 255 255 255
255 255 255 255 255 255 255 255 255 255 255 255 255 255 255 255 255
255 255 255 255 255 255 255 255 255 255 255 255 255 255 255 255 255
255 255 255 255 255 255 255 255 255 255 255 255 255 255 255 255 255
255 255 255 255 255 255 255 255 255 255 255 255 255 255 255 255 255
255 255 255 255 255 255 255 255 255 255 255 255 255 255 255 255 255
255 255 255 255 255 255 255 255 255 255 255 255 255 255 255 255 255
255 255 255 255 255 255 255 255 255 255 255 255 255 255 255 255 255
255 255 255 255 255 255 255 255 255 255 255 255 255 255 255 255 255
255 255 255 255 255 255 255 255 255 255 255 255 255 255 255 255 255
255 255 255 255 255 255 255 255 255 255 255 255 255 255 255 255 255
255 255 255 255 255 255 255 255 255 255 255 255 255 255 255 255 255
255 255 255 255 255 255 255 255 255 255 255 255 255 255 255 255 255
255 255 255 255 255 255 255 255 255 255 255 255 255 255 255 255 255
255 255 255 255 255 255 255 255 255 255 255 255 255 255 255 255 255
255 255 255 255 255 255 255 255 255 255 255 255 255 255 255 255 255
255 255 255 255 255 255 255 255 255 255 255 255 255 255 255 255 255
255 255 255 255 255 255 255 255 255 255 255 255 255 255 255 255 255
255 255 255 255 255 255 255 255 255 255 255 255 255 255 255 255 255
255 255 255 255 255 255 255 255 255 255 255 255 255 255 255 255 255
255 255 255 255 255 255 255 255 255 255 255 255 255 255 255 255 255
255 255 255 255 255 255 255 255 255 255 255 255 255 255 255 255 255
255 255 255 255 255 255 255 255 255 255 255 255 255 255 255 255 255
255 255 255 255 255 255 255 255 255 255 255 255 255 255 255 255 255
255 255 255 255 255 255 255 255 255 255 255 255 255 255 255 255 255
255 255 255 255 255 255 255 255 255 255 255 255 255 255 255 255 255
255 255 255 255 255 255 255 255 255 255 255 255 255 255 255 255 255
255 255 255 255 255 255 255 255 255 255 255 255 255 255 255 255 255
255 255 255 255 255 255 255 255 255 255 255 255 255 255 255 255 255
255 255 255 255 255 255 255 255 255 255 255 255 255 255 255 255 255
255 255 255 255 255 255 255 255 255 255 255 255 255 255 255 255 255
255 255 255 255 255 255 255 255 255 255 255 255 255 255 255 255 255
255 255 255 255 255 255 255 255 255 255 255 255 255 255 255 255 255
255 255 255 255 255 255 255 255 255 255 255 255 255 255 255 255 255
255 255 255 255 255 255 255 255 255 255 255 255 255 255 255 255 255
255 255 255 255 255 255 255 255 255 255 255 255 255 255 255 255 255
255 255 255 255 255 255 255 255 255 255 255 255 255 255 255 255 255
255 255 255 255 255 255 255 255 255 255 255 255 255 255 255 255 255
255 255 255 255 255 255 255 255 255 255 255 255 255 255 255 255 255
255 255 255 255 255 255 255 255 255 255 255 255 255 255 255 255 255
255 255 255 255 255 255 255 255 255 255 255 255 255 255 255 255 255
255 255 255 255 255 255 255 255 255 255 255 255 255 255 255 255 255
255 255 255 255 255 255 255 255 255 255 255 255 255 255 255 255 255
255 255 255 255 255 255 255 255 255 255 255 255 255 255 255 255 255
255 255 255 255 255 255 255 255 255 255 255 255 255 255 255 255 255
255 255 255 255 255 255 255 255 255 255 255 255 255 255 255 255 255
255 255 255 255 255 255 255 255 255 255 255 255 255 255 255 255 255
255 255 255 255 255 255 255 255 255 255 255 255 255 255 255 255 255
255 255 255 255 255 255 255 255 255 255 255 255 255 255 255 255 255
255 255 255 255 255 255 255 255 255 255 255 255 255 255 255 255 255
255 255 255 255 255 255 255 255 255 255 255 255 255 255 255 255 255
255 255 255 255 255 255 255 255 255 255 255 255 255 255 255 255 255
255 255 255 255 255 255 255 255 255 255 255 255 255 255 255 255 255
255 255 255 255 255 255 255 255 255 255 255 255 255 255 255 255 255
255 255 255 255 255 255 255 255 255 255 255 255 255 255 255 255 255
255 255 255 255 255 255 255 255 255 255 255 255 255 255 255 255 255
255 255 255 255 255 255 255 255 255 255 255 255 255 255 255 255 255
255 255 255 255 255 255 255 255 255 255 255 255 255 255 255 255 255
255 255 255 255 255 255 255 255 255 255 255 255 255 255 255 255 255
255 255 255 255 255 255 255 255 255 255 255 255 255 255 255 255 255
255 255 255 255 255 255 255 255 255 255 255 255 255 255 255 255 255
255 255 255 255 255 255 255 255 255 255 255 255 255 255 255 255 255
255 255 255 255 255 255 255 255 255 255 255 255 255 255 255 255 255
255 255 255 255 255 255 255 255 255 255 255 255 255 255 255 255 255
255 255 255 255 255 255 255 255 255 255 255 255 255 255 255 255 255
255 255 255 255 255 255 255 255 255 255 255 255 255 255 255 255 255
255 255 255 255 255 255 255 255 255 255 255 255 255 255 255 255 255
255 255 255 255 255 255 255 255 255 255 255 255 255 255 255 255 255
255 255 255 255 255 255 255 255 255 255 255 255 255 255 255 255 255
255 255 255 255 255 255 255 255 255 255 255 255 255 255 255 255 255
255 255 255 255 255 255 255 255 255 255 255 255 255 255 255 255 255
255 255 255 255 255 255 255 255 255 255 255 255 255 255 255 255 255
255 255 255 255 255 255 255 255 255 255 255 255 255 255 255 255 255
255 255 255 255 255 255 255 255 255 255 255 255 255 255 255 255 255
255 255 255 255 255 255 255 255 255 255 255 255 255 255 255 255 255
255 255 255 255 255 255 255 255 255 255 255 255 255 255 255 255 255
255 255 255 255 255 255 255 255 255 255 255 255 255 255 255 255 255
255 255 255 255 255 255 255 255 255 255 255 255 255 255 255 255 255
255 255 255 255 255 255 255 255 255 255 255 255 255 255 255 255 255
255 255 255 255 255 255 255 255 255 255 255 255 255 255 255 255 255
255 255 255 255 255 255 255 255 255 255 255 255 255 255 255 255 255
255 255 255 255 255 255 255 255 255 255 255 255 255 255 255 255 255
255 255 255 255 255 255 255 255 255 255 255 255 255 255 255 255 255
255 255 255 255 255 255 255 255 255 255 255 255 255 255 255 255 255
255 255 255 255 255 255 255 255 255 255 255 255 255 255 255 255 255
255 255 255 255 255 255 255 255 255 255 255 255 255 255 255 255 255
255 255 255 255 255 255 255 255 255 255 255 255 255 255 255 255 255
255 255 255 255 255 255 255 255 255 255 255 255 255 255 255 255 255
255 255 255 255 255 255 255 255 255 255 255 255 255 255 255 255 255
255 255 255 255 255 255 255 255 255 255 255 255 255 255 255 255 255
255 255 255 255 255 255 255 255 255 255 255 255 255 255 255 255 255
255 255 255 255 255 255 255 255 255 255 255 255 255 255 255 255 255
255 255 255 255 255 255 255 255 255 255 255 255 255 255 255 255 255
255 255 255 255 255 255 255 255 255 255 255 255 255 255 255 255 255
255 255 255 255 255 255 255 255 255 255 255 255 255 255 255 255 255
255 255 255 255 255 255 255 255 255 255 255 255 255 255 255 255 255
255 255 255 255 255 255 255 255 255 255 255 255 255 255 255 255 255
255 255 255 255 255 255 255 255 255 255 255 255 255 255 255 255 255
255 255 255 255 255 255 255 255 255 255 255 255 255 255 255 255 255
255 255 255 255 255 255 255 255 255 255 255 255 255 255 255 255 255
255 255 255 255 255 255 255 255 255 255 255 255 255 255 255 255 255
255 255 255 255 255 255 255 255 255 255 255 255 255 255 255 255 255
255 255 255 255 255 255 255 255 255 255 255 255 255 255 255 255 255
255 255 255 255 255 255 255 255 255 255 255 255 255 255 255 255 255
255 255 255 255 255 255 255 255 255 255 255 255 255 255 255 255 255
255 255 255 255 255 255 255 255 255 255 255 255 255 255 255 255 255
255 255 255 255 255 255 255 255 255 255 255 255 255 255 255 255 255
255 255 255 255 255 255 255 255 255 255 255 255 255 255 255 255 255
255 255 255 255 255 255 255 255 255 255 255 255 255 255 255 255 255
255 255 255 255 255 255 255 255 255 255 255 255 255 255 255 255 255
255 255 255 255 255 255 255 255 255 255 255 255 255 255 255 255 255
255 255 255 255 255 255 255 255 255 255 255 255 255 255 255 255 255
255 255 255 255 255 255 255 255 255 255 255 255 255 255 255 255 255
255 255 255 255 255 255 255 255 255 255 255 255 255 255 255 255 255
255 255 255 255 255 255 255 255 255 255 255 255 255 255 255 255 255
255 255 255 255 255 255 255 255 255 255 255 255 255 255 255 255 255
255 255 255 255 255 255 255 255 255 255 255 255 255 255 255 255 255
255 255 255 255 255 255 255 255 255 255 255 255 255 255 255 255 255
255 255 255 255 255 255 255 255 255 255 255 255 255 255 255 255 255
255 255 255 255 255 255 255 255 255 255 255 255 255 255 255 255 255
255 255 255 255 255 255 255 255 255 255 255 255 255 255 255 255 255
255 255 255 255 255 255 255 255 255 255 255 255 255 255 255 255 255
255 255 255 255 255 255 255 255 255 255 255 255 255 255 255 255 255
255 255 255 255 255 255 255 255 255 255 255 255 255 255 255 255 255
255 255 255 255 255 255 255 255 255 255 255 255 255 255 255 255 255
255 255 255 255 255 255 255 255 255 255 255 255 255 255 255 255 255
255 255 255 255 255 255 255 255 255 255 255 255 255 255 255 255 255
255 255 255 255 255 255 255 255 255 255 255 255 255 255 255 255 255
255 255 255 255 255 255 255 255 255 255 255 255 255 255 255 255 255
255 255 255 255 255 255 255 255 255 255 255 255 255 255 255 255 255
255 255 255 255 255 255 255 255 255 255 255 255 255 255 255 255 255
255 255 255 255 255 255 255 255 255 255 255 255 255 255 255 255 255
255 255 255 255 255 255 255 255 255 255 255 255 255 255 255 255 255
255 255 255 255 255 255 255 255 255 255 255 255 255 255 255 255 255
255 255 255 255 255 255 255 255 255 255 255 255 255 255 255 255 255
255 255 255 255 255 255 255 255 255 255 255 255 255 255 255 255 255
255 255 255 255 255 255 255 255 255 255 255 255 255 255 255 255 255
255 255 255 255 255 255 255 255 255 255 255 255 255 255 255 255 255
255 255 255 255 255 255 255 255 255 255 255 255 255 255 255 255 255
255 255 255 255 255 255 255 255 255 255 255 255 255 255 255 255 255
255 255 255 255 255 255 255 255 255 255 255 255 255 255 255 255 255
255 255 255 255 255 255 255 255 255 255 255 255 255 255 255 255 255
255 255 255 255 255 255 255 255 255 255 255 255 255 255 255 255 255
255 255 255 255 255 255 255 255 255 255 255 255 255 255 255 255 255
255 255 255 255 255 255 255 255 255 255 255 255 255 255 255 255 255
255 255 255 255 255 255 255 255 255 255 255 255 255 255 255 255 255
255 255 255 255 255 255 255 255 255 255 255 255 255 255 255 255 255
255 255 255 255 255 255 255 255 255 255 255 255 255 255 255 255 255
255 255 255 255 255 255 255 255 255 255 255 255 255 255 255 255 255
255 255 255 255 255 255 255 255 255 255 255 255 255 255 255 255 255
255 255 255 255 255 255 255 255 255 255 255 255 255 255 255 255 255
255 255 255 255 255 255 255 255 255 255 255 255 255 255 255 255 255
255 255 255 255 255 255 255 255 255 255 255 255 255 255 255 255 255
255 255 255 255 255 255 255 255 255 255 255 255 255 255 255 255 255
255 255 255 255 255 255 255 255 255 255 255 255 255 255 255 255 255
255 255 255 255 255 255 255 255 255 255 255 255 255 255 255 255 255
255 255 255 255 255 255 255 255 255 255 255 255 255 255 255 255 255
255 255 255 255 255 255 255 255 255 255 255 255 255 255 255 255 255
255 255 255 255 255 255 255 255 255 255 255 255 255 255 255 255 255
255 255 255 255 255 255 255 255 255 255 255 255 255 255 255 255 255
255 255 255 255 255 255 255 255 255 255 255 255 255 255 255 255 255
255 255 255 255 255 255 255 255 255 255 255 255 255 255 255 255 255
255 255 255 255 255 255 255 255 255 255 255 255 255 255 255 255 255
255 255 255 255 255 255 255 255 255 255 255 255 255 255 255 255 255
255 255 255 255 255 255 255 255 255 255 255 255 255 255 255 255 255
255 255 255 255 255 255 255 255 255 255 255 255 255 255 255 255 255
255 255 255 255 255 255 255 255 255 255 255 255 255 255 255 255 255
255 255 255 255 255 255 255 255 255 255 255 255 255 255 255 255 255
255 255 255 255 255 255 255 255 255 255 255 255 255 255 255 255 255
255 255 255 255 255 255 255 255 255 255 255 255 255 255 255 255 255
255 255 255 255 255 255 255 255 255 255 255 255 255 255 255 255 255
255 255 255 255 255 255 255 255 255 255 255 255 255 255 255 255 255
255 255 255 255 255 255 255 255 255 255 255 255 255 255 255 255 255
255 255 255 255 255 255 255 255 255 255 255 255 255 255 255 255 255
255 255 255 255 255 255 255 255 255 255 255 255 255 255 255 255 255
255 255 255 255 255 255 255 255 255 255 255 255 255 255 255 255 255
255 255 255 255 255 255 255 255 255 255 255 255 255 255 255 255 255
255 255 255 255 255 255 255 255 255 255 255 255 255 255 255 255 255
255 255 255 255 255 255 255 255 255 255 255 255 255 255 255 255 255
255 255 255 255 255 255 255 255 255 255 255 255 255 255 255 255 255
255 255 255 255 255 255 255 255 255 255 255 255 255 255 255 255 255
255 255 255 255 255 255 255 255 255 255 255 255 255 255 255 255 255
255 255 255 255 255 255 255 255 255 255 255 255 255 255 255 255 255
255 255 255 255 255 255 255 255 255 255 255 255 255 255 255 255 255
255 255 255 255 255 255 255 255 255 255 255 255 255 255 255 255 255
255 255 255 255 255 255 255 255 255 255 255 255 255 255 255 255 255
255 255 255 255 255 255 255 255 255 255 255 255 255 255 255 255 255
255 255 255 255 255 255 255 255 255 255 255 255 255 255 255 255 255
255 255 255 255 255 255 255 255 255 255 255 255 255 255 255 255 255
255 255 255 255 255 255 255 255 255 255 255 255 255 255 255 255 255
255 255 255 255 255 255 255 255 255 255 255 255 255 255 255 255 255
255 255 255 255 255 255 255 255 255 255 255 255 255 255 255 255 255
255 255 255 255 255 255 255 255 255 255 255 255 255 255 255 255 255
255 255 255 255 255 255 255 255 255 255 255 255 255 255 255 255 255
255 255 255 255 255 255 255 255 255 255 255 255 255 255 255 255 255
255 255 255 255 255 255 255 255 255 255 255 255 255 255 255 255 255
255 255 255 255 255 255 255 255 255 255 255 255 255 255 255 255 255
255 255 255 255 255 255 255 255 255 255 255 255 255 255 255 255 255
255 255 255 255 255 255 255 255 255 255 255 255 255 255 255 255 255
255 255 255 255 255 255 255 255 255 255 255 255 255 255 255 255 255
255 255 255 255 255 255 255 255 255 255 255 255 255 255 255 255 255
255 255 255 255 255 255 255 255 255 255 255 255 255 255 255 255 255
255 255 255 255 255 255 255 255 255 255 255 255 255 255 255 255 255
255 255 255 255 255 255 255 255 255 255 255 255 255 255 255 255 255
255 255 255 255 255 255 255 255 255 255 255 255 255 255 255 255 255
255 255 255 255 255 255 255 255 255 255 255 255 255 255 255 255 255
255 255 255 255 255 255 255 255 255 255 255 255 255 255 255 255 255
255 255 255 255 255 255 255 255 255 255 255 255 255 255 255 255 255
255 255 255 255 255 255 255 255 255 255 255 255 255 255 255 255 255
255 255 255 255 255 255 255 255 255 255 255 255 255 255 255 255 255
255 255 255 255 255 255 255 255 255 255 255 255 255 255 255 255 255
255 255 255 255 255 255 255 255 255 255 255 255 255 255 255 255 255
255 255 255 255 255 255 255 255 255 255 255 255 255 255 255 255 255
255 255 255 255 255 255 255 255 255 255 255 255 255 255 255 255 255
255 255 255 255 255 255 255 255 255 255 255 255 255 255 255 255 255
255 255 255 255 255 255 255 255 255 255 255 255 255 255 255 255 255
255 255 255 255 255 255 255 255 255 255 255 255 255 255 255 255 255
255 255 255 255 255 255 255 255 255 255 255 255 255 255 255 255 255
255 255 255 255 255 255 255 255 255 255 255 255 255 255 255 255 255
255 255 255 255 255 255 255 255 255 255 255 255 255 255 255 255 255
255 255 255 255 255 255 255 255 255 255 255 255 255 255 255 255 255
255 255 255 255 255 255 255 255 255 255 255 255 255 255 255 255 255
255 255 255 255 255 255 255 255 255 255 255 255 255 255 255 255 255
255 255 255 255 255 255 255 255 255 255 255 255 255 255 255 255 255
255 255 255 255 255 255 255 255 255 255 255 255 255 255 255 255 255
255 255 255 255 255 255 255 255 255 255 255 255 255 255 255 255 255
255 255 255 255 255 255 255 255 255 255 255 255 255 255 255 255 255
255 255 255 255 255 255 255 255 255 255 255 255 255 255 255 255 255
255 255 255 255 255 255 255 255 255 255 255 255 255 255 255 255 255
255 255 255 255 255 255 255 255 255 255 255 255 255 255 255 255 255
255 255 255 255 255 255 255 255 255 255 255 255 255 255 255 255 255
255 255 255 255 255 255 255 255 255 255 255 255 255 255 255 255 255
255 255 255 255 255 255 255 255 255 255 255 255 255 255 255 255 255
255 255 255 255 255 255 255 255 255 255 255 255 255 255 255 255 255
255 255 255 255 255 255 255 255 255 255 255 255 255 255 255 255 255
255 255 255 255 255 255 255 255 255 255 255 255 255 255 255 255 255
255 255 255 255 255 255 255 255 255 255 255 255 255 255 255 255 255
255 255 255 255 255 255 255 255 255 255 255 255 255 255 255 255 255
255 255 255 255 255 255 255 255 255 255 255 255 255 255 255 255 255
255 255 255 255 255 255 255 255 255 255 255 255 255 255 255 255 255
255 255 255 255 255 255 255 255 255 255 255 255 255 255 255 255 255
255 255 255 255 255 255 255 255 255 255 255 255 255 255 255 255 255
255 255 255 255 255 255 255 255 255 255 255 255 255 255 255 255 255
255 255 255 255 255 255 255 255 255 255 255 255 255 255 255 255 255
255 255 255 255 255 255 255 255 255 255 255 255 255 255 255 255 255
255 255 255 255 255 255 255 255 255 255 255 255 255 255 255 255 255
255 255 255 255 255 255 255 255 255 255 255 255 255 255 255 255 255
255 255 255 255 255 255 255 255 255 255 255 255 255 255 255 255 255
255 255 255 255 255 255 255 255 255 255 255 255 255 255 255 255 255
255 255 255 255 255 255 255 255 255 255 255 255 255 255 255 255 255
255 255 255 255 255 255 255 255 255 255 255 255 255 255 255 255 255
255 255 255 255 255 255 255 255 255 255 255 255 255 255 255 255 255
255 255 255 255 255 255 255 255 255 255 255 255 255 255 255 255 255
255 255 255 255 255 255 255 255 255 255 255 255 255 255 255 255 255
255 255 255 255 255 255 255 255 255 255 255 255 255 255 255 255 255
255 255 255 255 255 255 255 255 255 255 255 255 255 255 255 255 255
255 255 255 255 255 255 255 255 255 255 255 255 255 255 255 255 255
255 255 255 255 255 255 255 255 255 255 255 255 255 255 255 255 255
255 255 255 255 255 255 255 255 255 255 255 255 255 255 255 255 255
255 255 255 255 255 255 255 255 255 255 255 255 255 255 255 255 255
255 255 255 255 255 255 255 255 255 255 255 255 255 255 255 255 255
255 255 255 255 255 255 255 255 255 255 255 255 255 255 255 255 255
255 255 255 255 255 255 255 255 255 255 255 255 255 255 255 255 255
255 255 255 255 255 255 255 255 255 255 255 255 255 255 255 255 255
255 255 255 255 255 255 255 255 255 255 255 255 255 255 255 255 255
255 255 255 255 255 255 255 255 255 255 255 255 255 255 255 255 255
255 255 255 255 255 255 255 255 255 255 255 255 255 255 255 255 255
255 255 255 255 255 255 255 255 255 255 255 255 255 255 255 255 255
255 255 255 255 255 255 255 255 255 255 255 255 255 255 255 255 255
255 255 255 255 255 255 255 255 255 255 255 255 255 255 255 255 255
255 255 255 255 255 255 255 255 255 255 255 255 255 255 255 255 255
255 255 255 255 255 255 255 255 255 255 255 255 255 255 255 255 255
255 255 255 255 255 255 255 255 255 255 255 255 255 255 255 255 255
255 255 255 255 255 255 255 255 255 255 255 255 255 255 255 255 255
255 255 255 255 255 255 255 255 255 255 255 255 255 255 255 255 255
255 255 255 255 255 255 255 255 255 255 255 255 255 255 255 255 255
255 255 255 255 255 255 255 255 255 255 255 255 255 255 255 255 255
255 255 255 255 255 255 255 255 255 255 255 255 255 255 255 255 255
255 255 255 255 255 255 255 255 255 255 255 255 255 255 255 255 255
255 255 255 255 255 255 255 255 255 255 255 255 255 255 255 255 255
255 255 255 255 255 255 255 255 255 255 255 255 255 255 255 255 255
255 255 255 255 255 255 255 255 255 255 255 255 255 255 255 255 255
255 255 255 255 255 255 255 255 255 255 255 255 255 255 255 255 255
255 255 255 255 255 255 255 255 255 255 255 255 255 255 255 255 255
255 255 255 255 255 255 255 255 255 255 255 255 255 255 255 255 255
255 255 255 255 255 255 255 255 255 255 255 255 255 255 255 255 255
255 255 255 255 255 255 255 255 255 255 255 255 255 255 255 255 255
255 255 255 255 255 255 255 255 255 255 255 255 255 255 255 255 255
255 255 255 255 255 255 255 255 255 255 255 255 255 255 255 255 255
255 255 255 255 255 255 255 255 255 255 255 255 255 255 255 255 255
255 255 255 255 255 255 255 255 255 255 255 255 255 255 255 255 255
255 255 255 255 255 255 255 255 255 255 255 255 255 255 255 255 255
255 255 255 255 255 255 255 255 255 255 255 255 255 255 255 255 255
255 255 255 255 255 255 255 255 255 255 255 255 255 255 255 255 255
255 255 255 255 255 255 255 255 255 255 255 255 255 255 255 255 255
255 255 255 255 255 255 255 255 255 255 255 255 255 255 255 255 255
255 255 255 255 255 255 255 255 255 255 255 255 255 255 255 255 255
255 255 255 255 255 255 255 255 255 255 255 255 255 255 255 255 255
255 255 255 255 255 255 255 255 255 255 255 255 255 255 255 255 255
255 255 255 255 255 255 255 255 255 255 255 255 255 255 255 255 255
255 255 255 255 255 255 255 255 255 255 255 255 255 255 255 255 255
255 255 255 255 255 255 255 255 255 255 255 255 255 255 255 255 255
255 255 255 255 255 255 255 255 255 255 255 255 255 255 255 255 255
255 255 255 255 255 255 255 255 255 255 255 255 255 255 255 255 255
255 255 255 255 255 255 255 255 255 255 255 255 255 255 255 255 255
255 255 255 255 255 255 255 255 255 255 255 255 255 255 255 255 255
255 255 255 255 255 255 255 255 255 255 255 255 255 255 255 255 255
255 255 255 255 255 255 255 255 255 255 255 255 255 255 255 255 255
255 255 255 255 255 255 255 255 255 255 255 255 255 255 255 255 255
255 255 255 255 255 255 255 255 255 255 255 255 255 255 255 255 255
255 255 255 255 255 255 255 255 255 255 255 255 255 255 255 255 255
255 255 255 255 255 255 255 255 255 255 255 255 255 255 255 255 255
255 255 255 255 255 255 255 255 255 255 255 255 255 255 255 255 255
255 255 255 255 255 255 255 255 255 255 255 255 255 255 255 255 255
255 255 255 255 255 255 255 255 255 255 255 255 255 255 255 255 255
255 255 255 255 255 255 255 255 255 255 255 255 255 255 255 255 255
255 255 255 255 255 255 255 255 255 255 255 255 255 255 255 255 255
255 255 255 255 255 255 255 255 255 255 255 255 255 255 255 255 255
255 255 255 255 255 255 255 255 255 255 255 255 255 255 255 255 255
255 255 255 255 255 255 255 255 255 255 255 255 255 255 255 255 255
255 255 255 255 255 255 255 255 255 255 255 255 255 255 255 255 255
255 255 255 255 255 255 255 255 255 255 255 255 255 255 255 255 255
255 255 255 255 255 255 255 255 255 255 255 255 255 255 255 255 255
255 255 255 255 255 255 255 255 255 255 255 255 255 255 255 255 255
255 255 255 255 255 255 255 255 255 255 255 255 255 255 255 255 255
255 255 255 255 255 255 255 255 255 255 255 255 255 255 255 255 255
255 255 255 255 255 255 255 255 255 255 255 255 255 255 255 255 255
255 255 255 255 255 255 255 255 255 255 255 255 255 255 255 255 255
255 255 255 255 255 255 255 255 255 255 255 255 255 255 255 255 255
255 255 255 255 255 255 255 255 255 255 255 255 255 255 255 255 255
255 255 255 255 255 255 255 255 255 255 255 255 255 255 255 255 255
255 255 255 255 255 255 255 255 255 255 255 255 255 255 255 255 255
255 255 255 255 255 255 255 255 255 255 255 255 255 255 255 255 255
255 255 255 255 255 255 255 255 255 255 255 255 255 255 255 255 255
255 255 255 255 255 255 255 255 255 255 255 255 255 255 255 255 255
255 255 255 255 255 255 255 255 255 255 255 255 255 255 255 255 255
255 255 255 255 255 255 255 255 255 255 255 255 255 255 255 255 255
255 255 255 255 255 255 255 255 255 255 255 255 255 255 255 255 255
255 255 255 255 255 255 255 255 255 255 255 255 255 255 255 255 255
255 255 255 255 255 255 255 255 255 255 255 255 255 255 255 255 255
255 255 255 255 255 255 255 255 255 255 255 255 255 255 255 255 255
255 255 255 255 255 255 255 255 255 255 255 255 255 255 255 255 255
255 255 255 255 255 255 255 255 255 255 255 255 255 255 255 255 255
255 255 255 255 255 255 255 255 255 255 255 255 255 255 255 255 255
255 255 255 255 255 255 255 255 255 255 255 255 255 255 255 255 255
255 255 255 255 255 255 255 255 255 255 255 255 255 255 255 255 255
255 255 255 255 255 255 255 255 255 255 255 255 255 255 255 255 255
255 255 255 255 255 255 255 255 255 255 255 255 255 255 255 255 255
255 255 255 255 255 255 255 255 255 255 255 255 255 255 255 255 255
255 255 255 255 255 255 255 255 255 255 255 255 255 255 255 255 255
255 255 255 255 255 255 255 255 255 255 255 255 255 255 255 255 255
255 255 255 255 255 255 255 255 255 255 255 255 255 255 255 255 255
255 255 255 255 255 255 255 255 255 255 255 255 255 255 255 255 255
255 255 255 255 255 255 255 255 255 255 255 255 255 255 255 255 255
255 255 255 255 255 255 255 255 255 255 255 255 255 255 255 255 255
255 255 255 255 255 255 255 255 255 255 255 255 255 255 255 255 255
255 255 255 255 255 255 255 255 255 255 255 255 255 255 255 255 255
255 255 255 255 255 255 255 255 255 255 255 255 255 255 255 255 255
255 255 255 255 255 255 255 255 255 255 255 255 255 255 255 255 255
255 255 255 255 255 255 255 255 255 255 255 255 255 255 255 255 255
255 255 255 255 255 255 255 255 255 255 255 255 255 255 255 255 255
255 255 255 255 255 255 255 255 255 255 255 255 255 255 255 255 255
255 255 255 255 255 255 255 255 255 255 255 255 255 255 255 255 255
255 255 255 255 255 255 255 255 255 255 255 255 255 255 255 255 255
255 255 255 255 255 255 255 255 255 255 255 255 255 255 255 255 255
255 255 255 255 255 255 255 255 255 255 255 255 255 255 255 255 255
255 255 255 255 255 255 255 255 255 255 255 255 255 255 255 255 255
255 255 255 255 255 255 255 255 255 255 255 255 255 255 255 255 255
255 255 255 255 255 255 255 255 255 255 255 255 255 255 255 255 255
255 255 255 255 255 255 255 255 255 255 255 255 255 255 255 255 255
255 255 255 255 255 255 255 255 255 255 255 255 255 255 255 255 255
255 255 255 255 255 255 255 255 255 255 255 255 255 255 255 255 255
255 255 255 255 255 255 255 255 255 255 255 255 255 255 255 255 255
255 255 255 255 255 255 255 255 255 255 255 255 255 255 255 255 255
255 255 255 255 255 255 255 255 255 255 255 255 255 255 255 255 255
255 255 255 255 255 255 255 255 255 255 255 255 255 255 255 255 255
255 255 255 255 255 255 255 255 255 255 255 255 255 255 255 255 255
255 255 255 255 255 255 255 255 255 255 255 255 255 255 255 255 255
255 255 255 255 255 255 255 255 255 255 255 255 255 255 255 255 255
255 255 255 255 255 255 255 255 255 255 255 255 255 255 255 255 255
255 255 255 255 255 255 255 255 255 255 255 255 255 255 255 255 255
255 255 255 255 255 255 255 255 255 255 255 255 255 255 255 255 255
255 255 255 255 255 255 255 255 255 255 255 255 255 255 255 255 255
255 255 255 255 255 255 255 255 255 255 255 255 255 255 255 255 255
255 255 255 255 255 255 255 255 255 255 255 255 255 255 255 255 255
255 255 255 255 255 255 255 255 255 255 255 255 255 255 255 255 255
255 255 255 255 255 255 255 255 255 255 255 255 255 255 255 255 255
255 255 255 255 255 255 255 255 255 255 255 255 255 255 255 255 255
255 255 255 255 255 255 255 255 255 255 255 255 255 255 255 255 255
255 255 255 255 255 255 255 255 255 255 255 255 255 255 255 255 255
255 255 255 255 255 255 255 255 255 255 255 255 255 255 255 255 255
255 255 255 255 255 255 255 255 255 255 255 255 255 255 255 255 255
255 255 255 255 255 255 255 255 255 255 255 255 255 255 255 255 255
255 255 255 255 255 255 255 255 255 255 255 255 255 255 255 255 255
255 255 255 255 255 255 255 255 255 255 255 255 255 255 255 255 255
255 255 255 255 255 255 255 255 255 255 255 255 255 255 255 255 255
255 255 255 255 255 255 255 255 255 255 255 255 255 255 255 255 255
255 255 255 255 255 255 255 255 255 255 255 255 255 255 255 255 255
255 255 255 255 255 255 255 255 255 255 255 255 255 255 255 255 255
255 255 255 255 255 255 255 255 255 255 255 255 255 255 255 255 255
255 255 255 255 255 255 255 255 255 255 255 255 255 255 255 255 255
255 255 255 255 255 255 255 255 255 255 255 255 255 255 255 255 255
255 255 255 255 255 255 255 255 255 255 255 255 255 255 255 255 255
255 255 255 255 255 255 255 255 255 255 255 255 255 255 255 255 255
255 255 255 255 255 255 255 255 255 255 255 255 255 255 255 255 255
255 255 255 255 255 255 255 255 255 255 255 255 255 255 255 255 255
255 255 255 255 255 255 255 255 255 255 255 255 255 255 255 255 255
255 255 255